luts/bleach_bypass.cube
TITLE "Bleach Bypass"
LUT_3D_SIZE 9
DOMAIN_MIN 0.0 0.0 0.0
DOMAIN_MAX 1.0 1.0 1.0
0.000000 0.000000 0.000000
0.038919 0.012051 0.012051
0.083253 0.025778 0.025778
0.132999 0.041181 0.041181
0.188160 0.058260 0.058260
0.248735 0.077016 0.077016
0.314723 0.097448 0.097448
0.389450 0.119556 0.119556
0.494859 0.143341 0.143341
0.025243 0.053912 0.025243
0.071122 0.071122 0.040584
0.122415 0.090008 0.057602
0.179121 0.110571 0.076296
0.241241 0.132810 0.096666
0.308776 0.156726 0.118713
0.381723 0.182317 0.142436
0.476915 0.209585 0.167835
0.575365 0.238529 0.194910
0.056946 0.121621 0.056946
0.109785 0.143991 0.075579
0.168037 0.168037 0.095887
0.231704 0.193760 0.117872
0.300783 0.221158 0.141533
0.375277 0.250233 0.166871
0.461015 0.280985 0.193885
0.557919 0.313412 0.222575
0.649409 0.347516 0.252941
0.095111 0.203129 0.095111
0.154909 0.230659 0.117034
0.220121 0.259865 0.140633
0.290747 0.290747 0.165909
0.366786 0.323305 0.192861
0.448239 0.357539 0.221489
0.542519 0.393450 0.251794
0.632463 0.431037 0.283775
0.716993 0.470301 0.317432
0.139735 0.298435 0.139735
0.206493 0.331124 0.164949
0.278665 0.365490 0.191840
0.356250 0.401531 0.220406
0.439249 0.439249 0.250649
0.529163 0.478644 0.282569
0.617561 0.519336 0.316164
0.700545 0.558814 0.351436
0.778116 0.596616 0.388384
0.190821 0.407540 0.190821
0.264538 0.445388 0.219326
0.343670 0.486662 0.249507
0.428215 0.527685 0.281365
0.517852 0.567033 0.314898
0.604704 0.604704 0.350108
0.686143 0.640699 0.386995
0.762168 0.675018 0.425557
0.832779 0.707660 0.465796
0.248367 0.538108 0.248367
0.329044 0.577325 0.280163
0.415135 0.614865 0.313635
0.506640 0.650729 0.348783
0.593892 0.684917 0.385608
0.673785 0.717429 0.424109
0.748264 0.748264 0.464286
0.817329 0.777423 0.506140
0.880981 0.804906 0.549669
0.312374 0.662832 0.312374
0.400011 0.696889 0.347461
0.493061 0.729270 0.384224
0.585125 0.759975 0.422663
0.663472 0.789003 0.462778
0.736405 0.816355 0.504570
0.803924 0.842031 0.548038
0.866030 0.866030 0.593183
0.922722 0.888353 0.640003
0.382841 0.773759 0.382841
0.477438 0.802656 0.421219
0.577448 0.829877 0.461273
0.655203 0.855422 0.503003
0.726591 0.879291 0.546409
0.792564 0.901483 0.591492
0.853124 0.921999 0.638251
0.908270 0.940839 0.680289
0.958002 0.958002 0.712402
0.004397 0.004397 0.030109
0.044668 0.017087 0.044668
0.090353 0.031453 0.060903
0.141451 0.047495 0.078814
0.197963 0.065213 0.098401
0.259890 0.084608 0.119665
0.327229 0.105679 0.142604
0.406942 0.128427 0.167220
0.511000 0.152850 0.193513
0.030894 0.060276 0.060276
0.078125 0.078125 0.078125
0.130769 0.097651 0.097651
0.188828 0.118853 0.118853
0.252299 0.141731 0.141731
0.321185 0.166285 0.166285
0.395485 0.192516 0.192516
0.493152 0.220423 0.220423
0.590250 0.250006 0.250006
0.063853 0.129953 0.096903
0.118043 0.152962 0.118043
0.177647 0.177647 0.140859
0.242665 0.204008 0.165352
0.313096 0.232046 0.191521
0.388941 0.261760 0.219366
0.477349 0.293151 0.248888
0.572902 0.326217 0.280086
0.663040 0.360960 0.312960
0.103271 0.213428 0.139990
0.164421 0.241596 0.164421
0.230985 0.271441 0.190529
0.302962 0.302962 0.218312
0.380354 0.336160 0.247772
0.463592 0.371033 0.278908
0.557598 0.407583 0.311721
0.646190 0.445810 0.346210
0.729369 0.485712 0.382375
0.149151 0.310701 0.189539
0.217261 0.344029 0.217261
0.290784 0.379034 0.246659
0.369721 0.415715 0.277733
0.454072 0.454072 0.310484
0.544339 0.494105 0.344911
0.631386 0.534586 0.381014
0.713019 0.573425 0.418794
0.789238 0.610588 0.458250
0.201491 0.421773 0.245548
0.276560 0.460440 0.276560
0.357043 0.502501 0.309249
0.442940 0.542885 0.343615
0.533125 0.581594 0.379656
0.618626 0.618626 0.417374
0.698713 0.653981 0.456769
0.773386 0.687661 0.497839
0.842645 0.719664 0.540586
0.260292 0.553258 0.308017
0.342321 0.591835 0.342321
0.429763 0.628737 0.378301
0.522620 0.663962 0.415957
0.607910 0.697510 0.455290
0.686452 0.729383 0.496298
0.759579 0.759579 0.538983
0.827293 0.788099 0.583345
0.889593 0.814943 0.628318
0.325554 0.676015 0.376947
0.414542 0.709433 0.414542
0.508944 0.741175 0.453813
0.599240 0.771240 0.494760
0.676235 0.799629 0.537383
0.747817 0.826342 0.581683
0.813985 0.851379 0.627016
0.874739 0.874739 0.661589
0.930079 0.896423 0.694485
0.397276 0.784974 0.452338
0.493224 0.813232 0.493224
0.592614 0.839814 0.535786
0.668064 0.864720 0.580024
0.738100 0.887950 0.625712
0.802722 0.909503 0.660347
0.861930 0.929380 0.693305
0.915724 0.947581 0.724587
0.964105 0.964105 0.754192
0.009037 0.009037 0.061887
0.050660 0.022366 0.078954
0.097696 0.037371 0.097696
0.150146 0.054053 0.118115
0.208010 0.072410 0.140210
0.271288 0.092444 0.163982
0.339980 0.114155 0.189430
0.424190 0.137541 0.216554
0.526896 0.162604 0.245354
0.036790 0.066883 0.096977
0.085372 0.085372 0.117334
0.139368 0.105537 0.139368
0.198778 0.127378 0.163078
0.263601 0.150895 0.188464
0.333838 0.176088 0.215526
0.409490 0.202958 0.244265
0.509146 0.231504 0.274679
0.604892 0.261727 0.306770
0.071003 0.138528 0.138528
0.126544 0.162176 0.162176
0.187500 0.187500 0.187500
0.253869 0.214501 0.214501
0.325653 0.243178 0.243178
0.402849 0.273531 0.273531
0.493440 0.305560 0.305560
0.587640 0.339266 0.339266
0.676427 0.374648 0.374648
0.111676 0.223970 0.186539
0.174178 0.252778 0.213478
0.242093 0.283262 0.242093
0.315422 0.315422 0.272384
0.394165 0.349258 0.304352
0.479779 0.384771 0.337996
0.572434 0.421960 0.373316
0.659674 0.460826 0.410313
0.741502 0.501367 0.448986
0.158810 0.323210 0.241010
0.228271 0.357178 0.271240
0.303146 0.392821 0.303146
0.383435 0.430141 0.336729
0.469137 0.469137 0.371987
0.559271 0.509715 0.408922
0.644967 0.549592 0.447533
0.725248 0.587792 0.487821
0.800115 0.624315 0.529785
0.212405 0.436249 0.301943
0.288826 0.476674 0.335464
0.370661 0.518096 0.370661
0.457909 0.557841 0.407534
0.548154 0.595910 0.446083
0.632303 0.632303 0.486309
0.711039 0.667020 0.528211
0.784361 0.700061 0.571789
0.852269 0.731425 0.610581
0.272461 0.568164 0.369336
0.355841 0.606102 0.406148
0.444635 0.642365 0.444635
0.538843 0.676951 0.484799
0.621685 0.709860 0.526640
0.698875 0.741094 0.570156
0.770651 0.770651 0.609251
0.837013 0.798531 0.644606
0.897961 0.824736 0.678286
0.338977 0.688954 0.443190
0.429317 0.721733 0.483292
0.525071 0.752835 0.525071
0.613112 0.782262 0.568526
0.688755 0.810012 0.607918
0.758985 0.836085 0.643335
0.823802 0.860483 0.677077
0.883204 0.883204 0.709142
0.937193 0.904249 0.739530
0.411954 0.795946 0.523504
0.509254 0.823565 0.566897
0.606583 0.849508 0.606583
0.680681 0.873775 0.642062
0.749365 0.896365 0.675865
0.812635 0.917279 0.707992
0.870492 0.936517 0.738442
0.922935 0.954079 0.767216
0.969964 0.969964 0.794314
0.013922 0.013922 0.095334
0.056896 0.027890 0.114908
0.105284 0.043534 0.136159
0.159086 0.060854 0.159086
0.218301 0.079851 0.183689
0.282930 0.100524 0.209968
0.352973 0.122873 0.237923
0.441195 0.146899 0.267555
0.542549 0.172601 0.298863
0.042929 0.073735 0.135347
0.092862 0.092862 0.158212
0.148210 0.113666 0.182754
0.208971 0.136146 0.208971
0.275146 0.160303 0.236865
0.346735 0.186135 0.266435
0.425087 0.213644 0.297682
0.524895 0.242830 0.330605
0.619290 0.273691 0.365204
0.078396 0.147346 0.181821
0.135290 0.171633 0.207977
0.197597 0.197597 0.235809
0.265318 0.225237 0.265318
0.338453 0.254553 0.296503
0.417001 0.285545 0.329364
0.509287 0.318213 0.363901
0.602135 0.352558 0.400115
0.689571 0.388579 0.438004
0.120324 0.234756 0.234756
0.184178 0.264203 0.264203
0.253444 0.295326 0.295326
0.328125 0.328125 0.328125
0.408219 0.362601 0.362601
0.495722 0.398753 0.398753
0.587026 0.436581 0.436581
0.672915 0.476085 0.476085
0.753390 0.517266 0.517266
0.168713 0.335963 0.294151
0.239526 0.370570 0.326889
0.315753 0.406853 0.361303
0.397393 0.444812 0.397393
0.484447 0.484447 0.435159
0.573960 0.525117 0.474602
0.658304 0.564354 0.515721
0.737234 0.601915 0.556809
0.810749 0.637799 0.594562
0.223563 0.450969 0.360007
0.301335 0.492665 0.396035
0.384521 0.533447 0.433740
0.473121 0.572554 0.473121
0.562940 0.609984 0.514179
0.645738 0.645738 0.555388
0.723121 0.679815 0.593203
0.795092 0.712217 0.629342
0.861648 0.742942 0.663804
0.284873 0.582827 0.432323
0.369605 0.620126 0.471643
0.459751 0.655749 0.512639
0.553964 0.689696 0.553964
0.635216 0.721966 0.591841
0.711054 0.752560 0.628042
0.781478 0.781478 0.662566
0.846489 0.808720 0.695414
0.906086 0.834286 0.726586
0.352644 0.701649 0.511101
0.444336 0.733789 0.552539
0.541441 0.764252 0.590477
0.626740 0.793040 0.626740
0.701032 0.820151 0.661326
0.769910 0.845585 0.694235
0.833375 0.869344 0.725469
0.891426 0.891426 0.755026
0.944063 0.911831 0.782906
0.426876 0.806674 0.589111
0.525527 0.833654 0.625435
0.620308 0.858958 0.660083
0.693054 0.882585 0.693054
0.760387 0.904537 0.724349
0.822305 0.924812 0.753968
0.878810 0.943410 0.781910
0.929902 0.960333 0.808177
0.975579 0.975579 0.832767
0.019049 0.019049 0.130449
0.063375 0.033656 0.152531
0.113115 0.049940 0.176290
0.168268 0.067899 0.201724
0.228835 0.087535 0.228835
0.294816 0.108848 0.257623
0.366211 0.131836 0.288086
0.457956 0.156501 0.320226
0.557958 0.182842 0.354042
0.049311 0.080830 0.175386
0.100597 0.100597 0.200759
0.157296 0.122040 0.227808
0.219409 0.145159 0.256534
0.286936 0.169954 0.286936
0.359876 0.196426 0.319014
0.441945 0.224574 0.352768
0.540402 0.254398 0.388198
0.633445 0.285899 0.425305
0.086033 0.156408 0.226783
0.144279 0.181335 0.255447
0.207937 0.207937 0.285787
0.277010 0.236216 0.317804
0.351496 0.266171 0.351496
0.431396 0.297803 0.386865
0.524890 0.331110 0.423910
0.616387 0.366094 0.462632
0.702470 0.402755 0.503020
0.129216 0.245785 0.284641
0.194421 0.275871 0.316596
0.265040 0.307633 0.350227
0.341072 0.341072 0.385534
0.422518 0.376187 0.422518
0.511422 0.412978 0.461178
0.601374 0.451445 0.501511
0.685912 0.491588 0.541724
0.765035 0.533408 0.580260
0.178860 0.348960 0.348960
0.251024 0.384206 0.384206
0.328603 0.421128 0.421128
0.411594 0.459726 0.459726
0.500000 0.500000 0.500000
0.588406 0.540274 0.540274
0.671397 0.578872 0.578872
0.748976 0.615794 0.615794
0.821140 0.651040 0.651040
0.234965 0.466592 0.419740
0.314088 0.508412 0.458276
0.398626 0.548555 0.498489
0.488578 0.587022 0.538822
0.577482 0.623813 0.577482
0.658928 0.658928 0.614466
0.734960 0.692367 0.649773
0.805579 0.724129 0.683404
0.870784 0.754215 0.715359
0.297530 0.597245 0.496980
0.383613 0.633906 0.537368
0.475110 0.668890 0.576090
0.568604 0.702197 0.613135
0.648504 0.733829 0.648504
0.722990 0.763784 0.682196
0.792063 0.792063 0.714213
0.855721 0.818665 0.744553
0.913967 0.843592 0.773217
0.366555 0.714101 0.574695
0.459598 0.745602 0.611802
0.558055 0.775426 0.647232
0.640124 0.803574 0.680986
0.713064 0.830046 0.713064
0.780591 0.854841 0.743466
0.842704 0.877960 0.772192
0.899403 0.899403 0.799241
0.950689 0.919170 0.824614
0.442042 0.817158 0.645958
0.542044 0.843499 0.679774
0.633789 0.868164 0.711914
0.705184 0.891152 0.742377
0.771165 0.912465 0.771165
0.831732 0.932101 0.798276
0.886885 0.950060 0.823710
0.936625 0.966344 0.847469
0.980951 0.980951 0.869551
0.024421 0.024421 0.167233
0.070098 0.039667 0.191823
0.121190 0.056590 0.218090
0.177695 0.075188 0.246032
0.239613 0.095463 0.275651
0.306946 0.117415 0.306946
0.379692 0.141042 0.339917
0.474473 0.166346 0.374565
0.573124 0.193326 0.410889
0.055937 0.088169 0.217094
0.108574 0.108574 0.244974
0.166625 0.130656 0.274531
0.230090 0.154415 0.305765
0.298968 0.179849 0.338674
0.373260 0.206960 0.373260
0.458559 0.235748 0.409523
0.555664 0.266211 0.447461
0.647356 0.298351 0.488899
0.093914 0.165714 0.273414
0.153511 0.191280 0.304586
0.218522 0.218522 0.337434
0.288946 0.247440 0.371958
0.364784 0.278034 0.408159
0.446036 0.310304 0.446036
0.540249 0.344251 0.487361
0.630395 0.379874 0.528357
0.715127 0.417173 0.567677
0.138352 0.257058 0.336196
0.204908 0.287783 0.370658
0.276879 0.320185 0.406797
0.354262 0.354262 0.444612
0.437060 0.390016 0.485821
0.526879 0.427446 0.526879
0.615479 0.466553 0.566260
0.698665 0.507335 0.603965
0.776437 0.549031 0.639993
0.189251 0.362201 0.405438
0.262766 0.398085 0.443191
0.341696 0.435646 0.484279
0.426040 0.474883 0.525398
0.515553 0.515553 0.564841
0.602607 0.555188 0.602607
0.684247 0.593147 0.638697
0.760474 0.629430 0.673111
0.831287 0.664037 0.705849
0.246610 0.482734 0.482734
0.327085 0.523915 0.523915
0.412974 0.563419 0.563419
0.504278 0.601247 0.601247
0.591781 0.637399 0.637399
0.671875 0.671875 0.671875
0.746556 0.704674 0.704674
0.815822 0.735797 0.735797
0.879676 0.765244 0.765244
0.310429 0.611421 0.561996
0.397865 0.647442 0.599885
0.490713 0.681787 0.636099
0.582999 0.714455 0.670636
0.661547 0.745447 0.703497
0.734682 0.774763 0.734682
0.802403 0.802403 0.764191
0.864710 0.828367 0.792023
0.921604 0.852654 0.818179
0.380710 0.726309 0.634796
0.475105 0.757170 0.669395
0.574913 0.786356 0.702318
0.653265 0.813865 0.733565
0.724854 0.839697 0.763135
0.791029 0.863854 0.791029
0.851790 0.886334 0.817246
0.907138 0.907138 0.841788
0.957071 0.926265 0.864653
0.457451 0.827399 0.701137
0.558805 0.853101 0.732445
0.647027 0.877127 0.762077
0.717070 0.899476 0.790032
0.781699 0.920149 0.816311
0.840914 0.939146 0.840914
0.894716 0.956466 0.863841
0.943104 0.972110 0.885092
0.986078 0.986078 0.904666
0.030036 0.030036 0.205686
0.077065 0.045921 0.232784
0.129508 0.063483 0.261558
0.187365 0.082721 0.292008
0.250635 0.103635 0.324135
0.319319 0.126225 0.357938
0.393417 0.150492 0.393417
0.490746 0.176435 0.433103
0.588046 0.204054 0.476496
0.062807 0.095751 0.260470
0.116796 0.116796 0.290858
0.176198 0.139517 0.322923
0.241015 0.163915 0.356665
0.311245 0.189988 0.392082
0.386888 0.217738 0.431474
0.474929 0.247165 0.474929
0.570683 0.278267 0.516708
0.661023 0.311046 0.556810
0.102039 0.175264 0.321714
0.162987 0.201469 0.355394
0.229349 0.229349 0.390749
0.301125 0.258906 0.429844
0.378315 0.290140 0.473360
0.461157 0.323049 0.515201
0.555365 0.357635 0.555365
0.644159 0.393898 0.593852
0.727539 0.431836 0.630664
0.147731 0.268575 0.389419
0.215639 0.299939 0.428211
0.288961 0.332980 0.471789
0.367697 0.367697 0.513691
0.451846 0.404090 0.553917
0.542091 0.442159 0.592466
0.629339 0.481904 0.629339
0.711174 0.523326 0.664536
0.787595 0.563751 0.698057
0.199885 0.375685 0.470215
0.274752 0.412208 0.512179
0.355033 0.450408 0.552467
0.440729 0.490285 0.591078
0.530863 0.530863 0.628013
0.616565 0.569859 0.663271
0.696854 0.607179 0.696854
0.771729 0.642822 0.728760
0.841190 0.676790 0.758990
0.258498 0.498633 0.551014
0.340326 0.539174 0.589687
0.427566 0.578040 0.626684
0.520221 0.615229 0.662004
0.605835 0.650742 0.695648
0.684578 0.684578 0.727616
0.757907 0.716738 0.757907
0.825822 0.747222 0.786522
0.888324 0.776030 0.813461
0.323573 0.625352 0.625352
0.412360 0.660734 0.660734
0.506560 0.694440 0.694440
0.597151 0.726469 0.726469
0.674347 0.756822 0.756822
0.746131 0.785499 0.785499
0.812500 0.812500 0.812500
0.873456 0.837824 0.837824
0.928997 0.861472 0.861472
0.395108 0.738273 0.693230
0.490854 0.768496 0.725321
0.590510 0.797042 0.755735
0.666162 0.823912 0.784474
0.736399 0.849105 0.811536
0.801222 0.872622 0.836922
0.860632 0.894463 0.860632
0.914628 0.914628 0.882666
0.963210 0.933117 0.903023
0.473104 0.837396 0.754646
0.575810 0.862459 0.783446
0.660020 0.885845 0.810570
0.728712 0.907556 0.836018
0.791990 0.927590 0.859790
0.849854 0.945947 0.881885
0.902304 0.962629 0.902304
0.949340 0.977634 0.921046
0.990963 0.990963 0.938113
0.035895 0.035895 0.245808
0.084276 0.052419 0.275413
0.138070 0.070620 0.306695
0.197278 0.090497 0.339653
0.261900 0.112050 0.374288
0.331936 0.135280 0.419976
0.407386 0.160186 0.464214
0.506776 0.186768 0.506776
0.602724 0.215026 0.547662
0.069921 0.103577 0.305515
0.125261 0.125261 0.338411
0.186015 0.148621 0.372984
0.252183 0.173658 0.418317
0.323765 0.200371 0.462617
0.400760 0.228760 0.505240
0.491056 0.258825 0.546187
0.585458 0.290567 0.585458
0.674446 0.323985 0.623053
0.110407 0.185057 0.371682
0.172707 0.211901 0.416655
0.240421 0.240421 0.461017
0.313548 0.270617 0.503702
0.392090 0.302490 0.544710
0.477380 0.336038 0.584043
0.570237 0.371263 0.621699
0.657679 0.408165 0.657679
0.739708 0.446742 0.691983
0.157355 0.280336 0.459414
0.226614 0.312339 0.502161
0.301287 0.346019 0.543231
0.381374 0.381374 0.582626
0.466875 0.418406 0.620344
0.557060 0.457115 0.656385
0.642957 0.497499 0.690751
0.723440 0.539560 0.723440
0.798509 0.578227 0.754452
0.210762 0.389412 0.541750
0.286981 0.426575 0.581206
0.368614 0.465414 0.618986
0.455661 0.505895 0.655089
0.545928 0.545928 0.689516
0.630279 0.584285 0.722267
0.709216 0.620966 0.753341
0.782739 0.655971 0.782739
0.850849 0.689299 0.810461
0.270631 0.514288 0.617625
0.353810 0.554190 0.653790
0.442402 0.592417 0.688279
0.536408 0.628967 0.721092
0.619646 0.663840 0.752228
0.697038 0.697038 0.781688
0.769015 0.728559 0.809471
0.835579 0.758404 0.835579
0.896729 0.786572 0.860010
0.336960 0.639040 0.687040
0.427098 0.673783 0.719914
0.522651 0.706849 0.751112
0.611059 0.738240 0.780634
0.686904 0.767954 0.808479
0.757335 0.795992 0.834648
0.822353 0.822353 0.859141
0.881957 0.847038 0.881957
0.936147 0.870047 0.903097
0.409750 0.749994 0.749994
0.506848 0.779577 0.779577
0.604515 0.807484 0.807484
0.678815 0.833715 0.833715
0.747701 0.858269 0.858269
0.811172 0.881147 0.881147
0.869231 0.902349 0.902349
0.921875 0.921875 0.921875
0.969106 0.939724 0.939724
0.489000 0.847150 0.806487
0.593058 0.871573 0.832780
0.672771 0.894321 0.857396
0.740110 0.915392 0.880335
0.802037 0.934787 0.901599
0.858549 0.952505 0.921186
0.909647 0.968547 0.939097
0.955332 0.982913 0.955332
0.995603 0.995603 0.969891
0.041998 0.041998 0.287598
0.091730 0.059161 0.319711
0.146876 0.078001 0.361749
0.207436 0.098517 0.408508
0.273409 0.120709 0.453591
0.344797 0.144578 0.496997
0.422552 0.170123 0.538727
0.522562 0.197344 0.578781
0.617159 0.226241 0.617159
0.077278 0.111647 0.359997
0.133970 0.133970 0.406817
0.196076 0.157969 0.451962
0.263595 0.183645 0.495430
0.336528 0.210997 0.537222
0.414875 0.240025 0.577337
0.506939 0.270730 0.615776
0.599989 0.303111 0.652539
0.687626 0.337168 0.687626
0.119019 0.195094 0.450331
0.182671 0.222577 0.493860
0.251736 0.251736 0.535714
0.326215 0.282571 0.575891
0.406108 0.315083 0.614392
0.493360 0.349271 0.651217
0.584865 0.385135 0.686365
0.670956 0.422675 0.719837
0.751633 0.461892 0.751633
0.167221 0.292340 0.534204
0.237832 0.324982 0.574443
0.313857 0.359301 0.613005
0.395296 0.395296 0.649892
0.482148 0.432967 0.685102
0.571785 0.472315 0.718635
0.656330 0.513338 0.750493
0.735462 0.554612 0.780674
0.809179 0.592460 0.809179
0.221884 0.403384 0.611616
0.299455 0.441186 0.648564
0.382439 0.480664 0.683836
0.470837 0.521356 0.717431
0.560751 0.560751 0.749351
0.643750 0.598469 0.779594
0.721335 0.634510 0.808160
0.793507 0.668876 0.835051
0.860265 0.701565 0.860265
0.283007 0.529699 0.682568
0.367537 0.568963 0.716225
0.457481 0.606550 0.748206
0.551761 0.642461 0.778511
0.633214 0.676695 0.807139
0.709253 0.709253 0.834091
0.779879 0.740135 0.859367
0.845091 0.769341 0.882966
0.904889 0.796871 0.904889
0.350591 0.652484 0.747059
0.442081 0.686588 0.777425
0.538985 0.719015 0.806115
0.624723 0.749767 0.833129
0.699217 0.778842 0.858467
0.768296 0.806240 0.882128
0.831963 0.831963 0.904113
0.890215 0.856009 0.924421
0.943054 0.878379 0.943054
0.424635 0.761471 0.805090
0.523085 0.790415 0.832165
0.618277 0.817683 0.857564
0.691224 0.843274 0.881287
0.758759 0.867190 0.903334
0.820879 0.889429 0.923704
0.877585 0.909992 0.942398
0.928878 0.928878 0.959416
0.974757 0.946088 0.974757
0.505141 0.856659 0.856659
0.610550 0.880444 0.880444
0.685277 0.902552 0.902552
0.751265 0.922984 0.922984
0.811840 0.941740 0.941740
0.867001 0.958819 0.958819
0.916747 0.974222 0.974222
0.961081 0.987949 0.987949
1.000000 1.000000 1.000000
