luts/bleach_bypass.cube
TITLE "Bleach Bypass"
LUT_3D_SIZE 33
DOMAIN_MIN 0.0 0.0 0.0
DOMAIN_MAX 1.0 1.0 1.0
0.000000 0.000000 0.000000
0.009222 0.002856 0.002856
0.018783 0.005816 0.005816
0.028682 0.008881 0.008881
0.038919 0.012051 0.012051
0.049495 0.015325 0.015325
0.060409 0.018705 0.018705
0.071662 0.022189 0.022189
0.083253 0.025778 0.025778
0.095182 0.029471 0.029471
0.107449 0.033270 0.033270
0.120055 0.037173 0.037173
0.132999 0.041181 0.041181
0.146282 0.045293 0.045293
0.159903 0.049511 0.049511
0.173862 0.053833 0.053833
0.188160 0.058260 0.058260
0.202796 0.062792 0.062792
0.217771 0.067428 0.067428
0.233083 0.072170 0.072170
0.248735 0.077016 0.077016
0.264724 0.081967 0.081967
0.281052 0.087022 0.087022
0.297718 0.092183 0.092183
0.314723 0.097448 0.097448
0.332066 0.102818 0.102818
0.349747 0.108292 0.108292
0.367767 0.113872 0.113872
0.389450 0.119556 0.119556
0.416310 0.125345 0.125345
0.442832 0.131239 0.131239
0.469015 0.137237 0.137237
0.494859 0.143341 0.143341
0.005705 0.012184 0.005705
0.015362 0.015362 0.008766
0.025358 0.018645 0.011932
0.035692 0.022033 0.015203
0.046364 0.025525 0.018578
0.057375 0.029122 0.022059
0.068724 0.032824 0.025644
0.080412 0.036630 0.029333
0.092437 0.040542 0.033128
0.104802 0.044558 0.037027
0.117504 0.048679 0.041031
0.130545 0.052904 0.045140
0.143924 0.057235 0.049354
0.157642 0.061670 0.053672
0.171698 0.066210 0.058095
0.186092 0.070855 0.062623
0.200825 0.075604 0.067256
0.215896 0.080458 0.071993
0.231305 0.085417 0.076836
0.247053 0.090481 0.081783
0.263139 0.095650 0.086834
0.279564 0.100923 0.091991
0.296326 0.106301 0.097252
0.313428 0.111784 0.102618
0.330867 0.117372 0.108089
0.348645 0.123064 0.113665
0.366762 0.128861 0.119345
0.385216 0.134763 0.125130
0.411922 0.140770 0.131020
0.438347 0.146881 0.137015
0.464433 0.153097 0.143114
0.490182 0.159418 0.149318
0.515591 0.165844 0.155627
0.011814 0.025231 0.011814
0.021906 0.028731 0.015081
0.032337 0.032337 0.018452
0.043106 0.036047 0.021929
0.054213 0.039861 0.025510
0.065659 0.043781 0.029196
0.077443 0.047805 0.032987
0.089565 0.051934 0.036882
0.102026 0.056168 0.040882
0.114825 0.060507 0.044987
0.127963 0.064950 0.049197
0.141438 0.069498 0.053512
0.155253 0.074151 0.057931
0.169405 0.078909 0.062455
0.183896 0.083771 0.067084
0.198726 0.088738 0.071817
0.213893 0.093810 0.076656
0.229399 0.098987 0.081599
0.245244 0.104269 0.086647
0.261426 0.109655 0.091799
0.277947 0.115146 0.097057
0.294807 0.120742 0.102419
0.312005 0.126442 0.107886
0.329541 0.132248 0.113458
0.347416 0.138158 0.119134
0.365628 0.144173 0.124916
0.384180 0.150292 0.130802
0.407662 0.156517 0.136792
0.433990 0.162846 0.142888
0.459980 0.169280 0.149088
0.485632 0.175818 0.155393
0.510945 0.182462 0.161803
0.535920 0.189210 0.168318
0.018326 0.039140 0.018326
0.028854 0.042963 0.021799
0.039719 0.046891 0.025376
0.050923 0.050923 0.029058
0.062466 0.055060 0.032845
0.074346 0.059302 0.036737
0.086565 0.063649 0.040733
0.099123 0.068101 0.044834
0.112018 0.072657 0.049040
0.125253 0.077318 0.053351
0.138825 0.082084 0.057766
0.152736 0.086955 0.062287
0.166985 0.091930 0.066912
0.181573 0.097010 0.071641
0.196499 0.102195 0.076476
0.211763 0.107485 0.081415
0.227365 0.112879 0.086459
0.243306 0.118378 0.091608
0.259586 0.123982 0.096862
0.276204 0.129691 0.102220
0.293160 0.135505 0.107683
0.310454 0.141423 0.113251
0.328087 0.147446 0.118924
0.346058 0.153574 0.124701
0.364368 0.159806 0.130583
0.383015 0.166144 0.136570
0.403530 0.172586 0.142662
0.429761 0.179133 0.148858
0.455654 0.185784 0.155160
0.481209 0.192541 0.161566
0.506426 0.199402 0.168076
0.531304 0.206368 0.174692
0.555844 0.213438 0.181412
0.025243 0.053912 0.025243
0.036205 0.058057 0.028921
0.047506 0.062307 0.032704
0.059145 0.066662 0.036592
0.071122 0.071122 0.040584
0.083437 0.075686 0.044682
0.096092 0.080356 0.048884
0.109084 0.085130 0.053191
0.122415 0.090008 0.057602
0.136084 0.094992 0.062118
0.150091 0.100080 0.066740
0.164437 0.105273 0.071465
0.179121 0.110571 0.076296
0.194144 0.115974 0.081232
0.209505 0.121481 0.086272
0.225204 0.127093 0.091417
0.241241 0.132810 0.096666
0.257617 0.138632 0.102021
0.274332 0.144558 0.107480
0.291384 0.150590 0.113044
0.308776 0.156726 0.118713
0.326505 0.162966 0.124487
0.344573 0.169312 0.130365
0.362979 0.175762 0.136348
0.381723 0.182317 0.142436
0.400806 0.188977 0.148629
0.425660 0.195742 0.154926
0.451457 0.202611 0.161328
0.476915 0.209585 0.167835
0.502035 0.216664 0.174447
0.526817 0.223848 0.181163
0.551260 0.231136 0.187984
0.575365 0.238529 0.194910
0.032563 0.069545 0.032563
0.043960 0.074013 0.036447
0.055696 0.078586 0.040436
0.067770 0.083263 0.044529
0.080182 0.088046 0.048727
0.092933 0.092933 0.053030
0.106022 0.097924 0.057438
0.119449 0.103021 0.061950
0.133215 0.108222 0.066568
0.147319 0.113528 0.071290
0.161761 0.118939 0.076117
0.176542 0.124454 0.081048
0.191661 0.130075 0.086084
0.207119 0.135800 0.091226
0.222914 0.141630 0.096471
0.239049 0.147564 0.101822
0.255521 0.153604 0.107278
0.272332 0.159748 0.112838
0.289482 0.165997 0.118503
0.306969 0.172350 0.124272
0.324795 0.178809 0.130147
0.342960 0.185372 0.136126
0.361462 0.192040 0.142210
0.380304 0.198813 0.148399
0.399483 0.205690 0.154692
0.421687 0.212673 0.161091
0.447387 0.219760 0.167594
0.472748 0.226952 0.174202
0.497772 0.234248 0.180914
0.522457 0.241650 0.187732
0.546803 0.249156 0.194654
0.570812 0.256767 0.201681
0.594481 0.264482 0.208812
0.040287 0.086042 0.040287
0.052119 0.090832 0.044377
0.064290 0.095727 0.048571
0.076799 0.100727 0.052870
0.089646 0.105832 0.057274
0.102831 0.111041 0.061783
0.116355 0.116355 0.066396
0.130218 0.121774 0.071114
0.144418 0.127298 0.075937
0.158957 0.132927 0.080865
0.173835 0.138660 0.085897
0.189051 0.144498 0.091035
0.204605 0.150441 0.096277
0.220497 0.156488 0.101623
0.236728 0.162641 0.107075
0.253297 0.168898 0.112631
0.270205 0.175260 0.118292
0.287451 0.181726 0.124058
0.305035 0.188298 0.129929
0.322958 0.194974 0.135904
0.341219 0.201755 0.141984
0.359818 0.208640 0.148169
0.378756 0.215631 0.154459
0.398032 0.222726 0.160853
0.417841 0.229926 0.167353
0.443445 0.237231 0.173957
0.468710 0.244640 0.180665
0.493636 0.252155 0.187479
0.518225 0.259774 0.194397
0.542475 0.267498 0.201420
0.566386 0.275326 0.208548
0.589960 0.283260 0.215781
0.613194 0.291298 0.223118
0.048415 0.103400 0.048415
0.060682 0.108513 0.052710
0.073287 0.113731 0.057110
0.086231 0.119053 0.061615
0.099513 0.124480 0.066224
0.113134 0.130012 0.070939
0.127093 0.135649 0.075758
0.141390 0.141390 0.080682
0.156026 0.147237 0.085710
0.171000 0.153188 0.090844
0.186312 0.159243 0.096082
0.201963 0.165404 0.101425
0.217952 0.171669 0.106873
0.234280 0.178039 0.112425
0.250946 0.184514 0.118082
0.267950 0.191093 0.123844
0.285292 0.197778 0.129711
0.302973 0.204567 0.135683
0.320992 0.211461 0.141759
0.339350 0.218459 0.147940
0.358046 0.225563 0.154226
0.377080 0.232771 0.160616
0.396453 0.240084 0.167112
0.416164 0.247502 0.173712
0.439630 0.255024 0.180417
0.464799 0.262651 0.187226
0.489629 0.270383 0.194141
0.514120 0.278220 0.201160
0.538274 0.286162 0.208284
0.562089 0.294208 0.215513
0.585565 0.302359 0.222846
0.608704 0.310615 0.230285
0.631504 0.318976 0.237828
0.056946 0.121621 0.056946
0.069648 0.127057 0.061447
0.082689 0.132597 0.066053
0.096068 0.138242 0.070763
0.109785 0.143991 0.075579
0.123841 0.149846 0.080499
0.138234 0.155805 0.085523
0.152967 0.161869 0.090653
0.168037 0.168037 0.095887
0.183446 0.174311 0.101226
0.199194 0.180689 0.106670
0.215279 0.187172 0.112219
0.231704 0.193760 0.117872
0.248466 0.200452 0.123630
0.265567 0.207250 0.129493
0.283006 0.214152 0.135461
0.300783 0.221158 0.141533
0.318899 0.228270 0.147711
0.337354 0.235486 0.153993
0.356146 0.242807 0.160379
0.375277 0.250233 0.166871
0.394746 0.257764 0.173467
0.414554 0.265399 0.180168
0.435944 0.273140 0.186974
0.461015 0.280985 0.193885
0.485749 0.288934 0.200900
0.510144 0.296989 0.208020
0.534201 0.305148 0.215245
0.557919 0.313412 0.222575
0.581299 0.321781 0.230009
0.604341 0.330254 0.237548
0.627044 0.338833 0.245192
0.649409 0.347516 0.252941
0.065882 0.140705 0.065882
0.079019 0.146463 0.070588
0.092494 0.152325 0.075400
0.106308 0.158292 0.080316
0.120460 0.164365 0.085337
0.134951 0.170541 0.090462
0.149780 0.176823 0.095693
0.164947 0.183209 0.101028
0.180453 0.189701 0.106468
0.196296 0.196296 0.112013
0.212479 0.202997 0.117662
0.229000 0.209803 0.123417
0.245859 0.216713 0.129276
0.263056 0.223728 0.135240
0.280592 0.230848 0.141308
0.298466 0.238072 0.147482
0.316678 0.245401 0.153760
0.335229 0.252836 0.160143
0.354118 0.260374 0.166630
0.373346 0.268018 0.173223
0.392912 0.275766 0.179920
0.412816 0.283619 0.186722
0.433059 0.291577 0.193629
0.457360 0.299640 0.200640
0.481997 0.307807 0.207756
0.506295 0.316080 0.214977
0.530256 0.324457 0.222303
0.553877 0.332938 0.229734
0.577161 0.341525 0.237269
0.600106 0.350216 0.244909
0.622712 0.359012 0.252654
0.644981 0.367913 0.260504
0.666911 0.376918 0.268458
0.075221 0.160651 0.075221
0.088793 0.166731 0.080133
0.102703 0.172916 0.085150
0.116952 0.179206 0.090272
0.131539 0.185600 0.095499
0.146465 0.192100 0.100830
0.161729 0.198704 0.106266
0.177331 0.205413 0.111807
0.193271 0.212226 0.117453
0.209550 0.219145 0.123203
0.226168 0.226168 0.129058
0.243123 0.233296 0.135018
0.260417 0.240528 0.141083
0.278050 0.247866 0.147253
0.296021 0.255308 0.153527
0.314330 0.262855 0.159906
0.332977 0.270507 0.166390
0.351963 0.278263 0.172978
0.371287 0.286125 0.179672
0.390950 0.294091 0.186470
0.410951 0.302162 0.193373
0.431290 0.310337 0.200380
0.453832 0.318618 0.207493
0.478373 0.327003 0.214710
0.502575 0.335493 0.222032
0.526438 0.344087 0.229458
0.549963 0.352787 0.236990
0.573150 0.361591 0.244626
0.595998 0.370500 0.252367
0.618509 0.379514 0.260213
0.640680 0.388632 0.268163
0.662514 0.397855 0.276219
0.684009 0.407184 0.284379
0.084964 0.181459 0.084964
0.098971 0.187861 0.090082
0.113316 0.194369 0.095305
0.128000 0.200981 0.100632
0.143022 0.207698 0.106064
0.158383 0.214520 0.111601
0.174081 0.221447 0.117243
0.190119 0.228478 0.122990
0.206494 0.235614 0.128841
0.223208 0.242855 0.134797
0.240260 0.250201 0.140858
0.257651 0.257651 0.147024
0.275380 0.265206 0.153294
0.293447 0.272866 0.159669
0.311853 0.280631 0.166149
0.330597 0.288500 0.172734
0.349680 0.296475 0.179423
0.369101 0.304554 0.186218
0.388860 0.312737 0.193117
0.408957 0.321026 0.200121
0.429393 0.329419 0.207229
0.450433 0.337917 0.214442
0.474876 0.346520 0.221760
0.498982 0.355228 0.229183
0.522748 0.364040 0.236711
0.546177 0.372957 0.244343
0.569267 0.381979 0.252080
0.592019 0.391106 0.259922
0.614432 0.400337 0.267869
0.636508 0.409674 0.275921
0.658244 0.419115 0.284077
0.679643 0.428660 0.292338
0.700703 0.438311 0.300703
0.095111 0.203129 0.095111
0.109553 0.209854 0.100434
0.124333 0.216684 0.105863
0.139452 0.223619 0.111396
0.154909 0.230659 0.117034
0.170704 0.237803 0.122776
0.186838 0.245052 0.128624
0.203310 0.252406 0.134576
0.220121 0.259865 0.140633
0.237270 0.267428 0.146795
0.254757 0.275096 0.153062
0.272583 0.282869 0.159433
0.290747 0.290747 0.165909
0.309249 0.298729 0.172490
0.328090 0.306816 0.179176
0.347269 0.315008 0.185966
0.366786 0.323305 0.192861
0.386642 0.331706 0.199861
0.406836 0.340213 0.206966
0.427369 0.348824 0.214175
0.448239 0.357539 0.221489
0.471508 0.366360 0.228908
0.495516 0.375285 0.236432
0.519187 0.384315 0.244061
0.542519 0.393450 0.251794
0.565512 0.402690 0.259632
0.588167 0.412034 0.267575
0.610484 0.421483 0.275622
0.632463 0.431037 0.283775
0.654103 0.440696 0.292032
0.675405 0.450459 0.300394
0.696368 0.460328 0.308861
0.716993 0.470301 0.317432
0.105661 0.225662 0.105661
0.120538 0.232710 0.111190
0.135753 0.239862 0.116824
0.151307 0.247120 0.122563
0.167199 0.254482 0.128407
0.183430 0.261948 0.134355
0.199998 0.269520 0.140409
0.216906 0.277196 0.146567
0.234151 0.284977 0.152829
0.251735 0.292863 0.159197
0.269657 0.300854 0.165669
0.287918 0.308949 0.172246
0.306517 0.317149 0.178928
0.325454 0.325454 0.185714
0.344730 0.333864 0.192606
0.364344 0.342378 0.199602
0.384296 0.350997 0.206702
0.404587 0.359721 0.213908
0.425216 0.368550 0.221218
0.446184 0.377484 0.228634
0.468267 0.386522 0.236154
0.492179 0.395665 0.243778
0.515753 0.404913 0.251508
0.538988 0.414265 0.259342
0.561885 0.423723 0.267281
0.584443 0.433285 0.275325
0.606664 0.442952 0.283473
0.628546 0.452723 0.291726
0.650089 0.462600 0.300084
0.671294 0.472581 0.308547
0.692161 0.482667 0.317115
0.712689 0.492857 0.325787
0.732880 0.503153 0.334564
0.116615 0.249058 0.116615
0.131927 0.256428 0.122350
0.147578 0.263903 0.128190
0.163566 0.271482 0.134135
0.179893 0.279167 0.140184
0.196559 0.286956 0.146338
0.213563 0.294850 0.152597
0.230905 0.302849 0.158961
0.248585 0.310952 0.165429
0.266604 0.319161 0.172002
0.284961 0.327474 0.178680
0.303657 0.335892 0.185463
0.322691 0.344414 0.192350
0.342063 0.353042 0.199342
0.361774 0.361774 0.206439
0.381823 0.370611 0.213641
0.402210 0.379552 0.220948
0.422936 0.388599 0.228359
0.444000 0.397750 0.235875
0.465402 0.407006 0.243496
0.488969 0.416367 0.251221
0.512446 0.425832 0.259052
0.535585 0.435403 0.266987
0.558385 0.445078 0.275027
0.580847 0.454857 0.283171
0.602971 0.464742 0.291421
0.624756 0.474731 0.299775
0.646203 0.484825 0.308234
0.667312 0.495024 0.316798
0.688082 0.505328 0.325466
0.708514 0.515736 0.334239
0.728607 0.525982 0.343117
0.748362 0.535920 0.352100
0.127973 0.273315 0.127973
0.143720 0.281008 0.133914
0.159806 0.288805 0.139960
0.176229 0.296708 0.146110
0.192991 0.304714 0.152365
0.210092 0.312826 0.158725
0.227531 0.321043 0.165189
0.245308 0.329364 0.171758
0.263423 0.337790 0.178433
0.281877 0.346321 0.185211
0.300669 0.354956 0.192095
0.319800 0.363697 0.199083
0.339269 0.372542 0.206176
0.359076 0.381492 0.213374
0.379222 0.390546 0.220677
0.399706 0.399706 0.228084
0.420528 0.408970 0.235597
0.441689 0.418339 0.243214
0.463188 0.427812 0.250935
0.485887 0.437391 0.258762
0.509268 0.447074 0.266693
0.532310 0.456862 0.274729
0.555014 0.466755 0.282870
0.577379 0.476752 0.291116
0.599406 0.486855 0.299466
0.621095 0.497062 0.307921
0.642445 0.507373 0.316481
0.663457 0.517573 0.325145
0.684130 0.527607 0.333915
0.704466 0.537538 0.342789
0.724463 0.547363 0.351768
0.744121 0.557084 0.360852
0.763441 0.566699 0.370040
0.139735 0.298435 0.139735
0.155917 0.306450 0.145882
0.172438 0.314570 0.152133
0.189296 0.322795 0.158489
0.206493 0.331124 0.164949
0.224029 0.339559 0.171515
0.241902 0.348098 0.178185
0.260114 0.356741 0.184960
0.278665 0.365490 0.191840
0.297554 0.374343 0.198824
0.316781 0.383301 0.205914
0.336346 0.392364 0.213108
0.356250 0.401531 0.220406
0.376492 0.410804 0.227810
0.397073 0.420181 0.235318
0.417992 0.429663 0.242932
0.439249 0.439249 0.250649
0.460845 0.448941 0.258472
0.482933 0.458737 0.266399
0.506217 0.468638 0.274432
0.529163 0.478644 0.282569
0.551770 0.488754 0.290810
0.574039 0.498969 0.299157
0.595969 0.509204 0.307608
0.617561 0.519336 0.316164
0.638815 0.529363 0.324825
0.659730 0.539285 0.333590
0.680307 0.549102 0.342461
0.700545 0.558814 0.351436
0.720446 0.568422 0.360516
0.740008 0.577925 0.369700
0.759231 0.587323 0.378990
0.778116 0.596616 0.388384
0.151901 0.324418 0.151901
0.168518 0.332755 0.158253
0.185473 0.341198 0.164710
0.202767 0.349745 0.171272
0.220399 0.358397 0.177938
0.238369 0.367154 0.184709
0.256678 0.376015 0.191585
0.275325 0.384981 0.198566
0.294310 0.394052 0.205651
0.313634 0.403228 0.212841
0.333296 0.412508 0.220136
0.353297 0.421894 0.227536
0.373636 0.431384 0.235040
0.394313 0.440978 0.242650
0.415328 0.450678 0.250364
0.436682 0.460482 0.258182
0.458375 0.470392 0.266106
0.480405 0.480405 0.274134
0.503294 0.490545 0.282267
0.526143 0.500878 0.290505
0.548654 0.511106 0.298848
0.570826 0.521229 0.307295
0.592660 0.531248 0.315847
0.614155 0.541161 0.324504
0.635312 0.550970 0.333266
0.656131 0.560675 0.342132
0.676611 0.570274 0.351104
0.696753 0.579769 0.360180
0.716557 0.589159 0.369360
0.736022 0.598444 0.378646
0.755149 0.607624 0.388036
0.773937 0.616700 0.397531
0.792388 0.625671 0.407131
0.164471 0.351263 0.164471
0.181522 0.359923 0.171028
0.198913 0.368688 0.177691
0.216641 0.377557 0.184458
0.234708 0.386532 0.191330
0.253114 0.395611 0.198307
0.271857 0.404795 0.205388
0.290939 0.414083 0.212575
0.310360 0.423477 0.219866
0.330118 0.432975 0.227262
0.350216 0.442578 0.234762
0.370651 0.452286 0.242368
0.391425 0.462098 0.250078
0.412537 0.472016 0.257893
0.433988 0.482162 0.265813
0.455777 0.492592 0.273837
0.477904 0.502917 0.281966
0.500499 0.513136 0.290200
0.523252 0.523252 0.298539
0.545665 0.533262 0.306983
0.567741 0.543168 0.315531
0.589478 0.552968 0.324184
0.610877 0.562664 0.332942
0.631937 0.572256 0.341804
0.652659 0.581742 0.350772
0.673043 0.591124 0.359844
0.693089 0.600401 0.369021
0.712796 0.609573 0.378303
0.732164 0.618641 0.387689
0.751194 0.627603 0.397180
0.769886 0.636461 0.406776
0.788240 0.645215 0.416477
0.806255 0.653863 0.426282
0.177444 0.378970 0.177444
0.194931 0.387953 0.184207
0.212756 0.397040 0.191075
0.230919 0.406232 0.198048
0.249421 0.415529 0.205126
0.268262 0.424930 0.212309
0.287440 0.434437 0.219596
0.306957 0.444048 0.226988
0.326813 0.453764 0.234485
0.347006 0.463585 0.242086
0.367539 0.473821 0.249792
0.388409 0.484347 0.257604
0.409618 0.494769 0.265519
0.431165 0.505085 0.273540
0.453051 0.515297 0.281665
0.475274 0.525404 0.289896
0.497837 0.535406 0.298230
0.520488 0.545303 0.306670
0.542805 0.555096 0.315215
0.564784 0.564784 0.323864
0.586424 0.574367 0.332618
0.607727 0.583845 0.341477
0.628690 0.593219 0.350440
0.649316 0.602488 0.359508
0.669603 0.611652 0.368681
0.689552 0.620711 0.377959
0.709162 0.629666 0.387342
0.728434 0.638515 0.396829
0.747368 0.647260 0.406421
0.765963 0.655901 0.416118
0.784220 0.664436 0.425920
0.802139 0.672867 0.435826
0.819719 0.681193 0.445837
0.190821 0.407540 0.190821
0.208743 0.416845 0.197790
0.227003 0.426254 0.204864
0.245601 0.435769 0.212042
0.264538 0.445388 0.219326
0.283814 0.455112 0.226714
0.303427 0.465521 0.234207
0.323379 0.476144 0.241805
0.343670 0.486662 0.249507
0.364298 0.497075 0.257314
0.385265 0.507383 0.265226
0.406571 0.517587 0.273243
0.428215 0.527685 0.281365
0.450197 0.537679 0.289591
0.472517 0.547569 0.297922
0.495176 0.557353 0.306358
0.517852 0.567033 0.314898
0.540072 0.576608 0.323544
0.561955 0.586078 0.332294
0.583498 0.595443 0.341149
0.604704 0.604704 0.350108
0.625571 0.613860 0.359173
0.646100 0.622911 0.368342
0.666291 0.631857 0.377616
0.686143 0.640699 0.386995
0.705657 0.649436 0.396478
0.724832 0.658068 0.406067
0.743669 0.666595 0.415760
0.762168 0.675018 0.425557
0.780328 0.683335 0.435460
0.798150 0.691548 0.445467
0.815634 0.699657 0.455579
0.832779 0.707660 0.465796
0.204602 0.436972 0.204602
0.222959 0.446599 0.211776
0.241654 0.457262 0.219056
0.260687 0.467982 0.226440
0.280059 0.478596 0.233929
0.299769 0.489106 0.241523
0.319818 0.499511 0.249222
0.340205 0.509811 0.257025
0.360930 0.520006 0.264933
0.381994 0.530097 0.272946
0.403396 0.540083 0.281064
0.425136 0.549964 0.289286
0.447215 0.559740 0.297614
0.469632 0.569411 0.306046
0.492388 0.578978 0.314582
0.515343 0.588440 0.323224
0.537467 0.597797 0.331970
0.559253 0.607050 0.340821
0.580700 0.616198 0.349777
0.601809 0.625241 0.358838
0.622580 0.634179 0.368003
0.643012 0.643012 0.377273
0.663106 0.651741 0.386648
0.682862 0.660365 0.396128
0.702279 0.668884 0.405712
0.721357 0.677298 0.415401
0.740098 0.685608 0.425195
0.758500 0.693812 0.435094
0.776564 0.701913 0.445097
0.794289 0.709908 0.455205
0.811676 0.717798 0.465418
0.828725 0.725584 0.475736
0.845435 0.733265 0.486159
0.218786 0.470571 0.218786
0.237578 0.481178 0.226167
0.256708 0.491679 0.233652
0.276177 0.502076 0.241242
0.295984 0.512368 0.248937
0.316129 0.522555 0.256736
0.336612 0.532638 0.264641
0.357434 0.542615 0.272650
0.378595 0.552488 0.280763
0.400093 0.562256 0.288982
0.421930 0.571920 0.297305
0.444106 0.581478 0.305734
0.466620 0.590932 0.314266
0.489472 0.600281 0.322904
0.512662 0.609525 0.331646
0.534990 0.618665 0.340494
0.556679 0.627700 0.349446
0.578030 0.636630 0.358502
0.599042 0.645455 0.367664
0.619716 0.654175 0.376930
0.640052 0.662791 0.386301
0.660049 0.671302 0.395777
0.679708 0.679708 0.405357
0.699029 0.688010 0.415043
0.718011 0.696206 0.424833
0.736655 0.704298 0.434728
0.754960 0.712285 0.444727
0.772927 0.720167 0.454832
0.790556 0.727945 0.465041
0.807846 0.735618 0.475355
0.824798 0.743186 0.485774
0.841412 0.750649 0.496297
0.857687 0.758008 0.506925
0.233375 0.504771 0.233375
0.252602 0.515055 0.240961
0.272167 0.525234 0.248652
0.292070 0.535308 0.256448
0.312312 0.545277 0.264348
0.332892 0.555142 0.272353
0.353811 0.564902 0.280463
0.375068 0.574557 0.288678
0.396663 0.584108 0.296997
0.418597 0.593553 0.305422
0.440869 0.602894 0.313951
0.463479 0.612130 0.322584
0.486428 0.621262 0.331323
0.509715 0.630288 0.340166
0.532641 0.639210 0.349114
0.554233 0.648027 0.358167
0.575488 0.656740 0.367325
0.596403 0.665347 0.376587
0.616981 0.673850 0.385955
0.637220 0.682248 0.395426
0.657120 0.690541 0.405003
0.676683 0.698729 0.414685
0.695906 0.706813 0.424471
0.714792 0.714792 0.434362
0.733339 0.722666 0.444358
0.751548 0.730436 0.454458
0.769419 0.738100 0.464663
0.786951 0.745660 0.474974
0.804144 0.753115 0.485388
0.821000 0.760465 0.495908
0.837517 0.767711 0.506532
0.853696 0.774852 0.517261
0.869536 0.781888 0.528095
0.248367 0.538108 0.248367
0.268029 0.548069 0.256159
0.288029 0.557926 0.264055
0.308367 0.567678 0.272057
0.329044 0.577325 0.280163
0.350059 0.586867 0.288374
0.371413 0.596304 0.296689
0.393105 0.605637 0.305110
0.415135 0.614865 0.313635
0.437504 0.623988 0.322265
0.460211 0.633007 0.331000
0.483256 0.641920 0.339839
0.506640 0.650729 0.348783
0.530362 0.659433 0.357832
0.551915 0.668033 0.366986
0.573073 0.676527 0.376245
0.593892 0.684917 0.385608
0.614373 0.693202 0.395076
0.634515 0.701382 0.404649
0.654319 0.709458 0.414327
0.673785 0.717429 0.424109
0.692912 0.725295 0.433996
0.711701 0.733056 0.443988
0.730152 0.740712 0.454085
0.748264 0.748264 0.464286
0.766038 0.755711 0.474592
0.783473 0.763053 0.485003
0.800570 0.770290 0.495519
0.817329 0.777423 0.506140
0.833750 0.784451 0.516865
0.849832 0.791374 0.527695
0.865575 0.798192 0.538630
0.880981 0.804906 0.549669
0.263763 0.570583 0.263763
0.283860 0.580221 0.271761
0.304295 0.589756 0.279863
0.325068 0.599185 0.288070
0.346180 0.608509 0.296382
0.367630 0.617729 0.304798
0.389419 0.626844 0.313320
0.411546 0.635854 0.321946
0.434011 0.644760 0.330676
0.456814 0.653561 0.339512
0.479956 0.662257 0.348452
0.503437 0.670848 0.357498
0.527255 0.679334 0.366648
0.549725 0.687716 0.375902
0.570786 0.695993 0.385262
0.591508 0.704165 0.394726
0.611893 0.712232 0.404295
0.631938 0.720195 0.413969
0.651646 0.728052 0.423747
0.671015 0.735805 0.433631
0.690045 0.743454 0.443619
0.708738 0.750997 0.453711
0.727092 0.758436 0.463909
0.745107 0.765770 0.474211
0.762785 0.772999 0.484618
0.780124 0.780124 0.495130
0.797124 0.787143 0.505747
0.813786 0.794058 0.516468
0.830110 0.800868 0.527295
0.846095 0.807574 0.538226
0.861743 0.814174 0.549261
0.877051 0.820670 0.560402
0.892022 0.827061 0.571647
0.279563 0.602195 0.279563
0.300095 0.611511 0.287766
0.320965 0.620723 0.296074
0.342173 0.629830 0.304487
0.363720 0.638832 0.313004
0.385605 0.647729 0.321626
0.407828 0.656522 0.330353
0.430390 0.665209 0.339185
0.453290 0.673792 0.348122
0.476529 0.682271 0.357163
0.500106 0.690644 0.366309
0.524021 0.698913 0.375560
0.547663 0.707077 0.384916
0.568627 0.715136 0.394376
0.589253 0.723090 0.403941
0.609540 0.730940 0.413611
0.629489 0.738685 0.423386
0.649100 0.746325 0.433265
0.668373 0.753860 0.443249
0.687307 0.761291 0.453338
0.705902 0.768616 0.463532
0.724160 0.775837 0.473830
0.742079 0.782954 0.484234
0.759659 0.789965 0.494742
0.776902 0.796872 0.505355
0.793806 0.803674 0.516072
0.810371 0.810371 0.526895
