luts/bleach_bypass.cube
TITLE "Bleach Bypass"
LUT_3D_SIZE 5
DOMAIN_MIN 0.0 0.0 0.0
DOMAIN_MAX 1.0 1.0 1.0
0.000000 0.000000 0.000000
0.083253 0.025778 0.025778
0.188160 0.058260 0.058260
0.314723 0.097448 0.097448
0.494859 0.143341 0.143341
0.056946 0.121621 0.056946
0.168037 0.168037 0.095887
0.300783 0.221158 0.141533
0.461015 0.280985 0.193885
0.649409 0.347516 0.252941
0.139735 0.298435 0.139735
0.278665 0.365490 0.191840
0.439249 0.439249 0.250649
0.617561 0.519336 0.316164
0.778116 0.596616 0.388384
0.248367 0.538108 0.248367
0.415135 0.614865 0.313635
0.593892 0.684917 0.385608
0.748264 0.748264 0.464286
0.880981 0.804906 0.549669
0.382841 0.773759 0.382841
0.577448 0.829877 0.461273
0.726591 0.879291 0.546409
0.853124 0.921999 0.638251
0.958002 0.958002 0.712402
0.009037 0.009037 0.061887
0.097696 0.037371 0.097696
0.208010 0.072410 0.140210
0.339980 0.114155 0.189430
0.526896 0.162604 0.245354
0.071003 0.138528 0.138528
0.187500 0.187500 0.187500
0.325653 0.243178 0.243178
0.493440 0.305560 0.305560
0.676427 0.374648 0.374648
0.158810 0.323210 0.241010
0.303146 0.392821 0.303146
0.469137 0.469137 0.371987
0.644967 0.549592 0.447533
0.800115 0.624315 0.529785
0.272461 0.568164 0.369336
0.444635 0.642365 0.444635
0.621685 0.709860 0.526640
0.770651 0.770651 0.609251
0.897961 0.824736 0.678286
0.411954 0.795946 0.523504
0.606583 0.849508 0.606583
0.749365 0.896365 0.675865
0.870492 0.936517 0.738442
0.969964 0.969964 0.794314
0.019049 0.019049 0.130449
0.113115 0.049940 0.176290
0.228835 0.087535 0.228835
0.366211 0.131836 0.288086
0.557958 0.182842 0.354042
0.086033 0.156408 0.226783
0.207937 0.207937 0.285787
0.351496 0.266171 0.351496
0.524890 0.331110 0.423910
0.702470 0.402755 0.503020
0.178860 0.348960 0.348960
0.328603 0.421128 0.421128
0.500000 0.500000 0.500000
0.671397 0.578872 0.578872
0.821140 0.651040 0.651040
0.297530 0.597245 0.496980
0.475110 0.668890 0.576090
0.648504 0.733829 0.648504
0.792063 0.792063 0.714213
0.913967 0.843592 0.773217
0.442042 0.817158 0.645958
0.633789 0.868164 0.711914
0.771165 0.912465 0.771165
0.886885 0.950060 0.823710
0.980951 0.980951 0.869551
0.030036 0.030036 0.205686
0.129508 0.063483 0.261558
0.250635 0.103635 0.324135
0.393417 0.150492 0.393417
0.588046 0.204054 0.476496
0.102039 0.175264 0.321714
0.229349 0.229349 0.390749
0.378315 0.290140 0.473360
0.555365 0.357635 0.555365
0.727539 0.431836 0.630664
0.199885 0.375685 0.470215
0.355033 0.450408 0.552467
0.530863 0.530863 0.628013
0.696854 0.607179 0.696854
0.841190 0.676790 0.758990
0.323573 0.625352 0.625352
0.506560 0.694440 0.694440
0.674347 0.756822 0.756822
0.812500 0.812500 0.812500
0.928997 0.861472 0.861472
0.473104 0.837396 0.754646
0.660020 0.885845 0.810570
0.791990 0.927590 0.859790
0.902304 0.962629 0.902304
0.990963 0.990963 0.938113
0.041998 0.041998 0.287598
0.146876 0.078001 0.361749
0.273409 0.120709 0.453591
0.422552 0.170123 0.538727
0.617159 0.226241 0.617159
0.119019 0.195094 0.450331
0.251736 0.251736 0.535714
0.406108 0.315083 0.614392
0.584865 0.385135 0.686365
0.751633 0.461892 0.751633
0.221884 0.403384 0.611616
0.382439 0.480664 0.683836
0.560751 0.560751 0.749351
0.721335 0.634510 0.808160
0.860265 0.701565 0.860265
0.350591 0.652484 0.747059
0.538985 0.719015 0.806115
0.699217 0.778842 0.858467
0.831963 0.831963 0.904113
0.943054 0.878379 0.943054
0.505141 0.856659 0.856659
0.685277 0.902552 0.902552
0.811840 0.941740 0.941740
0.916747 0.974222 0.974222
1.000000 1.000000 1.000000
