luts/cinematic_teal_orange.cube
TITLE "Cinematic Teal & Orange"
LUT_3D_SIZE 33
DOMAIN_MIN 0.0 0.0 0.0
DOMAIN_MAX 1.0 1.0 1.0
0.000000 0.000000 0.000000
0.000000 0.000000 0.000000
0.000000 0.000000 0.000000
0.003113 0.000000 0.000000
0.030326 0.000000 0.000000
0.058127 0.000000 0.000000
0.086515 0.000000 0.000000
0.115491 0.000000 0.000000
0.145054 0.000000 0.000000
0.175205 0.000000 0.000000
0.205944 0.000000 0.000000
0.237271 0.000000 0.000000
0.269185 0.000000 0.000000
0.301686 0.000000 0.000000
0.334776 0.000000 0.000000
0.368453 0.000000 0.000000
0.402717 0.000000 0.000000
0.437569 0.000000 0.000000
0.473009 0.000000 0.000000
0.509037 0.000000 0.000000
0.545652 0.000000 0.000000
0.582855 0.000000 0.000000
0.620645 0.000000 0.000000
0.659023 0.000000 0.000000
0.697989 0.000000 0.000000
0.737542 0.000000 0.000000
0.777683 0.000000 0.000000
0.818411 0.000000 0.000000
0.859728 0.000000 0.000000
0.901631 0.000000 0.000000
0.944123 0.000000 0.000000
0.987202 0.000000 0.000000
1.000000 0.000000 0.000000
0.000000 0.000000 0.000000
0.000000 0.000000 0.000000
0.000000 0.000000 0.000000
0.004844 0.000000 0.000000
0.032633 0.000000 0.000000
0.061011 0.000000 0.000000
0.089976 0.000000 0.000000
0.119529 0.000000 0.000000
0.149669 0.000000 0.000000
0.180397 0.000000 0.000000
0.211712 0.000000 0.000000
0.243616 0.000000 0.000000
0.276107 0.000000 0.000000
0.309185 0.000000 0.000000
0.342851 0.000000 0.000000
0.377105 0.000000 0.000000
0.411946 0.000000 0.000000
0.447375 0.000000 0.000000
0.483392 0.000000 0.000000
0.519996 0.000000 0.000000
0.557188 0.000000 0.000000
0.594968 0.000000 0.000000
0.633335 0.000000 0.000000
0.672290 0.000000 0.000000
0.711832 0.000000 0.000000
0.751963 0.000000 0.000000
0.792680 0.000000 0.000000
0.833986 0.000000 0.000000
0.875879 0.000000 0.000000
0.918359 0.000000 0.000000
0.961428 0.000000 0.000000
1.000000 0.000000 0.000000
1.000000 0.000000 0.000000
0.000000 0.000139 0.000000
0.000000 0.000055 0.000000
0.000000 0.000000 0.000000
0.006574 0.000000 0.000000
0.034941 0.000000 0.000000
0.063895 0.000000 0.000000
0.093437 0.000000 0.000000
0.123566 0.000000 0.000000
0.154283 0.000000 0.000000
0.185588 0.000000 0.000000
0.217481 0.000000 0.000000
0.249961 0.000000 0.000000
0.283028 0.000000 0.000000
0.316684 0.000000 0.000000
0.350927 0.000000 0.000000
0.385757 0.000000 0.000000
0.421176 0.000000 0.000000
0.457181 0.000000 0.000000
0.493775 0.000000 0.000000
0.530956 0.000000 0.000000
0.568725 0.000000 0.000000
0.607081 0.000000 0.000000
0.646025 0.000000 0.000000
0.685557 0.000000 0.000000
0.725676 0.000000 0.000000
0.766383 0.000000 0.000000
0.807678 0.000000 0.000000
0.849560 0.000000 0.000000
0.892030 0.000000 0.000000
0.935087 0.000000 0.000000
0.978732 0.000000 0.000000
1.000000 0.000000 0.000000
1.000000 0.000000 0.000000
0.000000 0.037461 0.000000
0.000000 0.037336 0.000000
0.000000 0.037210 0.000000
0.008305 0.037084 0.000000
0.037248 0.036958 0.000000
0.066779 0.036832 0.000000
0.096898 0.036706 0.000000
0.127604 0.036580 0.000000
0.158898 0.036454 0.000000
0.190780 0.036328 0.000000
0.223249 0.036202 0.000000
0.256306 0.036076 0.000000
0.289950 0.035950 0.000000
0.324183 0.035825 0.000000
0.359002 0.035699 0.000000
0.394410 0.035573 0.000000
0.430405 0.035447 0.000000
0.466987 0.035321 0.000000
0.504158 0.035195 0.000000
0.541916 0.035069 0.000000
0.580261 0.034943 0.000000
0.619195 0.034817 0.000000
0.658715 0.034691 0.000000
0.698824 0.034565 0.000000
0.739520 0.034439 0.000000
0.780804 0.034313 0.000000
0.822675 0.034188 0.000000
0.865134 0.034062 0.000000
0.908181 0.033936 0.000000
0.951815 0.033810 0.000000
0.996037 0.033684 0.000000
1.000000 0.033558 0.000000
1.000000 0.033432 0.000000
0.000000 0.074619 0.000000
0.000000 0.074451 0.000000
0.000000 0.074283 0.000000
0.010035 0.074115 0.000000
0.039555 0.073947 0.000000
0.069663 0.073780 0.000000
0.100359 0.073612 0.000000
0.131642 0.073444 0.000000
0.163513 0.073276 0.000000
0.195971 0.073108 0.000000
0.229017 0.072940 0.000000
0.262651 0.072772 0.000000
0.296872 0.072604 0.000000
0.331681 0.072436 0.000000
0.367078 0.072269 0.000000
0.403062 0.072101 0.000000
0.439634 0.071933 0.000000
0.476793 0.071765 0.000000
0.514541 0.071597 0.000000
0.552875 0.071429 0.000000
0.591798 0.071261 0.000000
0.631308 0.071093 0.000000
0.671406 0.070925 0.000000
0.712091 0.070757 0.000000
0.753364 0.070590 0.000000
0.795224 0.070422 0.000000
0.837673 0.070254 0.000000
0.880709 0.070086 0.000000
0.924332 0.069918 0.000000
0.968543 0.069750 0.000000
1.000000 0.069582 0.000000
1.000000 0.069414 0.000000
1.000000 0.069246 0.000000
0.000000 0.111612 0.000000
0.000000 0.111402 0.000000
0.000000 0.111192 0.000000
0.011765 0.110982 0.000000
0.041863 0.110772 0.000000
0.072547 0.110562 0.000000
0.103820 0.110353 0.000000
0.135680 0.110143 0.000000
0.168127 0.109933 0.000000
0.201163 0.109723 0.000000
0.234785 0.109513 0.000000
0.268996 0.109303 0.000000
0.303794 0.109093 0.000000
0.339180 0.108883 0.000000
0.375153 0.108674 0.000000
0.411714 0.108464 0.000000
0.448863 0.108254 0.000000
0.486600 0.108044 0.000000
0.524923 0.107834 0.000000
0.563835 0.107624 0.000000
0.603334 0.107414 0.000000
0.643421 0.107205 0.000000
0.684096 0.106995 0.000000
0.725358 0.106785 0.000000
0.767208 0.106575 0.000000
0.809645 0.106365 0.000000
0.852670 0.106155 0.000000
0.896283 0.105945 0.000000
0.940483 0.105735 0.000000
0.985271 0.105526 0.000000
1.000000 0.105316 0.000000
1.000000 0.105106 0.000000
1.000000 0.104896 0.000000
0.000000 0.148440 0.000000
0.000000 0.148188 0.000000
0.000000 0.147936 0.000000
0.013496 0.147684 0.000000
0.044170 0.147432 0.000000
0.075431 0.147181 0.000000
0.107281 0.146929 0.000000
0.139717 0.146677 0.000000
0.172742 0.146425 0.000000
0.206354 0.146173 0.000000
0.240554 0.145921 0.000000
0.275341 0.145669 0.000000
0.310716 0.145418 0.000000
0.346679 0.145166 0.000000
0.383229 0.144914 0.000000
0.420367 0.144662 0.000000
0.458092 0.144410 0.000000
0.496406 0.144158 0.000000
0.535306 0.143907 0.000000
0.574795 0.143655 0.000000
0.614871 0.143403 0.000000
0.655535 0.143151 0.000000
0.696786 0.142899 0.000000
0.738625 0.142647 0.000000
0.781051 0.142395 0.000000
0.824066 0.142144 0.000000
0.867668 0.141892 0.000000
0.911857 0.141640 0.000000
0.956634 0.141388 0.000000
1.000000 0.141136 0.000000
1.000000 0.140884 0.000000
1.000000 0.140633 0.000000
1.000000 0.140430 0.000000
0.000000 0.185103 0.000000
0.000000 0.184809 0.000000
0.000000 0.184515 0.000000
0.015226 0.184221 0.000000
0.046477 0.183928 0.000000
0.078316 0.183634 0.000000
0.110742 0.183340 0.000000
0.143755 0.183046 0.000000
0.177356 0.182752 0.000000
0.211545 0.182458 0.000000
0.246322 0.182165 0.000000
0.281686 0.181871 0.000000
0.317638 0.181577 0.000000
0.354177 0.181283 0.000000
0.391305 0.180989 0.000000
0.429019 0.180696 0.000000
0.467322 0.180402 0.000000
0.506212 0.180108 0.000000
0.545689 0.179814 0.000000
0.585754 0.179520 0.000000
0.626407 0.179227 0.000000
0.667648 0.178933 0.000000
0.709476 0.178639 0.000000
0.751892 0.178345 0.000000
0.794895 0.178051 0.000000
0.838486 0.177757 0.000000
0.882665 0.177464 0.000000
0.927431 0.177170 0.000000
0.972785 0.176876 0.000000
1.000000 0.176582 0.000000
1.000000 0.176343 0.000000
1.000000 0.176108 0.000000
1.000000 0.175873 0.000000
0.000000 0.221601 0.000000
0.000000 0.221265 0.000000
0.000000 0.220930 0.000000
0.016957 0.220594 0.000000
0.048784 0.220258 0.000000
0.081200 0.219922 0.000000
0.114203 0.219586 0.000000
0.147793 0.219251 0.000000
0.181971 0.218915 0.000000
0.216737 0.218579 0.000000
0.252090 0.218243 0.000000
0.288031 0.217907 0.000000
0.324560 0.217572 0.000000
0.361676 0.217236 0.000000
0.399380 0.216900 0.000000
0.437672 0.216564 0.000000
0.476551 0.216229 0.000000
0.516018 0.215893 0.000000
0.556072 0.215557 0.000000
0.596714 0.215221 0.000000
0.637944 0.214885 0.000000
0.679761 0.214550 0.000000
0.722166 0.214214 0.000000
0.765159 0.213878 0.000000
0.808739 0.213542 0.000000
0.852907 0.213206 0.000000
0.897662 0.212871 0.000000
0.943006 0.212535 0.000000
0.984091 0.212259 0.000000
1.000000 0.211991 0.000000
1.000000 0.211722 0.000000
1.000000 0.211453 0.000000
1.000000 0.211185 0.000000
0.000000 0.257935 0.000000
0.000000 0.257557 0.000000
0.000000 0.257179 0.000000
0.018687 0.256801 0.000000
0.051092 0.256424 0.000000
0.084084 0.256046 0.000000
0.117663 0.255668 0.000000
0.151831 0.255290 0.000000
0.186586 0.254913 0.000000
0.221928 0.254535 0.000000
0.257858 0.254157 0.000000
0.294376 0.253779 0.000000
0.331482 0.253402 0.000000
0.369175 0.253024 0.000000
0.407456 0.252646 0.000000
0.446324 0.252268 0.000000
0.485780 0.251890 0.000000
0.525824 0.251513 0.000000
0.566455 0.251135 0.000000
0.607674 0.250757 0.000000
0.649480 0.250379 0.000000
0.691875 0.250002 0.000000
0.734856 0.249624 0.000000
0.778426 0.249246 0.000000
0.822583 0.248868 0.000000
0.867328 0.248491 0.000000
0.908345 0.248178 0.000000
0.948886 0.247876 0.000000
0.989628 0.247573 0.000000
1.000000 0.247271 0.000000
1.000000 0.246969 0.000000
1.000000 0.246667 0.000000
1.000000 0.246364 0.000000
0.000000 0.294103 0.000000
0.000000 0.293684 0.000000
0.000000 0.293264 0.000000
0.020418 0.292844 0.000000
0.053399 0.292424 0.000000
0.086968 0.292005 0.000000
0.121124 0.291585 0.000000
0.155869 0.291165 0.000000
0.191200 0.290745 0.000000
0.227120 0.290326 0.000000
0.263627 0.289906 0.000000
0.300721 0.289486 0.000000
0.338404 0.289067 0.000000
0.376674 0.288647 0.000000
0.415531 0.288227 0.000000
0.454976 0.287807 0.000000
0.495009 0.287388 0.000000
0.535630 0.286968 0.000000
0.576838 0.286548 0.000000
0.618633 0.286128 0.000000
0.661017 0.285709 0.000000
0.703988 0.285289 0.000000
0.747546 0.284869 0.000000
0.791693 0.284449 0.000000
0.832614 0.284099 0.000000
0.872950 0.283763 0.000000
0.913487 0.283427 0.000000
0.954226 0.283091 0.000000
0.995166 0.282756 0.000000
1.000000 0.282420 0.000000
1.000000 0.282084 0.000000
1.000000 0.281748 0.000000
1.000000 0.281412 0.000000
0.000000 0.330107 0.000000
0.000000 0.329646 0.000000
0.000000 0.329184 0.000000
0.022148 0.328722 0.000000
0.055706 0.328260 0.000000
0.089852 0.327799 0.000000
0.124585 0.327337 0.000000
0.159906 0.326875 0.000000
0.195815 0.326414 0.000000
0.232311 0.325952 0.000000
0.269395 0.325490 0.000000
0.307066 0.325028 0.000000
0.345326 0.324567 0.000000
0.384172 0.324105 0.000000
0.423607 0.323643 0.000000
0.463629 0.323182 0.000000
0.504238 0.322720 0.000000
0.545436 0.322258 0.000000
0.587221 0.321796 0.000000
0.629593 0.321335 0.000000
0.672553 0.320873 0.000000
0.716101 0.320411 0.000000
0.756898 0.320022 0.000000
0.797029 0.319653 0.000000
0.837361 0.319283 0.000000
0.877894 0.318914 0.000000
0.918629 0.318545 0.000000
0.959565 0.318175 0.000000
1.000000 0.317806 0.000000
1.000000 0.317437 0.000000
1.000000 0.317067 0.000000
1.000000 0.316698 0.000000
1.000000 0.316328 0.000000
0.000000 0.365946 0.000000
0.000000 0.365443 0.000000
0.000000 0.364939 0.000000
0.023879 0.364435 0.000000
0.058014 0.363932 0.000000
0.092736 0.363428 0.000000
0.128046 0.362924 0.000000
0.163944 0.362421 0.000000
0.200429 0.361917 0.000000
0.237503 0.361413 0.000000
0.275163 0.360910 0.000000
0.313412 0.360406 0.000000
0.352247 0.359902 0.000000
0.391671 0.359398 0.000000
0.431682 0.358895 0.000000
0.472281 0.358391 0.000000
0.513468 0.357887 0.000000
0.555242 0.357384 0.000000
0.597603 0.356880 0.000000
0.640553 0.356376 0.000000
0.681197 0.355948 0.000000
0.721122 0.355545 0.000000
0.761249 0.355142 0.000000
0.801577 0.354739 0.000000
0.842107 0.354336 0.000000
0.882838 0.353933 0.000000
0.923771 0.353530 0.000000
0.964905 0.353127 0.000000
1.000000 0.352725 0.000000
1.000000 0.352322 0.000000
1.000000 0.351919 0.000000
1.000000 0.351516 0.000000
1.000000 0.351113 0.000000
0.000000 0.401621 0.000000
0.000000 0.401075 0.000000
0.000000 0.400529 0.000000
0.025609 0.399984 0.000000
0.060321 0.399438 0.000000
0.095620 0.398892 0.000000
0.131507 0.398347 0.000000
0.167982 0.397801 0.000000
0.205044 0.397255 0.000000
0.242694 0.396710 0.000000
0.280931 0.396164 0.000000
0.319757 0.395618 0.000000
0.359169 0.395073 0.000000
0.399170 0.394527 0.000000
0.439758 0.393981 0.000000
0.480933 0.393436 0.000000
0.522697 0.392890 0.000000
0.565048 0.392344 0.000000
0.605510 0.391877 0.000000
0.645231 0.391440 0.000000
0.685152 0.391003 0.000000
0.725275 0.390567 0.000000
0.765600 0.390130 0.000000
0.806126 0.389694 0.000000
0.846853 0.389257 0.000000
0.887782 0.388821 0.000000
0.928913 0.388384 0.000000
0.970245 0.387948 0.000000
1.000000 0.387511 0.000000
1.000000 0.387075 0.000000
1.000000 0.386638 0.000000
1.000000 0.386202 0.000000
1.000000 0.385765 0.000000
0.000000 0.437130 0.000000
0.000000 0.436543 0.000000
0.000000 0.435955 0.000000
0.027340 0.435367 0.000000
0.062628 0.434780 0.000000
0.098504 0.434192 0.000000
0.134968 0.433604 0.000000
0.172020 0.433017 0.000000
0.209659 0.432429 0.000000
0.247885 0.431841 0.000000
0.286700 0.431254 0.000000
0.326102 0.430666 0.000000
0.366091 0.430079 0.000000
0.406668 0.429491 0.000000
0.447833 0.428903 0.000000
0.489586 0.428316 0.000000
0.529839 0.427807 0.000000
0.569354 0.427337 0.000000
0.609070 0.426867 0.000000
0.648988 0.426397 0.000000
0.689108 0.425927 0.000000
0.729428 0.425457 0.000000
0.769951 0.424987 0.000000
0.810675 0.424517 0.000000
0.851600 0.424047 0.000000
0.892727 0.423576 0.000000
0.934055 0.423106 0.000000
0.975585 0.422636 0.000000
1.000000 0.422166 0.000000
1.000000 0.421696 0.000000
1.000000 0.421226 0.000000
1.000000 0.420756 0.000000
1.000000 0.420286 0.000000
0.000000 0.472475 0.000000
0.000000 0.471845 0.000000
0.000000 0.471216 0.000000
0.029070 0.470586 0.000000
0.064936 0.469956 0.000000
0.101389 0.469327 0.000000
0.138429 0.468697 0.000000
0.176057 0.468068 0.000000
0.214273 0.467438 0.000000
0.253077 0.466808 0.000000
0.292468 0.466179 0.000000
0.332447 0.465549 0.000000
0.373013 0.464920 0.000000
0.414167 0.464290 0.000000
0.454182 0.463741 0.000000
0.493492 0.463237 0.000000
0.533003 0.462733 0.000000
0.572716 0.462230 0.000000
0.612630 0.461726 0.000000
0.652746 0.461222 0.000000
0.693063 0.460719 0.000000
0.733582 0.460215 0.000000
0.774302 0.459711 0.000000
0.815223 0.459208 0.000000
0.856346 0.458704 0.000000
0.897671 0.458200 0.000000
0.939197 0.457697 0.000000
0.980924 0.457193 0.000000
1.000000 0.456689 0.000000
1.000000 0.456185 0.000000
1.000000 0.455682 0.000000
1.000000 0.455178 0.000000
1.000000 0.454674 0.000000
0.000000 0.507655 0.000000
0.000000 0.506983 0.000000
0.000000 0.506312 0.000000
0.030801 0.505640 0.000000
0.067243 0.504968 0.000000
0.104273 0.504297 0.000000
0.141890 0.503625 0.000000
0.180095 0.502954 0.000000
0.218888 0.502282 0.000000
0.258268 0.501610 0.000000
0.298236 0.500939 0.000000
0.338792 0.500267 0.000000
0.378540 0.499677 0.000000
0.417645 0.499139 0.000000
0.456951 0.498602 0.000000
0.496458 0.498065 0.000000
0.536168 0.497528 0.000000
0.576078 0.496990 0.000000
0.616190 0.496453 0.000000
0.656503 0.495916 0.000000
0.697018 0.495378 0.000000
0.737735 0.494841 0.000000
0.778653 0.494304 0.000000
0.819772 0.493767 0.000000
0.861093 0.493229 0.000000
0.902615 0.492692 0.000000
0.944339 0.492155 0.000000
0.986264 0.491618 0.000000
1.000000 0.491080 0.000000
1.000000 0.490543 0.000000
1.000000 0.490006 0.000000
1.000000 0.489469 0.000000
1.000000 0.488931 0.000000
0.000000 0.542670 0.000000
0.000000 0.541956 0.000000
0.000000 0.541243 0.000000
0.032531 0.540529 0.000000
0.069550 0.539816 0.000000
0.107157 0.539102 0.000000
0.145351 0.538388 0.000000
0.184133 0.537675 0.000000
0.223502 0.536961 0.000000
0.263460 0.536248 0.000000
0.302913 0.535615 0.000000
0.341813 0.535044 0.000000
0.380913 0.534473 0.000000
0.420216 0.533902 0.000000
0.459720 0.533331 0.000000
0.499425 0.532761 0.000000
0.539332 0.532190 0.000000
0.579440 0.531619 0.000000
0.619750 0.531048 0.000000
0.660261 0.530477 0.000000
0.700974 0.529906 0.000000
0.741888 0.529336 0.000000
0.783004 0.528765 0.000000
0.824321 0.528194 0.000000
0.865839 0.527623 0.000000
0.907559 0.527052 0.000000
0.949481 0.526481 0.000000
0.991604 0.525910 0.000000
1.000000 0.525340 0.000000
1.000000 0.524769 0.000000
1.000000 0.524198 0.000000
1.000000 0.523627 0.000000
1.000000 0.523056 0.000000
0.000000 0.577520 0.000000
0.000000 0.576764 0.000000
0.000000 0.576009 0.000000
0.034262 0.575253 0.000000
0.071857 0.574498 0.000000
0.110041 0.573742 0.000000
0.148812 0.572987 0.000000
0.188171 0.572231 0.000000
0.227301 0.571556 0.000000
0.265995 0.570951 0.000000
0.304891 0.570347 0.000000
0.343988 0.569742 0.000000
0.383287 0.569138 0.000000
0.422787 0.568533 0.000000
0.462488 0.567929 0.000000
0.502392 0.567325 0.000000
0.542496 0.566720 0.000000
0.582802 0.566116 0.000000
0.623310 0.565511 0.000000
0.664019 0.564907 0.000000
0.704929 0.564303 0.000000
0.746041 0.563698 0.000000
0.787354 0.563094 0.000000
0.828869 0.562489 0.000000
0.870586 0.561885 0.000000
0.912504 0.561280 0.000000
0.954623 0.560676 0.000000
0.996944 0.560072 0.000000
1.000000 0.559467 0.000000
1.000000 0.558863 0.000000
1.000000 0.558258 0.000000
1.000000 0.557654 0.000000
1.000000 0.557049 0.000000
0.000000 0.612205 0.000000
0.000000 0.611408 0.000000
0.000000 0.610610 0.000000
0.035992 0.609813 0.000000
0.074165 0.609015 0.000000
0.112925 0.608218 0.000000
0.151703 0.607499 0.000000
0.190192 0.606861 0.000000
0.228883 0.606223 0.000000
0.267775 0.605585 0.000000
0.306869 0.604947 0.000000
0.346163 0.604309 0.000000
0.385660 0.603671 0.000000
0.425358 0.603033 0.000000
0.465257 0.602395 0.000000
0.505358 0.601757 0.000000
0.545660 0.601119 0.000000
0.586164 0.600481 0.000000
0.626869 0.599843 0.000000
0.667776 0.599205 0.000000
0.708884 0.598567 0.000000
0.750194 0.597929 0.000000
0.791705 0.597291 0.000000
0.833418 0.596653 0.000000
0.875332 0.596015 0.000000
0.917448 0.595377 0.000000
0.959765 0.594739 0.000000
1.000000 0.594101 0.000000
1.000000 0.593463 0.000000
1.000000 0.592825 0.000000
1.000000 0.592187 0.000000
1.000000 0.591549 0.000000
1.000000 0.590911 0.000000
0.000000 0.646726 0.000000
0.000000 0.645887 0.000000
0.000000 0.645047 0.000000
0.037723 0.644208 0.000000
0.076121 0.643445 0.000000
0.114405 0.642773 0.000000
0.152890 0.642101 0.000000
0.191577 0.641430 0.000000
0.230465 0.640758 0.000000
0.269555 0.640087 0.000000
0.308846 0.639415 0.000000
0.348339 0.638743 0.000000
0.388033 0.638072 0.000000
0.427929 0.637400 0.000000
0.468026 0.636729 0.000000
0.508325 0.636057 0.000000
0.548825 0.635386 0.000000
0.589526 0.634714 0.000000
0.630429 0.634042 0.000000
0.671534 0.633371 0.000000
0.712840 0.632699 0.000000
0.754347 0.632028 0.000000
0.796056 0.631356 0.000000
0.837967 0.630684 0.000000
0.880079 0.630013 0.000000
0.922392 0.629341 0.000000
0.964907 0.628670 0.000000
1.000000 0.627998 0.000000
1.000000 0.627327 0.000000
1.000000 0.626655 0.000000
1.000000 0.625983 0.000000
1.000000 0.625312 0.000000
1.000000 0.624640 0.000000
0.000000 0.681082 0.000000
0.000000 0.680200 0.000000
0.000553 0.679393 0.000000
0.038632 0.678688 0.000000
0.076912 0.677982 0.000000
0.115394 0.677277 0.000000
0.154077 0.676572 0.000000
0.192961 0.675867 0.000000
0.232047 0.675162 0.000000
0.271335 0.674457 0.000000
0.310824 0.673751 0.000000
0.350514 0.673046 0.000000
0.390406 0.672341 0.000000
0.430500 0.671636 0.000000
0.470795 0.670931 0.000000
0.511291 0.670226 0.000000
0.551989 0.669520 0.000000
0.592888 0.668815 0.000000
0.633989 0.668110 0.000000
0.675291 0.667405 0.000000
0.716795 0.666700 0.000000
0.758500 0.665995 0.000000
0.800407 0.665289 0.000000
0.842515 0.664584 0.000000
0.884825 0.663879 0.000000
0.927336 0.663174 0.000000
0.970049 0.662469 0.000000
1.000000 0.661764 0.000000
1.000000 0.661059 0.000000
1.000000 0.660353 0.000000
1.000000 0.659648 0.000000
1.000000 0.658943 0.000000
1.000000 0.658238 0.000000
0.000000 0.715343 0.000000
0.000000 0.714605 0.000000
0.000949 0.713866 0.000000
0.039225 0.713127 0.000000
0.077703 0.712388 0.000000
0.116382 0.711650 0.000000
0.155263 0.710911 0.000000
0.194346 0.710172 0.000000
0.233629 0.709433 0.000000
0.273115 0.708695 0.000000
0.312802 0.707956 0.000000
0.352690 0.707217 0.000000
0.392780 0.706478 0.000000
0.433071 0.705740 0.000000
0.473563 0.705001 0.000000
0.514258 0.704262 0.000000
0.555153 0.703523 0.000000
0.596250 0.702785 0.000000
0.637549 0.702046 0.000000
0.679049 0.701307 0.000000
0.720751 0.700569 0.000000
0.762654 0.699830 0.000000
0.804758 0.699091 0.000000
0.847064 0.698352 0.000000
0.889571 0.697614 0.000000
0.932280 0.696875 0.000000
0.975191 0.696136 0.000000
1.000000 0.695397 0.000000
1.000000 0.694659 0.000000
1.000000 0.693920 0.000000
1.000000 0.693181 0.000000
1.000000 0.692442 0.000000
1.000000 0.691704 0.000000
0.000000 0.749752 0.000000
0.000000 0.748979 0.000000
0.001344 0.748207 0.000000
0.039818 0.747435 0.000000
0.078494 0.746663 0.000000
0.117371 0.745890 0.000000
0.156450 0.745118 0.000000
0.195730 0.744346 0.000000
0.235212 0.743573 0.000000
0.274895 0.742801 0.000000
0.314779 0.742029 0.000000
0.354865 0.741256 0.000000
0.395153 0.740484 0.000000
0.435642 0.739712 0.000000
0.476332 0.738939 0.000000
0.517224 0.738167 0.000000
0.558318 0.737395 0.000000
0.599612 0.736622 0.000000
0.641109 0.735850 0.000000
0.682807 0.735078 0.000000
0.724706 0.734305 0.000000
0.766807 0.733533 0.000000
0.809109 0.732761 0.000000
0.851613 0.731988 0.000000
0.894318 0.731216 0.000000
0.937225 0.730444 0.000000
0.980333 0.729672 0.000000
1.000000 0.728899 0.000000
1.000000 0.728127 0.000000
1.000000 0.727355 0.000000
1.000000 0.726582 0.000000
1.000000 0.725810 0.000000
1.000000 0.725038 0.000000
0.000000 0.784028 0.000000
0.000000 0.783223 0.000000
0.001740 0.782417 0.000000
0.040412 0.781611 0.000000
0.079285 0.780805 0.000000
0.118360 0.779999 0.000000
0.157636 0.779193 0.000000
0.197114 0.778387 0.000000
0.236794 0.777581 0.000000
0.276675 0.776775 0.000000
0.316757 0.775969 0.000000
0.357041 0.775164 0.000000
0.397526 0.774358 0.000000
0.438213 0.773552 0.000000
0.479101 0.772746 0.000000
0.520191 0.771940 0.000000
0.561482 0.771134 0.000000
0.602975 0.770328 0.000000
0.644669 0.769522 0.000000
0.686564 0.768716 0.000000
0.728661 0.767910 0.000000
0.770960 0.767105 0.000000
0.813460 0.766299 0.000000
0.856161 0.765493 0.000000
0.899064 0.764687 0.000000
0.942169 0.763881 0.000000
0.985475 0.763075 0.000000
1.000000 0.762269 0.000000
1.000000 0.761463 0.000000
1.000000 0.760657 0.000000
1.000000 0.759851 0.000000
1.000000 0.759046 0.000000
1.000000 0.758240 0.000000
0.000000 0.818173 0.000000
0.000000 0.817334 0.000000
0.002135 0.816494 0.000000
0.041005 0.815655 0.000000
0.080076 0.814815 0.000000
0.119349 0.813976 0.000000
0.158823 0.813136 0.000000
0.198499 0.812297 0.000000
0.238376 0.811457 0.000000
0.278455 0.810618 0.000000
0.318735 0.809778 0.000000
0.359216 0.808939 0.000000
0.399899 0.808099 0.000000
0.440784 0.807260 0.000000
0.481870 0.806421 0.000000
0.523157 0.805581 0.000000
0.564646 0.804742 0.000000
0.606337 0.803902 0.000000
0.648228 0.803063 0.000000
0.690322 0.802223 0.000000
0.732617 0.801384 0.000000
0.775113 0.800544 0.000000
0.817811 0.799705 0.000000
0.860710 0.798865 0.000000
0.903811 0.798026 0.000000
0.947113 0.797186 0.000000
0.990617 0.796347 0.000000
1.000000 0.795507 0.000000
1.000000 0.794668 0.000000
1.000000 0.793828 0.000000
1.000000 0.792989 0.000000
1.000000 0.792149 0.000000
1.000000 0.791310 0.000000
0.000000 0.852186 0.000000
0.000000 0.851313 0.000000
0.002531 0.850440 0.000000
0.041598 0.849567 0.000000
0.080867 0.848694 0.000000
0.120338 0.847821 0.000000
0.160010 0.846948 0.000000
0.199883 0.846075 0.000000
0.239958 0.845202 0.000000
0.280234 0.844329 0.000000
0.320712 0.843456 0.000000
0.361392 0.842583 0.000000
0.402272 0.841709 0.000000
0.443355 0.840836 0.000000
0.484639 0.839963 0.000000
0.526124 0.839090 0.000000
0.567810 0.838217 0.000000
0.609699 0.837344 0.000000
0.651788 0.836471 0.000000
0.694079 0.835598 0.000000
0.736572 0.834725 0.000000
0.779266 0.833852 0.000000
0.822162 0.832979 0.000000
0.865259 0.832106 0.000000
0.908557 0.831233 0.000000
0.952057 0.830360 0.000000
0.995759 0.829487 0.000000
