luts/cinematic_teal_orange.cube
TITLE "Cinematic Teal & Orange"
LUT_3D_SIZE 5
DOMAIN_MIN 0.0 0.0 0.0
DOMAIN_MAX 1.0 1.0 1.0
0.000000 0.000000 0.000000
0.145054 0.000000 0.000000
0.402717 0.000000 0.000000
0.697989 0.000000 0.000000
1.000000 0.000000 0.000000
0.000000 0.221601 0.000000
0.181971 0.218915 0.000000
0.476551 0.216229 0.000000
0.808739 0.213542 0.000000
1.000000 0.211185 0.000000
0.000000 0.507655 0.000000
0.218888 0.502282 0.000000
0.536168 0.497528 0.000000
0.861093 0.493229 0.000000
1.000000 0.488931 0.000000
0.000000 0.784028 0.000000
0.236794 0.777581 0.000000
0.561482 0.771134 0.000000
0.899064 0.764687 0.000000
1.000000 0.758240 0.000000
0.000000 1.000000 0.000000
0.249451 1.000000 0.000000
0.586796 1.000000 0.000000
0.937036 1.000000 0.000000
1.000000 1.000000 0.000000
0.000000 0.000000 0.250914
0.152224 0.000000 0.238556
0.417056 0.000000 0.226199
0.719497 0.000000 0.213842
1.000000 0.000000 0.201485
0.000000 0.220577 0.226654
0.189141 0.217891 0.214297
0.490890 0.215204 0.201940
0.830248 0.212518 0.189583
1.000000 0.210365 0.180107
0.000000 0.505606 0.202394
0.226057 0.500234 0.190037
0.541084 0.495889 0.180455
0.868467 0.491591 0.170999
1.000000 0.487293 0.161544
0.000000 0.781570 0.180803
0.239252 0.775123 0.171347
0.566398 0.768676 0.161891
0.906439 0.762229 0.152436
1.000000 0.755782 0.142980
0.000000 1.000000 0.162239
0.251909 1.000000 0.152783
0.591712 1.000000 0.143328
0.944410 1.000000 0.133872
1.000000 1.000000 0.124416
0.000000 0.000000 0.567404
0.159393 0.000000 0.542690
0.431395 0.000000 0.517976
0.741006 0.000000 0.493262
1.000000 0.000000 0.468548
0.000000 0.219553 0.518885
0.196310 0.216866 0.494171
0.505229 0.214180 0.469457
0.837870 0.211695 0.446916
1.000000 0.209546 0.428004
0.000000 0.503558 0.470366
0.229053 0.498548 0.447612
0.546000 0.494250 0.428700
0.875842 0.489952 0.409788
1.000000 0.485654 0.390876
0.000000 0.779112 0.429396
0.241710 0.772665 0.410484
0.571314 0.766218 0.391572
0.913813 0.759771 0.372661
1.000000 0.753323 0.353749
0.000000 1.000000 0.392268
0.254367 1.000000 0.373356
0.596629 1.000000 0.354445
0.951785 1.000000 0.335533
1.000000 1.000000 0.316621
0.000000 0.000000 0.874472
0.166563 0.000000 0.837401
0.445734 0.000000 0.800330
0.762514 0.000000 0.763258
1.000000 0.000000 0.726187
0.000000 0.218529 0.801694
0.203480 0.215842 0.764622
0.519568 0.213156 0.727551
0.845244 0.210876 0.697058
1.000000 0.208727 0.668691
0.000000 0.501509 0.728915
0.231511 0.496909 0.698102
0.550916 0.492611 0.669734
0.883216 0.488313 0.641367
1.000000 0.484015 0.612999
0.000000 0.776654 0.670778
0.244168 0.770207 0.642410
0.576231 0.763760 0.614043
0.921187 0.757312 0.585675
1.000000 0.750865 0.557307
0.000000 1.000000 0.615086
0.256825 1.000000 0.586719
0.601545 1.000000 0.558351
0.959159 1.000000 0.529983
1.000000 1.000000 0.501616
0.000000 0.000000 1.000000
0.173732 0.000000 1.000000
0.460073 0.000000 1.000000
0.784023 0.000000 1.000000
1.000000 0.000000 0.976422
0.000000 0.217504 1.000000
0.210649 0.214818 1.000000
0.530518 0.212205 0.977814
0.852619 0.210056 0.939990
1.000000 0.207907 0.902167
0.000000 0.499569 0.979205
0.233969 0.495271 0.941381
0.555832 0.490972 0.903558
0.890590 0.486674 0.865735
1.000000 0.482376 0.827911
0.000000 0.774196 0.904950
0.246626 0.767749 0.867126
0.581147 0.761302 0.829302
0.928562 0.754854 0.791479
1.000000 0.748407 0.753655
0.000000 1.000000 0.830694
0.259283 1.000000 0.792870
0.606461 1.000000 0.755047
0.966533 1.000000 0.717224
1.000000 1.000000 0.679400
