luts/cinematic_teal_orange.cube
TITLE "Cinematic Teal & Orange"
LUT_3D_SIZE 9
DOMAIN_MIN 0.0 0.0 0.0
DOMAIN_MAX 1.0 1.0 1.0
0.000000 0.000000 0.000000
0.030326 0.000000 0.000000
0.145054 0.000000 0.000000
0.269185 0.000000 0.000000
0.402717 0.000000 0.000000
0.545652 0.000000 0.000000
0.697989 0.000000 0.000000
0.859728 0.000000 0.000000
1.000000 0.000000 0.000000
0.000000 0.074619 0.000000
0.039555 0.073947 0.000000
0.163513 0.073276 0.000000
0.296872 0.072604 0.000000
0.439634 0.071933 0.000000
0.591798 0.071261 0.000000
0.753364 0.070590 0.000000
0.924332 0.069918 0.000000
1.000000 0.069246 0.000000
0.000000 0.221601 0.000000
0.048784 0.220258 0.000000
0.181971 0.218915 0.000000
0.324560 0.217572 0.000000
0.476551 0.216229 0.000000
0.637944 0.214885 0.000000
0.808739 0.213542 0.000000
0.984091 0.212259 0.000000
1.000000 0.211185 0.000000
0.000000 0.365946 0.000000
0.058014 0.363932 0.000000
0.200429 0.361917 0.000000
0.352247 0.359902 0.000000
0.513468 0.357887 0.000000
0.681197 0.355948 0.000000
0.842107 0.354336 0.000000
1.000000 0.352725 0.000000
1.000000 0.351113 0.000000
0.000000 0.507655 0.000000
0.067243 0.504968 0.000000
0.218888 0.502282 0.000000
0.378540 0.499677 0.000000
0.536168 0.497528 0.000000
0.697018 0.495378 0.000000
0.861093 0.493229 0.000000
1.000000 0.491080 0.000000
1.000000 0.488931 0.000000
0.000000 0.646726 0.000000
0.076121 0.643445 0.000000
0.230465 0.640758 0.000000
0.388033 0.638072 0.000000
0.548825 0.635386 0.000000
0.712840 0.632699 0.000000
0.880079 0.630013 0.000000
1.000000 0.627327 0.000000
1.000000 0.624640 0.000000
0.000000 0.784028 0.000000
0.079285 0.780805 0.000000
0.236794 0.777581 0.000000
0.397526 0.774358 0.000000
0.561482 0.771134 0.000000
0.728661 0.767910 0.000000
0.899064 0.764687 0.000000
1.000000 0.761463 0.000000
1.000000 0.758240 0.000000
0.000000 0.919816 0.000000
0.082449 0.916056 0.000000
0.243122 0.912295 0.000000
0.407019 0.908534 0.000000
0.574139 0.904773 0.000000
0.744483 0.901012 0.000000
0.918050 0.897251 0.000000
1.000000 0.893490 0.000000
1.000000 0.889730 0.000000
0.000000 1.000000 0.000000
0.085614 1.000000 0.000000
0.249451 1.000000 0.000000
0.416512 1.000000 0.000000
0.586796 1.000000 0.000000
0.760304 1.000000 0.000000
0.937036 1.000000 0.000000
1.000000 1.000000 0.000000
1.000000 1.000000 0.000000
0.000000 0.000000 0.089135
0.032118 0.000000 0.086045
0.148639 0.000000 0.082956
0.274562 0.000000 0.079867
0.409887 0.000000 0.076778
0.554614 0.000000 0.073688
0.708743 0.000000 0.070599
0.872274 0.000000 0.067510
1.000000 0.000000 0.064420
0.000000 0.074363 0.083070
0.041348 0.073691 0.079980
0.167097 0.073020 0.076891
0.302249 0.072348 0.073802
0.446804 0.071677 0.070713
0.600760 0.071005 0.067623
0.764118 0.070333 0.064534
0.936879 0.069662 0.061445
1.000000 0.068990 0.058356
0.000000 0.221089 0.077005
0.050577 0.219746 0.073916
0.185556 0.218403 0.070826
0.329937 0.217060 0.067737
0.483720 0.215716 0.064648
0.646906 0.214373 0.061558
0.819493 0.213030 0.058469
0.988392 0.211850 0.055819
1.000000 0.210775 0.053455
0.000000 0.365178 0.070940
0.059806 0.363163 0.067851
0.204014 0.361149 0.064761
0.357625 0.359134 0.061672
0.520637 0.357119 0.058583
0.684270 0.355334 0.055906
0.845794 0.353722 0.053542
1.000000 0.352110 0.051178
1.000000 0.350498 0.048814
0.000000 0.506630 0.064875
0.069035 0.503944 0.061786
0.222473 0.501258 0.058696
0.380384 0.498857 0.055993
0.538626 0.496708 0.053629
0.700091 0.494559 0.051265
0.864780 0.492410 0.048901
1.000000 0.490261 0.046537
1.000000 0.488112 0.044173
0.000000 0.645446 0.058810
0.076735 0.642420 0.056080
0.231694 0.639734 0.053716
0.389877 0.637048 0.051352
0.551283 0.634361 0.048988
0.715912 0.631675 0.046624
0.883766 0.628989 0.044260
1.000000 0.626302 0.041896
1.000000 0.623616 0.039532
0.000000 0.782799 0.053803
0.079900 0.779576 0.051439
0.238023 0.776352 0.049075
0.399370 0.773129 0.046711
0.563940 0.769905 0.044347
0.731734 0.766681 0.041983
0.902752 0.763458 0.039619
1.000000 0.760234 0.037255
1.000000 0.757011 0.034891
0.000000 0.918383 0.049162
0.083064 0.914622 0.046798
0.244351 0.910861 0.044434
0.408863 0.907100 0.042070
0.576597 0.903339 0.039706
0.747555 0.899578 0.037342
0.921737 0.895817 0.034978
1.000000 0.892057 0.032614
1.000000 0.888296 0.030250
0.000000 1.000000 0.044521
0.086228 1.000000 0.042157
0.250680 1.000000 0.039793
0.418355 1.000000 0.037429
0.589254 1.000000 0.035065
0.763377 1.000000 0.032701
0.940723 1.000000 0.030337
1.000000 1.000000 0.027973
1.000000 1.000000 0.025609
0.000000 0.000000 0.250914
0.033911 0.000000 0.244735
0.152224 0.000000 0.238556
0.279939 0.000000 0.232378
0.417056 0.000000 0.226199
0.563576 0.000000 0.220021
0.719497 0.000000 0.213842
0.884821 0.000000 0.207664
1.000000 0.000000 0.201485
0.000000 0.074107 0.238784
0.043140 0.073435 0.232605
0.170682 0.072764 0.226427
0.307627 0.072092 0.220248
0.453973 0.071421 0.214070
0.609722 0.070749 0.207891
0.774872 0.070077 0.201712
0.949425 0.069406 0.195534
1.000000 0.068737 0.189389
0.000000 0.220577 0.226654
0.052369 0.219234 0.220475
0.189141 0.217891 0.214297
0.335314 0.216547 0.208118
0.490890 0.215204 0.201940
0.655868 0.213861 0.195761
0.830248 0.212518 0.189583
0.992694 0.211440 0.184835
1.000000 0.210365 0.180107
0.000000 0.364410 0.214524
0.061598 0.362395 0.208346
0.207599 0.360381 0.202167
0.363002 0.358366 0.195989
0.527807 0.356351 0.189810
0.687342 0.354719 0.185009
0.849481 0.353107 0.180281
1.000000 0.351495 0.175553
1.000000 0.349884 0.170825
0.000000 0.505606 0.202394
0.070828 0.502920 0.196216
0.226057 0.500234 0.190037
0.382227 0.498038 0.185183
0.541084 0.495889 0.180455
0.703164 0.493740 0.175727
0.868467 0.491591 0.170999
1.000000 0.489442 0.166271
1.000000 0.487293 0.161544
0.000000 0.644166 0.190265
0.077350 0.641396 0.185357
0.232923 0.638710 0.180629
0.391720 0.636023 0.175901
0.553741 0.633337 0.171173
0.718985 0.630651 0.166445
0.887453 0.627964 0.161717
1.000000 0.625278 0.156990
1.000000 0.622592 0.152262
0.000000 0.781570 0.180803
0.080514 0.778347 0.176075
0.239252 0.775123 0.171347
0.401213 0.771900 0.166619
0.566398 0.768676 0.161891
0.734807 0.765452 0.157163
0.906439 0.762229 0.152436
1.000000 0.759005 0.147708
1.000000 0.755782 0.142980
0.000000 0.916949 0.171521
0.083678 0.913188 0.166793
0.245580 0.909427 0.162065
0.410706 0.905666 0.157337
0.579055 0.901905 0.152609
0.750628 0.898144 0.147881
0.925425 0.894384 0.143154
1.000000 0.890623 0.138426
1.000000 0.886862 0.133698
0.000000 1.000000 0.162239
0.086843 1.000000 0.157511
0.251909 1.000000 0.152783
0.420199 1.000000 0.148055
0.591712 1.000000 0.143328
0.766450 1.000000 0.138600
0.944410 1.000000 0.133872
1.000000 1.000000 0.129144
1.000000 1.000000 0.124416
0.000000 0.000000 0.410337
0.035703 0.000000 0.401069
0.155809 0.000000 0.391801
0.285316 0.000000 0.382533
0.424226 0.000000 0.373266
0.572538 0.000000 0.363998
0.730252 0.000000 0.354730
0.897368 0.000000 0.345462
1.000000 0.000000 0.336194
0.000000 0.073851 0.392142
0.044932 0.073179 0.382874
0.174267 0.072508 0.373606
0.313004 0.071836 0.364339
0.461143 0.071165 0.355071
0.618684 0.070493 0.345803
0.785627 0.069821 0.336535
0.961972 0.069150 0.327267
1.000000 0.068533 0.318880
0.000000 0.220065 0.373947
0.054162 0.218722 0.364680
0.192725 0.217379 0.355412
0.340691 0.216035 0.346144
0.498059 0.214692 0.336876
0.664830 0.213349 0.327608
0.834183 0.212105 0.319141
0.996996 0.211030 0.312049
1.000000 0.209956 0.304957
0.000000 0.363642 0.355753
0.063391 0.361627 0.346485
0.211184 0.359612 0.337217
0.368379 0.357598 0.327949
0.530885 0.355716 0.319402
0.690415 0.354105 0.312310
0.853169 0.352493 0.305218
1.000000 0.350881 0.298126
1.000000 0.349269 0.291034
0.000000 0.504582 0.337558
0.072620 0.501896 0.328290
0.227824 0.499368 0.319663
0.384071 0.497218 0.312571
0.543542 0.495069 0.305479
0.706236 0.492920 0.298387
0.872154 0.490771 0.291295
1.000000 0.488622 0.284203
1.000000 0.486473 0.277111
0.000000 0.643058 0.319924
0.077964 0.640372 0.312832
0.234152 0.637686 0.305740
0.393564 0.634999 0.298648
0.556199 0.632313 0.291556
0.722058 0.629627 0.284464
0.891140 0.626940 0.277372
1.000000 0.624254 0.270280
1.000000 0.621568 0.263188
0.000000 0.780341 0.306001
0.081129 0.777118 0.298909
0.240481 0.773894 0.291817
0.403057 0.770670 0.284725
0.568856 0.767447 0.277633
0.737879 0.764223 0.270541
0.910126 0.761000 0.263449
1.000000 0.757776 0.256357
1.000000 0.754552 0.249266
0.000000 0.915515 0.292078
0.084293 0.911754 0.284986
0.246810 0.907993 0.277894
0.412550 0.904232 0.270802
0.581513 0.900471 0.263710
0.753701 0.896710 0.256618
0.929112 0.892950 0.249526
1.000000 0.889189 0.242434
1.000000 0.885428 0.235343
0.000000 1.000000 0.278155
0.087457 1.000000 0.271063
0.253138 1.000000 0.263971
0.422043 1.000000 0.256879
0.594171 1.000000 0.249787
0.769522 1.000000 0.242695
0.948097 1.000000 0.235604
1.000000 1.000000 0.228512
1.000000 1.000000 0.221420
0.000000 0.000000 0.567404
0.037496 0.000000 0.555047
0.159393 0.000000 0.542690
0.290693 0.000000 0.530333
0.431395 0.000000 0.517976
0.581500 0.000000 0.505619
0.741006 0.000000 0.493262
0.909914 0.000000 0.480905
1.000000 0.000000 0.468548
0.000000 0.073595 0.543145
0.046725 0.072923 0.530788
0.177852 0.072252 0.518431
0.318381 0.071580 0.506073
0.468312 0.070908 0.493716
0.627646 0.070237 0.481359
0.796381 0.069565 0.469002
0.974519 0.068894 0.456645
1.000000 0.068328 0.446568
0.000000 0.219553 0.518885
0.055954 0.218210 0.506528
0.196310 0.216866 0.494171
0.346068 0.215523 0.481814
0.505229 0.214180 0.469457
0.673792 0.212837 0.457100
0.837870 0.211695 0.446916
1.000000 0.210620 0.437460
1.000000 0.209546 0.428004
0.000000 0.362874 0.494626
0.065183 0.360859 0.482268
0.214769 0.358844 0.469911
0.373756 0.356829 0.457554
0.533343 0.355102 0.447264
0.693488 0.353490 0.437808
0.856856 0.351878 0.428352
1.000000 0.350266 0.418896
1.000000 0.348655 0.409440
0.000000 0.503558 0.470366
0.074412 0.500871 0.458009
0.229053 0.498548 0.447612
0.385915 0.496399 0.438156
0.546000 0.494250 0.428700
0.709309 0.492101 0.419244
0.875842 0.489952 0.409788
1.000000 0.487803 0.400332
1.000000 0.485654 0.390876
0.000000 0.642034 0.447960
0.078579 0.639348 0.438504
0.235381 0.636661 0.429048
0.395408 0.633975 0.419592
0.558657 0.631289 0.410136
0.725130 0.628602 0.400680
0.894827 0.625916 0.391224
1.000000 0.623230 0.381769
1.000000 0.620543 0.372313
0.000000 0.779112 0.429396
0.081743 0.775889 0.419940
0.241710 0.772665 0.410484
0.404900 0.769441 0.401028
0.571314 0.766218 0.391572
0.740952 0.762994 0.382116
0.913813 0.759771 0.372661
1.000000 0.756547 0.363205
1.000000 0.753323 0.353749
0.000000 0.914081 0.410832
0.084908 0.910320 0.401376
0.248039 0.906559 0.391920
0.414393 0.902798 0.382464
0.583972 0.899037 0.373008
0.756773 0.895277 0.363552
0.932799 0.891516 0.354097
1.000000 0.887755 0.344641
1.000000 0.883994 0.335185
0.000000 1.000000 0.392268
0.088072 1.000000 0.382812
0.254367 1.000000 0.373356
0.423886 1.000000 0.363900
0.596629 1.000000 0.354445
0.772595 1.000000 0.344989
0.951785 1.000000 0.335533
1.000000 1.000000 0.326077
1.000000 1.000000 0.316621
0.000000 0.000000 0.722116
0.039288 0.000000 0.706670
0.162978 0.000000 0.691223
0.296070 0.000000 0.675777
0.438565 0.000000 0.660331
0.590461 0.000000 0.644884
0.751760 0.000000 0.629438
0.922461 0.000000 0.613992
1.000000 0.000000 0.598545
0.000000 0.073339 0.691792
0.048517 0.072667 0.676345
0.181437 0.071996 0.660899
0.323758 0.071324 0.645453
0.475482 0.070652 0.630006
0.636607 0.069981 0.614560
0.807135 0.069309 0.599113
0.983449 0.068660 0.584273
1.000000 0.068123 0.572454
0.000000 0.219041 0.661467
0.057746 0.217697 0.646021
0.199895 0.216354 0.630574
0.351446 0.215011 0.615128
0.512398 0.213668 0.599682
0.680739 0.212360 0.584708
0.841557 0.211285 0.572888
1.000000 0.210211 0.561069
1.000000 0.209136 0.549249
0.000000 0.362106 0.631143
0.066976 0.360091 0.615696
0.218353 0.358076 0.600250
0.378265 0.356099 0.585143
0.535801 0.354487 0.573323
0.696560 0.352875 0.561503
0.860543 0.351264 0.549684
1.000000 0.349652 0.537864
1.000000 0.348040 0.526044
0.000000 0.502534 0.600818
0.076029 0.499878 0.585578
0.230282 0.497729 0.573758
0.387758 0.495580 0.561938
0.548458 0.493431 0.550118
0.712382 0.491282 0.538299
0.879529 0.489132 0.526479
1.000000 0.486983 0.514659
1.000000 0.484834 0.502839
0.000000 0.641010 0.574193
0.079193 0.638323 0.562373
0.236610 0.635637 0.550553
0.397251 0.632951 0.538733
0.561115 0.630264 0.526914
0.728203 0.627578 0.515094
0.898515 0.624892 0.503274
1.000000 0.622205 0.491454
1.000000 0.619519 0.479634
0.000000 0.777883 0.550988
0.082358 0.774660 0.539168
0.242939 0.771436 0.527348
0.406744 0.768212 0.515529
0.573772 0.764989 0.503709
0.744025 0.761765 0.491889
0.917500 0.758542 0.480069
1.000000 0.755318 0.468249
1.000000 0.752094 0.456429
0.000000 0.912647 0.527783
0.085522 0.908886 0.515963
0.249268 0.905125 0.504144
0.416237 0.901364 0.492324
0.586430 0.897604 0.480504
0.759846 0.893843 0.468684
0.936486 0.890082 0.456864
1.000000 0.886321 0.445044
1.000000 0.882560 0.433225
0.000000 1.000000 0.504578
0.088686 1.000000 0.492759
0.255596 1.000000 0.480939
0.425730 1.000000 0.469119
0.599087 1.000000 0.457299
0.775668 1.000000 0.445479
0.955472 1.000000 0.433659
1.000000 1.000000 0.421840
1.000000 1.000000 0.410020
0.000000 0.000000 0.874472
0.041080 0.000000 0.855937
0.166563 0.000000 0.837401
0.301448 0.000000 0.818865
0.445734 0.000000 0.800330
0.599423 0.000000 0.781794
0.762514 0.000000 0.763258
0.935008 0.000000 0.744723
1.000000 0.000000 0.726187
0.000000 0.073083 0.838083
0.050310 0.072411 0.819547
0.185021 0.071740 0.801012
0.329135 0.071068 0.782476
0.482651 0.070396 0.763940
0.645569 0.069725 0.745405
0.817890 0.069053 0.726869
0.987751 0.068455 0.710720
1.000000 0.067918 0.696536
0.000000 0.218529 0.801694
0.059539 0.217185 0.783158
0.203480 0.215842 0.764622
0.356823 0.214499 0.746087
0.519568 0.213156 0.727551
0.683811 0.211950 0.711242
0.845244 0.210876 0.697058
1.000000 0.209801 0.682874
1.000000 0.208727 0.668691
0.000000 0.361337 0.765304
0.068768 0.359323 0.746768
0.221938 0.357308 0.728233
0.380109 0.355485 0.711764
0.538259 0.353873 0.697580
0.699633 0.352261 0.683396
0.864230 0.350649 0.669212
1.000000 0.349037 0.655029
1.000000 0.347426 0.640845
0.000000 0.501509 0.728915
0.076644 0.499058 0.712286
0.231511 0.496909 0.698102
0.389602 0.494760 0.683918
0.550916 0.492611 0.669734
0.715454 0.490462 0.655550
0.883216 0.488313 0.641367
1.000000 0.486164 0.627183
1.000000 0.484015 0.612999
0.000000 0.639986 0.698624
0.079808 0.637299 0.684440
0.237840 0.634613 0.670256
0.399095 0.631927 0.656072
0.563573 0.629240 0.641888
0.731276 0.626554 0.627705
0.902202 0.623868 0.613521
1.000000 0.621181 0.599337
1.000000 0.618495 0.585153
0.000000 0.776654 0.670778
0.082972 0.773430 0.656594
0.244168 0.770207 0.642410
0.408588 0.766983 0.628226
0.576231 0.763760 0.614043
0.747097 0.760536 0.599859
0.921187 0.757312 0.585675
1.000000 0.754089 0.571491
1.000000 0.750865 0.557307
0.000000 0.911213 0.642932
0.086137 0.907452 0.628748
0.250497 0.903691 0.614564
0.418080 0.899930 0.600381
0.588888 0.896170 0.586197
0.762919 0.892409 0.572013
0.940173 0.888648 0.557829
1.000000 0.884887 0.543645
1.000000 0.881126 0.529462
0.000000 1.000000 0.615086
0.089301 1.000000 0.600902
0.256825 1.000000 0.586719
0.427573 1.000000 0.572535
0.601545 1.000000 0.558351
0.778740 1.000000 0.544167
0.959159 1.000000 0.529983
1.000000 1.000000 0.515800
1.000000 1.000000 0.501616
0.000000 0.000000 1.000000
0.042873 0.000000 1.000000
0.170148 0.000000 0.981223
0.306825 0.000000 0.959598
0.452904 0.000000 0.937973
0.608385 0.000000 0.916348
0.773269 0.000000 0.894723
0.947554 0.000000 0.873098
1.000000 0.000000 0.851473
0.000000 0.072827 0.982018
0.052102 0.072155 0.960394
0.188606 0.071483 0.938769
0.334512 0.070812 0.917144
0.489821 0.070140 0.895519
0.654531 0.069469 0.873894
0.828644 0.068797 0.852269
0.992053 0.068250 0.835364
1.000000 0.067713 0.818817
0.000000 0.218016 0.939564
0.061331 0.216673 0.917939
0.207064 0.215330 0.896314
0.362200 0.213987 0.874689
0.526737 0.212644 0.853064
0.686884 0.211540 0.835973
0.848932 0.210466 0.819425
1.000000 0.209391 0.802878
1.000000 0.208317 0.786330
0.000000 0.360569 0.897110
0.070560 0.358554 0.875485
0.225523 0.356540 0.853860
0.381953 0.354870 0.836582
0.540717 0.353258 0.820034
0.702705 0.351646 0.803486
0.867917 0.350035 0.786939
1.000000 0.348423 0.770391
1.000000 0.346811 0.753843
0.000000 0.500485 0.854656
0.077258 0.498239 0.837191
0.232740 0.496090 0.820643
0.391445 0.493941 0.804095
0.553374 0.491792 0.787547
0.718527 0.489643 0.771000
0.886903 0.487494 0.754452
1.000000 0.485345 0.737904
1.000000 0.483196 0.721356
0.000000 0.638961 0.821252
0.080423 0.636275 0.804704
0.239069 0.633589 0.788156
0.400938 0.630902 0.771608
0.566032 0.628216 0.755061
0.734348 0.625530 0.738513
0.905889 0.622843 0.721965
1.000000 0.620157 0.705417
1.000000 0.617471 0.688870
0.000000 0.775425 0.788765
0.083587 0.772201 0.772217
0.245397 0.768978 0.755669
0.410431 0.765754 0.739122
0.578689 0.762531 0.722574
0.750170 0.759307 0.706026
0.924875 0.756083 0.689478
1.000000 0.752860 0.672931
1.000000 0.749636 0.656383
0.000000 0.909779 0.756278
0.086751 0.906018 0.739730
0.251726 0.902257 0.723183
0.419924 0.898497 0.706635
0.591346 0.894736 0.690087
0.765991 0.890975 0.673539
0.943860 0.887214 0.656992
1.000000 0.883453 0.640444
1.000000 0.879692 0.623896
0.000000 1.000000 0.723791
0.089915 1.000000 0.707244
0.258054 1.000000 0.690696
0.429417 1.000000 0.674148
0.604003 1.000000 0.657600
0.781813 1.000000 0.641053
0.962846 1.000000 0.624505
1.000000 1.000000 0.607957
1.000000 1.000000 0.591409
0.000000 0.000000 1.000000
0.044665 0.000000 1.000000
0.173732 0.000000 1.000000
0.312202 0.000000 1.000000
0.460073 0.000000 1.000000
0.617347 0.000000 1.000000
0.784023 0.000000 1.000000
0.960101 0.000000 0.999118
1.000000 0.000000 0.976422
0.000000 0.072571 1.000000
0.053894 0.071899 1.000000
0.192191 0.071227 1.000000
0.339889 0.070556 1.000000
0.496990 0.069884 1.000000
0.663493 0.069213 1.000000
0.833633 0.068583 0.977118
0.996354 0.068046 0.958206
1.000000 0.067508 0.939294
0.000000 0.217504 1.000000
0.063124 0.216161 1.000000
0.210649 0.214818 1.000000
0.367577 0.213475 1.000000
0.530518 0.212205 0.977814
0.689957 0.211131 0.958902
0.852619 0.210056 0.939990
1.000000 0.208982 0.921078
1.000000 0.207907 0.902167
0.000000 0.359801 1.000000
0.072353 0.357786 1.000000
0.227640 0.355867 0.978509
0.383796 0.354255 0.959598
0.543175 0.352644 0.940686
0.705778 0.351032 0.921774
0.871605 0.349420 0.902862
1.000000 0.347808 0.883951
1.000000 0.346196 0.865039
0.000000 0.499569 0.979205
0.077873 0.497420 0.960293
0.233969 0.495271 0.941381
0.393289 0.493122 0.922470
0.555832 0.490972 0.903558
0.721600 0.488823 0.884646
0.890590 0.486674 0.865735
1.000000 0.484525 0.846823
1.000000 0.482376 0.827911
0.000000 0.637937 0.942077
0.081037 0.635251 0.923165
0.240298 0.632564 0.904254
0.402782 0.629878 0.885342
0.568490 0.627192 0.866430
0.737421 0.624505 0.847519
0.909576 0.621819 0.828607
1.000000 0.619133 0.809695
1.000000 0.616446 0.790783
0.000000 0.774196 0.904950
0.084201 0.770972 0.886038
0.246626 0.767749 0.867126
0.412275 0.764525 0.848214
0.581147 0.761302 0.829302
0.753243 0.758078 0.810391
0.928562 0.754854 0.791479
1.000000 0.751631 0.772567
1.000000 0.748407 0.753655
0.000000 0.908345 0.867822
0.087366 0.904584 0.848910
0.252955 0.900824 0.829998
0.421768 0.897063 0.811087
0.593804 0.893302 0.792175
0.769064 0.889541 0.773263
0.947548 0.885780 0.754351
1.000000 0.882019 0.735439
1.000000 0.878258 0.716528
0.000000 1.000000 0.830694
0.090530 1.000000 0.811782
0.259283 1.000000 0.792870
0.431261 1.000000 0.773959
0.606461 1.000000 0.755047
0.784886 1.000000 0.736135
0.966533 1.000000 0.717224
1.000000 1.000000 0.698312
1.000000 1.000000 0.679400
