luts/cool_scifi.cube
TITLE "Cool Sci-Fi"
LUT_3D_SIZE 9
DOMAIN_MIN 0.0 0.0 0.0
DOMAIN_MAX 1.0 1.0 1.0
0.000000 0.000000 0.000000
0.029762 0.002070 0.002070
0.109973 0.007649 0.007649
0.227019 0.015789 0.015789
0.367288 0.025545 0.025545
0.517166 0.035969 0.035969
0.663040 0.046115 0.046115
0.791297 0.055036 0.055036
0.859800 0.059800 0.059800
0.005763 0.045031 0.005763
0.035525 0.047101 0.007833
0.115735 0.052680 0.013411
0.232782 0.060821 0.021552
0.373050 0.070577 0.031308
0.522928 0.081001 0.041732
0.668802 0.091146 0.051878
0.797060 0.100067 0.060798
0.865563 0.104831 0.065563
0.020909 0.163392 0.020909
0.050671 0.165462 0.022979
0.130882 0.171041 0.028558
0.247928 0.179182 0.036699
0.388197 0.188937 0.046455
0.538075 0.199362 0.056879
0.683949 0.209507 0.067024
0.812206 0.218428 0.075945
0.880709 0.223192 0.080709
0.042228 0.329983 0.042228
0.071990 0.332053 0.044298
0.152201 0.337632 0.049877
0.269247 0.345773 0.058017
0.409516 0.355528 0.067773
0.559394 0.365953 0.078197
0.705268 0.376098 0.088343
0.833525 0.385019 0.097264
0.902028 0.389783 0.102028
0.066507 0.519705 0.066507
0.096269 0.521775 0.068577
0.176480 0.527354 0.074156
0.293526 0.535494 0.082296
0.433795 0.545250 0.092052
0.583673 0.555675 0.102476
0.729547 0.565820 0.112622
0.857804 0.574741 0.121542
0.926307 0.579505 0.126307
0.090534 0.707458 0.090534
0.120296 0.709528 0.092604
0.200506 0.715107 0.098182
0.317553 0.723248 0.106323
0.457821 0.733004 0.116079
0.607699 0.743428 0.126503
0.753574 0.753574 0.136649
0.881831 0.762494 0.145569
0.950334 0.767258 0.150334
0.111097 0.868144 0.111097
0.140859 0.870214 0.113167
0.221069 0.875792 0.118745
0.338116 0.883933 0.126886
0.478384 0.893689 0.136642
0.628262 0.904113 0.147066
0.774136 0.914259 0.157212
0.902394 0.923179 0.166132
0.970897 0.927944 0.170897
0.117400 0.917400 0.117400
0.147162 0.919470 0.119470
0.227373 0.925049 0.125049
0.344419 0.933189 0.133189
0.484688 0.942945 0.142945
0.634566 0.953369 0.153369
0.780440 0.963515 0.163515
0.908697 0.972436 0.172436
0.977200 0.977200 0.177200
0.117400 0.917400 0.117400
0.147162 0.919470 0.119470
0.227373 0.925049 0.125049
0.344419 0.933189 0.133189
0.484688 0.942945 0.142945
0.634566 0.953369 0.153369
0.780440 0.963515 0.163515
0.908697 0.972436 0.172436
0.977200 0.977200 0.177200
0.001524 0.001524 0.054984
0.031286 0.003594 0.057054
0.111496 0.009172 0.062632
0.228543 0.017313 0.070773
0.368811 0.027069 0.080529
0.518689 0.037493 0.090953
0.664563 0.047639 0.101099
0.792821 0.056559 0.110019
0.861324 0.061324 0.114784
0.007286 0.046555 0.060746
0.037048 0.048625 0.062816
0.117259 0.054204 0.068395
0.234305 0.062344 0.076536
0.374574 0.072100 0.086292
0.524452 0.082524 0.096716
0.670326 0.092670 0.106861
0.798583 0.101590 0.115782
0.867086 0.106355 0.120546
0.022433 0.164916 0.075893
0.052195 0.166986 0.077963
0.132406 0.172564 0.083542
0.249452 0.180705 0.091682
0.389721 0.190461 0.101438
0.539599 0.200885 0.111862
0.685473 0.211031 0.122008
0.813730 0.219951 0.130928
0.882233 0.224716 0.135693
0.043752 0.331507 0.097212
0.073514 0.333577 0.099282
0.153724 0.339156 0.104860
0.270771 0.347296 0.113001
0.411039 0.357052 0.122757
0.560917 0.367476 0.133181
0.706791 0.377622 0.143327
0.835049 0.386542 0.152247
0.903552 0.391307 0.157012
0.068030 0.521229 0.121490
0.097793 0.523299 0.123560
0.178003 0.528877 0.129139
0.295050 0.537018 0.137280
0.435318 0.546774 0.147036
0.585196 0.557198 0.157460
0.731070 0.567344 0.167606
0.859327 0.576264 0.176526
0.927830 0.581029 0.181290
0.092057 0.708982 0.145517
0.121819 0.711052 0.147587
0.202030 0.716631 0.153166
0.319076 0.724771 0.161307
0.459345 0.734527 0.171063
0.609223 0.744951 0.181487
0.755097 0.755097 0.191632
0.883354 0.764018 0.200553
0.951857 0.768782 0.205317
0.112620 0.869667 0.166080
0.142382 0.871737 0.168150
0.222593 0.877316 0.173729
0.339639 0.885457 0.181870
0.479908 0.895213 0.191626
0.629786 0.905637 0.202050
0.775660 0.915782 0.212195
0.903917 0.924703 0.221116
0.972420 0.929467 0.225880
0.118924 0.918924 0.172384
0.148686 0.920994 0.174454
0.228896 0.926572 0.180032
0.345943 0.934713 0.188173
0.486211 0.944469 0.197929
0.636089 0.954893 0.208353
0.781963 0.965039 0.218499
0.910221 0.973959 0.227419
0.978724 0.978724 0.232184
0.118924 0.918924 0.172384
0.148686 0.920994 0.174454
0.228896 0.926572 0.180032
0.345943 0.934713 0.188173
0.486211 0.944469 0.197929
0.636089 0.954893 0.208353
0.781963 0.965039 0.218499
0.910221 0.973959 0.227419
0.978724 0.978724 0.232184
0.005417 0.005417 0.195497
0.035179 0.007487 0.197567
0.115390 0.013066 0.203146
0.232436 0.021207 0.211287
0.372705 0.030963 0.221043
0.522583 0.041387 0.231467
0.668457 0.051532 0.241612
0.796714 0.060453 0.250533
0.865217 0.065217 0.255297
0.011180 0.050449 0.201260
0.040942 0.052519 0.203330
0.121153 0.058097 0.208909
0.238199 0.066238 0.217049
0.378468 0.075994 0.226805
0.528346 0.086418 0.237229
0.674220 0.096564 0.247375
0.802477 0.105484 0.256295
0.870980 0.110249 0.261060
0.026327 0.168809 0.216407
0.056089 0.170879 0.218477
0.136299 0.176458 0.224055
0.253346 0.184599 0.232196
0.393614 0.194355 0.241952
0.543492 0.204779 0.252376
0.689366 0.214925 0.262522
0.817624 0.223845 0.271442
0.886127 0.228609 0.276207
0.047645 0.335400 0.237725
0.077407 0.337470 0.239795
0.157618 0.343049 0.245374
0.274664 0.351190 0.253515
0.414933 0.360946 0.263271
0.564811 0.371370 0.273695
0.710685 0.381516 0.283840
0.838942 0.390436 0.292761
0.907445 0.395200 0.297525
0.071924 0.525122 0.262004
0.101686 0.527192 0.264074
0.181897 0.532771 0.269653
0.298943 0.540912 0.277794
0.439212 0.550668 0.287549
0.589090 0.561092 0.297974
0.734964 0.571237 0.308119
0.863221 0.580158 0.317040
0.931724 0.584922 0.321804
0.095951 0.712876 0.286031
0.125713 0.714946 0.288101
0.205924 0.720524 0.293680
0.322970 0.728665 0.301820
0.463239 0.738421 0.311576
0.613117 0.748845 0.322000
0.758991 0.758991 0.332146
0.887248 0.767911 0.341067
0.955751 0.772676 0.345831
0.116514 0.873561 0.306594
0.146276 0.875631 0.308664
0.226487 0.881210 0.314243
0.343533 0.889350 0.322383
0.483802 0.899106 0.332139
0.633680 0.909530 0.342563
0.779554 0.919676 0.352709
0.907811 0.928597 0.361629
0.976314 0.933361 0.366394
0.122817 0.922817 0.312897
0.152579 0.924887 0.314967
0.232790 0.930466 0.320546
0.349836 0.938607 0.328687
0.490105 0.948363 0.338443
0.639983 0.958787 0.348867
0.785857 0.968932 0.359012
0.914114 0.977853 0.367933
0.982617 0.982617 0.372697
0.122817 0.922817 0.312897
0.152579 0.924887 0.314967
0.232790 0.930466 0.320546
0.349836 0.938607 0.328687
0.490105 0.948363 0.338443
0.639983 0.958787 0.348867
0.785857 0.968932 0.359012
0.914114 0.977853 0.367933
0.982617 0.982617 0.372697
0.010665 0.010665 0.384885
0.040427 0.012735 0.386955
0.120638 0.018314 0.392534
0.237684 0.026455 0.400675
0.377953 0.036211 0.410431
0.527831 0.046635 0.420855
0.673705 0.056780 0.431000
0.801962 0.065701 0.439921
0.870465 0.070465 0.444685
0.016428 0.055697 0.390648
0.046190 0.057767 0.392718
0.126401 0.063345 0.398297
0.243447 0.071486 0.406437
0.383716 0.081242 0.416193
0.533594 0.091666 0.426617
0.679468 0.101812 0.436763
0.807725 0.110732 0.445683
0.876228 0.115497 0.450448
0.031575 0.174057 0.405795
0.061337 0.176127 0.407865
0.141547 0.181706 0.413443
0.258594 0.189847 0.421584
0.398862 0.199603 0.431340
0.548740 0.210027 0.441764
0.694614 0.220173 0.451910
0.822872 0.229093 0.460830
0.891375 0.233857 0.465595
0.052893 0.340648 0.427113
0.082655 0.342718 0.429183
0.162866 0.348297 0.434762
0.279912 0.356438 0.442903
0.420181 0.366194 0.452659
0.570059 0.376618 0.463083
0.715933 0.386764 0.473228
0.844190 0.395684 0.482149
0.912693 0.400448 0.486913
0.077172 0.530370 0.451392
0.106934 0.532440 0.453462
0.187145 0.538019 0.459041
0.304191 0.546160 0.467182
0.444460 0.555916 0.476937
0.594338 0.566340 0.487362
0.740212 0.576485 0.497507
0.868469 0.585406 0.506428
0.936972 0.590170 0.511192
0.101199 0.718124 0.475419
0.130961 0.720194 0.477489
0.211172 0.725772 0.483068
0.328218 0.733913 0.491208
0.468487 0.743669 0.500964
0.618365 0.754093 0.511388
0.764239 0.764239 0.521534
0.892496 0.773159 0.530455
0.960999 0.777924 0.535219
0.121762 0.878809 0.495982
0.151524 0.880879 0.498052
0.231735 0.886458 0.503631
0.348781 0.894598 0.511771
0.489050 0.904354 0.521527
0.638928 0.914778 0.531951
0.784802 0.924924 0.542097
0.913059 0.933845 0.551017
0.981562 0.938609 0.555782
0.128065 0.928065 0.502285
0.157827 0.930135 0.504355
0.238038 0.935714 0.509934
0.355084 0.943855 0.518075
0.495353 0.953611 0.527831
0.645231 0.964035 0.538255
0.791105 0.974180 0.548400
0.919362 0.983101 0.557321
0.987865 0.987865 0.562085
0.128065 0.928065 0.502285
0.157827 0.930135 0.504355
0.238038 0.935714 0.509934
0.355084 0.943855 0.518075
0.495353 0.953611 0.527831
0.645231 0.964035 0.538255
0.791105 0.974180 0.548400
0.919362 0.983101 0.557321
0.987865 0.987865 0.562085
0.016252 0.016252 0.586492
0.046014 0.018322 0.588562
0.126225 0.023901 0.594141
0.243271 0.032041 0.602281
0.383540 0.041797 0.612037
0.533418 0.052221 0.622461
0.679292 0.062367 0.632607
0.807549 0.071287 0.641527
0.876052 0.076052 0.646292
0.022015 0.061283 0.592255
0.051777 0.063353 0.594324
0.131987 0.068932 0.599903
0.249034 0.077073 0.608044
0.389302 0.086828 0.617800
0.539180 0.097253 0.628224
0.685054 0.107398 0.638370
0.813311 0.116319 0.647290
0.881815 0.121083 0.652055
0.037161 0.179644 0.607401
0.066923 0.181714 0.609471
0.147134 0.187293 0.615050
0.264180 0.195433 0.623191
0.404449 0.205189 0.632946
0.554327 0.215613 0.643371
0.700201 0.225759 0.653516
0.828458 0.234680 0.662437
0.896961 0.239444 0.667201
0.058480 0.346235 0.628720
0.088242 0.348305 0.630790
0.168453 0.353884 0.636369
0.285499 0.362024 0.644509
0.425768 0.371780 0.654265
0.575646 0.382204 0.664689
0.721520 0.392350 0.674835
0.849777 0.401271 0.683755
0.918280 0.406035 0.688520
0.082759 0.535957 0.652999
0.112521 0.538027 0.655069
0.192731 0.543606 0.660647
0.309778 0.551746 0.668788
0.450046 0.561502 0.678544
0.599924 0.571926 0.688968
0.745798 0.582072 0.699114
0.874056 0.590992 0.708034
0.942559 0.595757 0.712799
0.106786 0.723710 0.677026
0.136548 0.725780 0.679096
0.216758 0.731359 0.684674
0.333805 0.739500 0.692815
0.474073 0.749255 0.702571
0.623951 0.759680 0.712995
0.769825 0.769825 0.723141
0.898082 0.778746 0.732061
0.966586 0.783510 0.736826
0.127348 0.884396 0.697588
0.157111 0.886466 0.699658
0.237321 0.892044 0.705237
0.354368 0.900185 0.713378
0.494636 0.909941 0.723134
0.644514 0.920365 0.733558
0.790388 0.930511 0.743704
0.918645 0.939431 0.752624
0.987148 0.944196 0.757388
0.133652 0.933652 0.703892
0.163414 0.935722 0.705962
0.243625 0.941301 0.711541
0.360671 0.949441 0.719681
0.500940 0.959197 0.729437
0.650818 0.969621 0.739861
0.796692 0.979767 0.750007
0.924949 0.988687 0.758927
0.993452 0.993452 0.763692
0.133652 0.933652 0.703892
0.163414 0.935722 0.705962
0.243625 0.941301 0.711541
0.360671 0.949441 0.719681
0.500940 0.959197 0.729437
0.650818 0.969621 0.739861
0.796692 0.979767 0.750007
0.924949 0.988687 0.758927
0.993452 0.993452 0.763692
0.021161 0.021161 0.763661
0.050923 0.023231 0.765731
0.131134 0.028810 0.771310
0.248180 0.036951 0.779451
0.388449 0.046707 0.789207
0.538327 0.057131 0.799631
0.684201 0.067276 0.809776
0.812458 0.076197 0.818697
0.880961 0.080961 0.823461
0.026924 0.066193 0.769424
0.056686 0.068262 0.771494
0.136897 0.073841 0.777073
0.253943 0.081982 0.785213
0.394212 0.091738 0.794969
0.544090 0.102162 0.805393
0.689964 0.112308 0.815539
0.818221 0.121228 0.824459
0.886724 0.125993 0.829224
0.042071 0.184553 0.784571
0.071833 0.186623 0.786641
0.152043 0.192202 0.792219
0.269090 0.200343 0.800360
0.409358 0.210099 0.810116
0.559236 0.220523 0.820540
0.705110 0.230668 0.830686
0.833368 0.239589 0.839606
0.901871 0.244353 0.844371
0.063389 0.351144 0.805889
0.093151 0.353214 0.807959
0.173362 0.358793 0.813538
0.290408 0.366934 0.821679
0.430677 0.376690 0.831435
0.580555 0.387114 0.841859
0.726429 0.397260 0.852004
0.854686 0.406180 0.860925
0.923189 0.410944 0.865689
0.087668 0.540866 0.830168
0.117430 0.542936 0.832238
0.197641 0.548515 0.837817
0.314687 0.556656 0.845958
0.454956 0.566412 0.855713
0.604834 0.576836 0.866138
0.750708 0.586981 0.876283
0.878965 0.595902 0.885204
0.947468 0.600666 0.889968
0.111695 0.728620 0.854195
0.141457 0.730690 0.856265
0.221668 0.736268 0.861844
0.338714 0.744409 0.869984
0.478983 0.754165 0.879740
0.628861 0.764589 0.890164
0.774735 0.774735 0.900310
0.902992 0.783655 0.909230
0.971495 0.788420 0.913995
0.132258 0.889305 0.874758
0.162020 0.891375 0.876828
0.242231 0.896954 0.882407
0.359277 0.905094 0.890547
0.499546 0.914850 0.900303
0.649424 0.925274 0.910727
0.795298 0.935420 0.920873
0.923555 0.944341 0.929793
0.992058 0.949105 0.934558
0.138561 0.938561 0.881061
0.168323 0.940631 0.883131
0.248534 0.946210 0.888710
0.365580 0.954351 0.896851
0.505849 0.964107 0.906607
0.655727 0.974531 0.917031
0.801601 0.984676 0.927176
0.929858 0.993597 0.936097
0.998361 0.998361 0.940861
0.138561 0.938561 0.881061
0.168323 0.940631 0.883131
0.248534 0.946210 0.888710
0.365580 0.954351 0.896851
0.505849 0.964107 0.906607
0.655727 0.974531 0.917031
0.801601 0.984676 0.927176
0.929858 0.993597 0.936097
0.998361 0.998361 0.940861
0.022800 0.022800 0.822800
0.052562 0.024870 0.824870
0.132773 0.030449 0.830449
0.249819 0.038589 0.838589
0.390088 0.048345 0.848345
0.539966 0.058769 0.858769
0.685840 0.068915 0.868915
0.814097 0.077836 0.877836
0.882600 0.082600 0.882600
0.028563 0.067831 0.828563
0.058325 0.069901 0.830633
0.138535 0.075480 0.836211
0.255582 0.083621 0.844352
0.395850 0.093377 0.854108
0.545728 0.103801 0.864532
0.691602 0.113946 0.874678
0.819860 0.122867 0.883598
0.888363 0.127631 0.888363
0.043709 0.186192 0.843709
0.073471 0.188262 0.845779
0.153682 0.193841 0.851358
0.270728 0.201982 0.859499
0.410997 0.211737 0.869255
0.560875 0.222162 0.879679
0.706749 0.232307 0.889824
0.835006 0.241228 0.898745
0.903509 0.245992 0.903509
0.065028 0.352783 0.865028
0.094790 0.354853 0.867098
0.175001 0.360432 0.872677
0.292047 0.368573 0.880817
0.432316 0.378328 0.890573
0.582194 0.388753 0.900997
0.728068 0.398898 0.911143
0.856325 0.407819 0.920064
0.924828 0.412583 0.924828
0.089307 0.542505 0.889307
0.119069 0.544575 0.891377
0.199280 0.550154 0.896956
0.316326 0.558294 0.905096
0.456595 0.568050 0.914852
0.606473 0.578475 0.925276
0.752347 0.588620 0.935422
0.880604 0.597541 0.944342
0.949107 0.602305 0.949107
0.113334 0.730258 0.913334
0.143096 0.732328 0.915404
0.223306 0.737907 0.920982
0.340353 0.746048 0.929123
0.480621 0.755804 0.938879
0.630499 0.766228 0.949303
0.776374 0.776374 0.959449
0.904631 0.785294 0.968369
0.973134 0.790058 0.973134
0.133897 0.890944 0.933897
0.163659 0.893014 0.935967
0.243869 0.898592 0.941545
0.360916 0.906733 0.949686
0.501184 0.916489 0.959442
0.651062 0.926913 0.969866
0.796936 0.937059 0.980012
0.925194 0.945979 0.988932
0.993697 0.950744 0.993697
0.140200 0.940200 0.940200
0.169962 0.942270 0.942270
0.250173 0.947849 0.947849
0.367219 0.955989 0.955989
0.507488 0.965745 0.965745
0.657366 0.976169 0.976169
0.803240 0.986315 0.986315
0.931497 0.995236 0.995236
1.000000 1.000000 1.000000
0.140200 0.940200 0.940200
0.169962 0.942270 0.942270
0.250173 0.947849 0.947849
0.367219 0.955989 0.955989
0.507488 0.965745 0.965745
0.657366 0.976169 0.976169
0.803240 0.986315 0.986315
0.931497 0.995236 0.995236
1.000000 1.000000 1.000000
0.022800 0.022800 0.822800
0.052562 0.024870 0.824870
0.132773 0.030449 0.830449
0.249819 0.038589 0.838589
0.390088 0.048345 0.848345
0.539966 0.058769 0.858769
0.685840 0.068915 0.868915
0.814097 0.077836 0.877836
0.882600 0.082600 0.882600
0.028563 0.067831 0.828563
0.058325 0.069901 0.830633
0.138535 0.075480 0.836211
0.255582 0.083621 0.844352
0.395850 0.093377 0.854108
0.545728 0.103801 0.864532
0.691602 0.113946 0.874678
0.819860 0.122867 0.883598
0.888363 0.127631 0.888363
0.043709 0.186192 0.843709
0.073471 0.188262 0.845779
0.153682 0.193841 0.851358
0.270728 0.201982 0.859499
0.410997 0.211737 0.869255
0.560875 0.222162 0.879679
0.706749 0.232307 0.889824
0.835006 0.241228 0.898745
0.903509 0.245992 0.903509
0.065028 0.352783 0.865028
0.094790 0.354853 0.867098
0.175001 0.360432 0.872677
0.292047 0.368573 0.880817
0.432316 0.378328 0.890573
0.582194 0.388753 0.900997
0.728068 0.398898 0.911143
0.856325 0.407819 0.920064
0.924828 0.412583 0.924828
0.089307 0.542505 0.889307
0.119069 0.544575 0.891377
0.199280 0.550154 0.896956
0.316326 0.558294 0.905096
0.456595 0.568050 0.914852
0.606473 0.578475 0.925276
0.752347 0.588620 0.935422
0.880604 0.597541 0.944342
0.949107 0.602305 0.949107
0.113334 0.730258 0.913334
0.143096 0.732328 0.915404
0.223306 0.737907 0.920982
0.340353 0.746048 0.929123
0.480621 0.755804 0.938879
0.630499 0.766228 0.949303
0.776374 0.776374 0.959449
0.904631 0.785294 0.968369
0.973134 0.790058 0.973134
0.133897 0.890944 0.933897
0.163659 0.893014 0.935967
0.243869 0.898592 0.941545
0.360916 0.906733 0.949686
0.501184 0.916489 0.959442
0.651062 0.926913 0.969866
0.796936 0.937059 0.980012
0.925194 0.945979 0.988932
0.993697 0.950744 0.993697
0.140200 0.940200 0.940200
0.169962 0.942270 0.942270
0.250173 0.947849 0.947849
0.367219 0.955989 0.955989
0.507488 0.965745 0.965745
0.657366 0.976169 0.976169
0.803240 0.986315 0.986315
0.931497 0.995236 0.995236
1.000000 1.000000 1.000000
0.140200 0.940200 0.940200
0.169962 0.942270 0.942270
0.250173 0.947849 0.947849
0.367219 0.955989 0.955989
0.507488 0.965745 0.965745
0.657366 0.976169 0.976169
0.803240 0.986315 0.986315
0.931497 0.995236 0.995236
1.000000 1.000000 1.000000
0.022800 0.022800 0.822800
0.052562 0.024870 0.824870
0.132773 0.030449 0.830449
0.249819 0.038589 0.838589
0.390088 0.048345 0.848345
0.539966 0.058769 0.858769
0.685840 0.068915 0.868915
0.814097 0.077836 0.877836
0.882600 0.082600 0.882600
0.028563 0.067831 0.828563
0.058325 0.069901 0.830633
0.138535 0.075480 0.836211
0.255582 0.083621 0.844352
0.395850 0.093377 0.854108
0.545728 0.103801 0.864532
0.691602 0.113946 0.874678
0.819860 0.122867 0.883598
0.888363 0.127631 0.888363
0.043709 0.186192 0.843709
0.073471 0.188262 0.845779
0.153682 0.193841 0.851358
0.270728 0.201982 0.859499
0.410997 0.211737 0.869255
0.560875 0.222162 0.879679
0.706749 0.232307 0.889824
0.835006 0.241228 0.898745
0.903509 0.245992 0.903509
0.065028 0.352783 0.865028
0.094790 0.354853 0.867098
0.175001 0.360432 0.872677
0.292047 0.368573 0.880817
0.432316 0.378328 0.890573
0.582194 0.388753 0.900997
0.728068 0.398898 0.911143
0.856325 0.407819 0.920064
0.924828 0.412583 0.924828
0.089307 0.542505 0.889307
0.119069 0.544575 0.891377
0.199280 0.550154 0.896956
0.316326 0.558294 0.905096
0.456595 0.568050 0.914852
0.606473 0.578475 0.925276
0.752347 0.588620 0.935422
0.880604 0.597541 0.944342
0.949107 0.602305 0.949107
0.113334 0.730258 0.913334
0.143096 0.732328 0.915404
0.223306 0.737907 0.920982
0.340353 0.746048 0.929123
0.480621 0.755804 0.938879
0.630499 0.766228 0.949303
0.776374 0.776374 0.959449
0.904631 0.785294 0.968369
0.973134 0.790058 0.973134
0.133897 0.890944 0.933897
0.163659 0.893014 0.935967
0.243869 0.898592 0.941545
0.360916 0.906733 0.949686
0.501184 0.916489 0.959442
0.651062 0.926913 0.969866
0.796936 0.937059 0.980012
0.925194 0.945979 0.988932
0.993697 0.950744 0.993697
0.140200 0.940200 0.940200
0.169962 0.942270 0.942270
0.250173 0.947849 0.947849
0.367219 0.955989 0.955989
0.507488 0.965745 0.965745
0.657366 0.976169 0.976169
0.803240 0.986315 0.986315
0.931497 0.995236 0.995236
1.000000 1.000000 1.000000
0.140200 0.940200 0.940200
0.169962 0.942270 0.942270
0.250173 0.947849 0.947849
0.367219 0.955989 0.955989
0.507488 0.965745 0.965745
0.657366 0.976169 0.976169
0.803240 0.986315 0.986315
0.931497 0.995236 0.995236
1.000000 1.000000 1.000000
