luts/cool_scifi.cube
TITLE "Cool Sci-Fi"
LUT_3D_SIZE 5
DOMAIN_MIN 0.0 0.0 0.0
DOMAIN_MAX 1.0 1.0 1.0
0.000000 0.000000 0.000000
0.109973 0.007649 0.007649
0.367288 0.025545 0.025545
0.663040 0.046115 0.046115
0.859800 0.059800 0.059800
0.020909 0.163392 0.020909
0.130882 0.171041 0.028558
0.388197 0.188937 0.046455
0.683949 0.209507 0.067024
0.880709 0.223192 0.080709
0.066507 0.519705 0.066507
0.176480 0.527354 0.074156
0.433795 0.545250 0.092052
0.729547 0.565820 0.112622
0.926307 0.579505 0.126307
0.111097 0.868144 0.111097
0.221069 0.875792 0.118745
0.478384 0.893689 0.136642
0.774136 0.914259 0.157212
0.970897 0.927944 0.170897
0.117400 0.917400 0.117400
0.227373 0.925049 0.125049
0.484688 0.942945 0.142945
0.780440 0.963515 0.163515
0.977200 0.977200 0.177200
0.005417 0.005417 0.195497
0.115390 0.013066 0.203146
0.372705 0.030963 0.221043
0.668457 0.051532 0.241612
0.865217 0.065217 0.255297
0.026327 0.168809 0.216407
0.136299 0.176458 0.224055
0.393614 0.194355 0.241952
0.689366 0.214925 0.262522
0.886127 0.228609 0.276207
0.071924 0.525122 0.262004
0.181897 0.532771 0.269653
0.439212 0.550668 0.287549
0.734964 0.571237 0.308119
0.931724 0.584922 0.321804
0.116514 0.873561 0.306594
0.226487 0.881210 0.314243
0.483802 0.899106 0.332139
0.779554 0.919676 0.352709
0.976314 0.933361 0.366394
0.122817 0.922817 0.312897
0.232790 0.930466 0.320546
0.490105 0.948363 0.338443
0.785857 0.968932 0.359012
0.982617 0.982617 0.372697
0.016252 0.016252 0.586492
0.126225 0.023901 0.594141
0.383540 0.041797 0.612037
0.679292 0.062367 0.632607
0.876052 0.076052 0.646292
0.037161 0.179644 0.607401
0.147134 0.187293 0.615050
0.404449 0.205189 0.632946
0.700201 0.225759 0.653516
0.896961 0.239444 0.667201
0.082759 0.535957 0.652999
0.192731 0.543606 0.660647
0.450046 0.561502 0.678544
0.745798 0.582072 0.699114
0.942559 0.595757 0.712799
0.127348 0.884396 0.697588
0.237321 0.892044 0.705237
0.494636 0.909941 0.723134
0.790388 0.930511 0.743704
0.987148 0.944196 0.757388
0.133652 0.933652 0.703892
0.243625 0.941301 0.711541
0.500940 0.959197 0.729437
0.796692 0.979767 0.750007
0.993452 0.993452 0.763692
0.022800 0.022800 0.822800
0.132773 0.030449 0.830449
0.390088 0.048345 0.848345
0.685840 0.068915 0.868915
0.882600 0.082600 0.882600
0.043709 0.186192 0.843709
0.153682 0.193841 0.851358
0.410997 0.211737 0.869255
0.706749 0.232307 0.889824
0.903509 0.245992 0.903509
0.089307 0.542505 0.889307
0.199280 0.550154 0.896956
0.456595 0.568050 0.914852
0.752347 0.588620 0.935422
0.949107 0.602305 0.949107
0.133897 0.890944 0.933897
0.243869 0.898592 0.941545
0.501184 0.916489 0.959442
0.796936 0.937059 0.980012
0.993697 0.950744 0.993697
0.140200 0.940200 0.940200
0.250173 0.947849 0.947849
0.507488 0.965745 0.965745
0.803240 0.986315 0.986315
1.000000 1.000000 1.000000
0.022800 0.022800 0.822800
0.132773 0.030449 0.830449
0.390088 0.048345 0.848345
0.685840 0.068915 0.868915
0.882600 0.082600 0.882600
0.043709 0.186192 0.843709
0.153682 0.193841 0.851358
0.410997 0.211737 0.869255
0.706749 0.232307 0.889824
0.903509 0.245992 0.903509
0.089307 0.542505 0.889307
0.199280 0.550154 0.896956
0.456595 0.568050 0.914852
0.752347 0.588620 0.935422
0.949107 0.602305 0.949107
0.133897 0.890944 0.933897
0.243869 0.898592 0.941545
0.501184 0.916489 0.959442
0.796936 0.937059 0.980012
0.993697 0.950744 0.993697
0.140200 0.940200 0.940200
0.250173 0.947849 0.947849
0.507488 0.965745 0.965745
0.803240 0.986315 0.986315
1.000000 1.000000 1.000000
