luts/cool_scifi.cube
TITLE "Cool Sci-Fi"
LUT_3D_SIZE 33
DOMAIN_MIN 0.0 0.0 0.0
DOMAIN_MAX 1.0 1.0 1.0
0.000000 0.000000 0.000000
0.001966 0.000137 0.000137
0.007724 0.000537 0.000537
0.017060 0.001187 0.001187
0.029762 0.002070 0.002070
0.045617 0.003173 0.003173
0.064412 0.004480 0.004480
0.085935 0.005977 0.005977
0.109973 0.007649 0.007649
0.136313 0.009481 0.009481
0.164742 0.011458 0.011458
0.195049 0.013566 0.013566
0.227019 0.015789 0.015789
0.260441 0.018114 0.018114
0.295101 0.020525 0.020525
0.330788 0.023007 0.023007
0.367288 0.025545 0.025545
0.404388 0.028126 0.028126
0.441876 0.030733 0.030733
0.479540 0.033353 0.033353
0.517166 0.035969 0.035969
0.554541 0.038569 0.038569
0.591454 0.041136 0.041136
0.627691 0.043657 0.043657
0.663040 0.046115 0.046115
0.697287 0.048497 0.048497
0.730221 0.050788 0.050788
0.761629 0.052972 0.052972
0.791297 0.055036 0.055036
0.819013 0.056963 0.056963
0.844565 0.058740 0.058740
0.859800 0.059800 0.059800
0.859800 0.059800 0.059800
0.000385 0.003011 0.000385
0.002352 0.003147 0.000522
0.008109 0.003548 0.000922
0.017445 0.004197 0.001572
0.030147 0.005081 0.002455
0.046002 0.006183 0.003558
0.064797 0.007490 0.004865
0.086320 0.008987 0.006362
0.110358 0.010659 0.008034
0.136698 0.012491 0.009866
0.165128 0.014469 0.011843
0.195434 0.016576 0.013951
0.227404 0.018800 0.016175
0.260826 0.021124 0.018499
0.295487 0.023535 0.020910
0.331173 0.026017 0.023392
0.367673 0.028556 0.025931
0.404773 0.031136 0.028511
0.442262 0.033744 0.031118
0.479925 0.036363 0.033738
0.517551 0.038980 0.036355
0.554927 0.041579 0.038954
0.591839 0.044147 0.041522
0.628076 0.046667 0.044042
0.663425 0.049126 0.046500
0.697673 0.051508 0.048882
0.730607 0.053798 0.051173
0.762014 0.055983 0.053357
0.791682 0.058046 0.055421
0.819398 0.059974 0.057348
0.844950 0.061751 0.059126
0.860185 0.062811 0.060185
0.860185 0.062811 0.060185
0.001508 0.011781 0.001508
0.003474 0.011917 0.001644
0.009232 0.012318 0.002045
0.018568 0.012967 0.002694
0.031270 0.013851 0.003578
0.047125 0.014953 0.004680
0.065920 0.016261 0.005988
0.087443 0.017758 0.007484
0.111480 0.019429 0.009156
0.137820 0.021261 0.010988
0.166250 0.023239 0.012966
0.196556 0.025347 0.015073
0.228527 0.027570 0.017297
0.261948 0.029895 0.019622
0.296609 0.032305 0.022032
0.332296 0.034787 0.024514
0.368795 0.037326 0.027053
0.405896 0.039906 0.029633
0.443384 0.042514 0.032241
0.481047 0.045133 0.034860
0.518673 0.047750 0.037477
0.556049 0.050350 0.040077
0.592962 0.052917 0.042644
0.629199 0.055437 0.045164
0.664547 0.057896 0.047623
0.698795 0.060278 0.050005
0.731729 0.062568 0.052295
0.763136 0.064753 0.054480
0.792804 0.066816 0.056543
0.820521 0.068744 0.058471
0.846073 0.070521 0.060248
0.861308 0.071581 0.061308
0.861308 0.071581 0.061308
0.003317 0.025918 0.003317
0.005283 0.026055 0.003454
0.011041 0.026456 0.003854
0.020377 0.027105 0.004503
0.033079 0.027988 0.005387
0.048934 0.029091 0.006489
0.067729 0.030398 0.007797
0.089252 0.031895 0.009294
0.113290 0.033567 0.010966
0.139630 0.035399 0.012797
0.168059 0.037376 0.014775
0.198365 0.039484 0.016883
0.230336 0.041708 0.019106
0.263758 0.044032 0.021431
0.298418 0.046443 0.023841
0.334105 0.048925 0.026323
0.370605 0.051464 0.028862
0.407705 0.054044 0.031442
0.445193 0.056651 0.034050
0.482857 0.059271 0.036669
0.520482 0.061888 0.039286
0.557858 0.064487 0.041886
0.594771 0.067055 0.044453
0.631008 0.069575 0.046973
0.666357 0.072033 0.049432
0.700604 0.074415 0.051814
0.733538 0.076706 0.054104
0.764945 0.078890 0.056289
0.794614 0.080954 0.058352
0.822330 0.082882 0.060280
0.847882 0.084659 0.062057
0.863117 0.085718 0.063117
0.863117 0.085718 0.063117
0.005763 0.045031 0.005763
0.007729 0.045168 0.005899
0.013487 0.045568 0.006300
0.022823 0.046218 0.006949
0.035525 0.047101 0.007833
0.051380 0.048204 0.008935
0.070175 0.049511 0.010243
0.091698 0.051008 0.011740
0.115735 0.052680 0.013411
0.142075 0.054512 0.015243
0.170505 0.056489 0.017221
0.200811 0.058597 0.019329
0.232782 0.060821 0.021552
0.266204 0.063145 0.023877
0.300864 0.065556 0.026287
0.336551 0.068038 0.028769
0.373050 0.070577 0.031308
0.410151 0.073157 0.033888
0.447639 0.075764 0.036496
0.485302 0.078384 0.039115
0.522928 0.081001 0.041732
0.560304 0.083600 0.044332
0.597217 0.086168 0.046899
0.633454 0.088688 0.049419
0.668802 0.091146 0.051878
0.703050 0.093528 0.054260
0.735984 0.095819 0.056550
0.767391 0.098003 0.058735
0.797060 0.100067 0.060798
0.824776 0.101995 0.062726
0.850328 0.103772 0.064503
0.865563 0.104831 0.065563
0.865563 0.104831 0.065563
0.008795 0.068727 0.008795
0.010762 0.068864 0.008932
0.016519 0.069264 0.009332
0.025855 0.069914 0.009982
0.038557 0.070797 0.010865
0.054412 0.071900 0.011968
0.073207 0.073207 0.013275
0.094730 0.074704 0.014772
0.118768 0.076376 0.016444
0.145108 0.078208 0.018276
0.173537 0.080185 0.020253
0.203844 0.082293 0.022361
0.235814 0.084517 0.024584
0.269236 0.086841 0.026909
0.303896 0.089252 0.029320
0.339583 0.091734 0.031802
0.376083 0.094273 0.034340
0.413183 0.096853 0.036921
0.450671 0.099460 0.039528
0.488335 0.102080 0.042148
0.525961 0.104697 0.044764
0.563336 0.107296 0.047364
0.600249 0.109864 0.049931
0.636486 0.112384 0.052452
0.671835 0.114842 0.054910
0.706082 0.117224 0.057292
0.739016 0.119515 0.059583
0.770424 0.121699 0.061767
0.800092 0.123763 0.063831
0.827808 0.125691 0.065758
0.853360 0.127468 0.067535
0.868595 0.128527 0.068595
0.868595 0.128527 0.068595
0.012364 0.096614 0.012364
0.014330 0.096751 0.012501
0.020088 0.097151 0.012901
0.029424 0.097801 0.013550
0.042126 0.098684 0.014434
0.057981 0.099787 0.015536
0.076776 0.101094 0.016844
0.098299 0.102591 0.018341
0.122337 0.104263 0.020012
0.148677 0.106095 0.021844
0.177106 0.108072 0.023822
0.207412 0.110180 0.025930
0.239383 0.112404 0.028153
0.272805 0.114728 0.030478
0.307465 0.117139 0.032888
0.343152 0.119621 0.035370
0.379652 0.122159 0.037909
0.416752 0.124740 0.040489
0.454240 0.127347 0.043097
0.491904 0.129967 0.045716
0.529529 0.132584 0.048333
0.566905 0.135183 0.050933
0.603818 0.137750 0.053500
0.640055 0.140271 0.056020
0.675404 0.142729 0.058479
0.709651 0.145111 0.060861
0.742585 0.147402 0.063151
0.773992 0.149586 0.065336
0.803661 0.151650 0.067399
0.831377 0.153577 0.069327
0.856929 0.155355 0.071104
0.872164 0.156414 0.072164
0.872164 0.156414 0.072164
0.016419 0.128300 0.016419
0.018385 0.128437 0.016555
0.024143 0.128837 0.016956
0.033479 0.129486 0.017605
0.046181 0.130370 0.018489
0.062036 0.131473 0.019591
0.080831 0.132780 0.020899
0.102354 0.134277 0.022395
0.126391 0.135949 0.024067
0.152731 0.137781 0.025899
0.181161 0.139758 0.027877
0.211467 0.141866 0.029984
0.243438 0.144089 0.032208
0.276859 0.146414 0.034533
0.311520 0.148825 0.036943
0.347207 0.151307 0.039425
0.383706 0.153845 0.041964
0.420807 0.156426 0.044544
0.458295 0.159033 0.047152
0.495958 0.161652 0.049771
0.533584 0.164269 0.052388
0.570960 0.166869 0.054988
0.607873 0.169436 0.057555
0.644110 0.171956 0.060075
0.679458 0.174415 0.062534
0.713706 0.176797 0.064916
0.746640 0.179088 0.067206
0.778047 0.181272 0.069391
0.807715 0.183335 0.071454
0.835432 0.185263 0.073382
0.860984 0.187040 0.075159
0.876219 0.188100 0.076219
0.876219 0.188100 0.076219
0.020909 0.163392 0.020909
0.022876 0.163529 0.021046
0.028633 0.163929 0.021447
0.037970 0.164579 0.022096
0.050671 0.165462 0.022979
0.066526 0.166565 0.024082
0.085322 0.167872 0.025389
0.106844 0.169369 0.026886
0.130882 0.171041 0.028558
0.157222 0.172873 0.030390
0.185652 0.174850 0.032367
0.215958 0.176958 0.034475
0.247928 0.179182 0.036699
0.281350 0.181506 0.039023
0.316011 0.183917 0.041434
0.351697 0.186399 0.043916
0.388197 0.188937 0.046455
0.425297 0.191518 0.049035
0.462786 0.194125 0.051642
0.500449 0.196745 0.054262
0.538075 0.199362 0.056879
0.575451 0.201961 0.059478
0.612363 0.204528 0.062046
0.648600 0.207049 0.064566
0.683949 0.209507 0.067024
0.718197 0.211889 0.069406
0.751131 0.214180 0.071697
0.782538 0.216364 0.073881
0.812206 0.218428 0.075945
0.839923 0.220355 0.077873
0.865474 0.222133 0.079650
0.880709 0.223192 0.080709
0.880709 0.223192 0.080709
0.025786 0.201499 0.025786
0.027752 0.201636 0.025923
0.033510 0.202036 0.026323
0.042846 0.202685 0.026972
0.055548 0.203569 0.027856
0.071403 0.204671 0.028959
0.090198 0.205979 0.030266
0.111721 0.207476 0.031763
0.135759 0.209147 0.033435
0.162099 0.210979 0.035267
0.190528 0.212957 0.037244
0.220834 0.215065 0.039352
0.252805 0.217288 0.041575
0.286227 0.219613 0.043900
0.320887 0.222023 0.046310
0.356574 0.224505 0.048793
0.393074 0.227044 0.051331
0.430174 0.229624 0.053911
0.467662 0.232232 0.056519
0.505326 0.234851 0.059138
0.542952 0.237468 0.061755
0.580327 0.240068 0.064355
0.617240 0.242635 0.066922
0.653477 0.245155 0.069442
0.688826 0.247614 0.071901
0.723073 0.249996 0.074283
0.756007 0.252286 0.076574
0.787415 0.254471 0.078758
0.817083 0.256534 0.080821
0.844799 0.258462 0.082749
0.870351 0.260239 0.084526
0.885586 0.261299 0.085586
0.885586 0.261299 0.085586
0.030998 0.242228 0.030998
0.032964 0.242364 0.031135
0.038722 0.242765 0.031535
0.048058 0.243414 0.032185
0.060760 0.244298 0.033068
0.076615 0.245400 0.034171
0.095410 0.246708 0.035478
0.116933 0.248204 0.036975
0.140971 0.249876 0.038647
0.167311 0.251708 0.040479
0.195740 0.253686 0.042456
0.226047 0.255793 0.044564
0.258017 0.258017 0.046787
0.291439 0.260342 0.049112
0.326099 0.262752 0.051523
0.361786 0.265234 0.054005
0.398286 0.267773 0.056543
0.435386 0.270353 0.059124
0.472874 0.272961 0.061731
0.510538 0.275580 0.064350
0.548164 0.278197 0.066967
0.585539 0.280797 0.069567
0.622452 0.283364 0.072134
0.658689 0.285884 0.074655
0.694038 0.288343 0.077113
0.728285 0.290725 0.079495
0.761219 0.293015 0.081786
0.792627 0.295200 0.083970
0.822295 0.297263 0.086033
0.850011 0.299191 0.087961
0.875563 0.300968 0.089738
0.890798 0.302028 0.090798
0.890798 0.302028 0.090798
0.036495 0.285186 0.036495
0.038462 0.285323 0.036632
0.044220 0.285724 0.037033
0.053556 0.286373 0.037682
0.066257 0.287256 0.038565
0.082112 0.288359 0.039668
0.100908 0.289666 0.040975
0.122430 0.291163 0.042472
0.146468 0.292835 0.044144
0.172808 0.294667 0.045976
0.201238 0.296644 0.047953
0.231544 0.298752 0.050061
0.263514 0.300976 0.052285
0.296936 0.303300 0.054609
0.331597 0.305711 0.057020
0.367283 0.308193 0.059502
0.403783 0.310732 0.062041
0.440884 0.313312 0.064621
0.478372 0.315919 0.067228
0.516035 0.318539 0.069848
0.553661 0.321156 0.072465
0.591037 0.323755 0.075064
0.627949 0.326323 0.077632
0.664187 0.328843 0.080152
0.699535 0.331302 0.082611
0.733783 0.333684 0.084992
0.766717 0.335974 0.087283
0.798124 0.338159 0.089467
0.827792 0.340222 0.091531
0.855509 0.342150 0.093459
0.881060 0.343927 0.095236
0.896295 0.344986 0.096295
0.896295 0.344986 0.096295
0.042228 0.329983 0.042228
0.044195 0.330120 0.042365
0.049952 0.330520 0.042765
0.059288 0.331170 0.043415
0.071990 0.332053 0.044298
0.087845 0.333156 0.045401
0.106640 0.334463 0.046708
0.128163 0.335960 0.048205
0.152201 0.337632 0.049877
0.178541 0.339464 0.051709
0.206970 0.341441 0.053686
0.237277 0.343549 0.055794
0.269247 0.345773 0.058017
0.302669 0.348097 0.060342
0.337329 0.350508 0.062753
0.373016 0.352990 0.065235
0.409516 0.355528 0.067773
0.446616 0.358109 0.070354
0.484104 0.360716 0.072961
0.521768 0.363336 0.075581
0.559394 0.365953 0.078197
0.596769 0.368552 0.080797
0.633682 0.371119 0.083364
0.669919 0.373640 0.085885
0.705268 0.376098 0.088343
0.739516 0.378480 0.090725
0.772449 0.380771 0.093016
0.803857 0.382955 0.095200
0.833525 0.385019 0.097264
0.861241 0.386946 0.099191
0.886793 0.388724 0.100968
0.902028 0.389783 0.102028
0.902028 0.389783 0.102028
0.048146 0.376226 0.048146
0.050112 0.376362 0.048282
0.055870 0.376763 0.048683
0.065206 0.377412 0.049332
0.077908 0.378296 0.050216
0.093763 0.379398 0.051318
0.112558 0.380706 0.052626
0.134081 0.382202 0.054123
0.158119 0.383874 0.055794
0.184459 0.385706 0.057626
0.212888 0.387684 0.059604
0.243194 0.389791 0.061712
0.275165 0.392015 0.063935
0.308587 0.394340 0.066260
0.343247 0.396750 0.068670
0.378934 0.399232 0.071152
0.415433 0.401771 0.073691
0.452534 0.404351 0.076271
0.490022 0.406959 0.078879
0.527686 0.409578 0.081498
0.565311 0.412195 0.084115
0.602687 0.414795 0.086715
0.639600 0.417362 0.089282
0.675837 0.419882 0.091802
0.711186 0.422341 0.094261
0.745433 0.424723 0.096643
0.778367 0.427013 0.098933
0.809774 0.429198 0.101118
0.839443 0.431261 0.103181
0.867159 0.433189 0.105109
0.892711 0.434966 0.106886
0.907946 0.436026 0.107946
0.907946 0.436026 0.107946
0.054198 0.423522 0.054198
0.056165 0.423658 0.054335
0.061922 0.424059 0.054735
0.071258 0.424708 0.055385
0.083960 0.425591 0.056268
0.099815 0.426694 0.057371
0.118610 0.428001 0.058678
0.140133 0.429498 0.060175
0.164171 0.431170 0.061847
0.190511 0.433002 0.063679
0.218940 0.434980 0.065656
0.249247 0.437087 0.067764
0.281217 0.439311 0.069988
0.314639 0.441635 0.072312
0.349300 0.444046 0.074723
0.384986 0.446528 0.077205
0.421486 0.449067 0.079743
0.458586 0.451647 0.082324
0.496075 0.454254 0.084931
0.533738 0.456874 0.087551
0.571364 0.459491 0.090168
0.608740 0.462090 0.092767
0.645652 0.464658 0.095334
0.681889 0.467178 0.097855
0.717238 0.469637 0.100313
0.751486 0.472019 0.102695
0.784419 0.474309 0.104986
0.815827 0.476494 0.107170
0.845495 0.478557 0.109234
0.873211 0.480485 0.111161
0.898763 0.482262 0.112939
0.913998 0.483322 0.113998
0.913998 0.483322 0.113998
0.060335 0.471479 0.060335
0.062302 0.471615 0.060472
0.068059 0.472016 0.060873
0.077396 0.472665 0.061522
0.090097 0.473549 0.062405
0.105952 0.474651 0.063508
0.124747 0.475959 0.064815
0.146270 0.477456 0.066312
0.170308 0.479127 0.067984
0.196648 0.480959 0.069816
0.225078 0.482937 0.071793
0.255384 0.485045 0.073901
0.287354 0.487268 0.076125
0.320776 0.489593 0.078449
0.355437 0.492003 0.080860
0.391123 0.494485 0.083342
0.427623 0.497024 0.085881
0.464723 0.499604 0.088461
0.502212 0.502212 0.091068
0.539875 0.504831 0.093688
0.577501 0.507448 0.096305
0.614877 0.510048 0.098904
0.651789 0.512615 0.101472
0.688026 0.515135 0.103992
0.723375 0.517594 0.106450
0.757623 0.519976 0.108832
0.790557 0.522266 0.111123
0.821964 0.524451 0.113307
0.851632 0.526514 0.115371
0.879349 0.528442 0.117299
0.904900 0.530219 0.119076
0.920135 0.531279 0.120135
0.920135 0.531279 0.120135
0.066507 0.519705 0.066507
0.068473 0.519842 0.066644
0.074231 0.520242 0.067044
0.083567 0.520892 0.067693
0.096269 0.521775 0.068577
0.112124 0.522878 0.069680
0.130919 0.524185 0.070987
0.152442 0.525682 0.072484
0.176480 0.527354 0.074156
0.202820 0.529186 0.075988
0.231249 0.531163 0.077965
0.261555 0.533271 0.080073
0.293526 0.535494 0.082296
0.326948 0.537819 0.084621
0.361608 0.540230 0.087031
0.397295 0.542712 0.089513
0.433795 0.545250 0.092052
0.470895 0.547831 0.094632
0.508383 0.550438 0.097240
0.546047 0.553058 0.099859
0.583673 0.555675 0.102476
0.621048 0.558274 0.105076
0.657961 0.560841 0.107643
0.694198 0.563362 0.110163
0.729547 0.565820 0.112622
0.763794 0.568202 0.115004
0.796728 0.570493 0.117295
0.828136 0.572677 0.119479
0.857804 0.574741 0.121542
0.885520 0.576668 0.123470
0.911072 0.578445 0.125247
0.926307 0.579505 0.126307
0.926307 0.579505 0.126307
0.072663 0.567808 0.072663
0.074629 0.567945 0.072799
0.080387 0.568346 0.073200
0.089723 0.568995 0.073849
0.102425 0.569878 0.074733
0.118280 0.570981 0.075835
0.137075 0.572288 0.077143
0.158598 0.573785 0.078640
0.182635 0.575457 0.080311
0.208975 0.577289 0.082143
0.237405 0.579266 0.084121
0.267711 0.581374 0.086228
0.299682 0.583598 0.088452
0.333104 0.585922 0.090777
0.367764 0.588333 0.093187
0.403451 0.590815 0.095669
0.439950 0.593354 0.098208
0.477051 0.595934 0.100788
0.514539 0.598541 0.103396
0.552202 0.601161 0.106015
0.589828 0.603778 0.108632
0.627204 0.606377 0.111232
0.664117 0.608945 0.113799
0.700354 0.611465 0.116319
0.735702 0.613924 0.118778
0.769950 0.616305 0.121160
0.802884 0.618596 0.123450
0.834291 0.620780 0.125635
0.863960 0.622844 0.127698
0.891676 0.624772 0.129626
0.917228 0.626549 0.131403
0.932463 0.627608 0.132463
0.932463 0.627608 0.132463
0.078753 0.615397 0.078753
0.080719 0.615533 0.078889
0.086477 0.615934 0.079290
0.095813 0.616583 0.079939
0.108515 0.617467 0.080822
0.124369 0.618569 0.081925
0.143165 0.619876 0.083232
0.164688 0.621373 0.084729
0.188725 0.623045 0.086401
0.215065 0.624877 0.088233
0.243495 0.626855 0.090211
0.273801 0.628962 0.092318
0.305772 0.631186 0.094542
0.339193 0.633510 0.096866
0.373854 0.635921 0.099277
0.409540 0.638403 0.101759
0.446040 0.640942 0.104298
0.483141 0.643522 0.106878
0.520629 0.646129 0.109485
0.558292 0.648749 0.112105
0.595918 0.651366 0.114722
0.633294 0.653965 0.117321
0.670207 0.656533 0.119889
0.706444 0.659053 0.122409
0.741792 0.661512 0.124868
0.776040 0.663894 0.127250
0.808974 0.666184 0.129540
0.840381 0.668369 0.131725
0.870049 0.670432 0.133788
0.897766 0.672360 0.135716
0.923317 0.674137 0.137493
0.938553 0.675197 0.138553
0.938553 0.675197 0.138553
0.084726 0.662077 0.084726
0.086693 0.662214 0.084863
0.092450 0.662614 0.085263
0.101786 0.663264 0.085913
0.114488 0.664147 0.086796
0.130343 0.665250 0.087899
0.149138 0.666557 0.089206
0.170661 0.668054 0.090703
0.194699 0.669726 0.092375
0.221039 0.671558 0.094207
0.249469 0.673535 0.096184
0.279775 0.675643 0.098292
0.311745 0.677867 0.100516
0.345167 0.680191 0.102840
0.379828 0.682602 0.105251
0.415514 0.685084 0.107733
0.452014 0.687622 0.110272
0.489114 0.690203 0.112852
0.526603 0.692810 0.115459
0.564266 0.695430 0.118079
0.601892 0.698047 0.120696
0.639268 0.700646 0.123295
0.676180 0.703213 0.125863
0.712417 0.705734 0.128383
0.747766 0.708192 0.130841
0.782014 0.710574 0.133223
0.814948 0.712865 0.135514
0.846355 0.715049 0.137698
0.876023 0.717113 0.139762
0.903739 0.719040 0.141689
0.929291 0.720818 0.143467
0.944526 0.721877 0.144526
0.944526 0.721877 0.144526
0.090534 0.707458 0.090534
0.092500 0.707595 0.090670
0.098258 0.707996 0.091071
0.107594 0.708645 0.091720
0.120296 0.709528 0.092604
0.136151 0.710631 0.093706
0.154946 0.711938 0.095014
0.176469 0.713435 0.096511
0.200506 0.715107 0.098182
0.226846 0.716939 0.100014
0.255276 0.718916 0.101992
0.285582 0.721024 0.104100
0.317553 0.723248 0.106323
0.350975 0.725572 0.108648
0.385635 0.727983 0.111058
0.421322 0.730465 0.113540
0.457821 0.733004 0.116079
0.494922 0.735584 0.118659
0.532410 0.738191 0.121267
0.570074 0.740811 0.123886
0.607699 0.743428 0.126503
0.645075 0.746027 0.129103
0.681988 0.748595 0.131670
0.718225 0.751115 0.134190
0.753574 0.753574 0.136649
0.787821 0.755955 0.139031
0.820755 0.758246 0.141321
0.852162 0.760430 0.143506
0.881831 0.762494 0.145569
0.909547 0.764422 0.147497
0.935099 0.766199 0.149274
0.950334 0.767258 0.150334
0.950334 0.767258 0.150334
0.096125 0.751148 0.096125
0.098091 0.751285 0.096261
0.103849 0.751685 0.096662
0.113185 0.752334 0.097311
0.125887 0.753218 0.098195
0.141742 0.754320 0.099297
0.160537 0.755628 0.100605
0.182060 0.757125 0.102102
0.206097 0.758797 0.103773
0.232437 0.760628 0.105605
0.260867 0.762606 0.107583
0.291173 0.764714 0.109690
0.323144 0.766937 0.111914
0.356566 0.769262 0.114239
0.391226 0.771672 0.116649
0.426913 0.774154 0.119131
0.463412 0.776693 0.121670
0.500513 0.779273 0.124250
0.538001 0.781881 0.126858
0.575664 0.784500 0.129477
0.613290 0.787117 0.132094
0.650666 0.789717 0.134694
0.687579 0.792284 0.137261
0.723816 0.794804 0.139781
0.759164 0.797263 0.142240
0.793412 0.799645 0.144622
0.826346 0.801935 0.146912
0.857753 0.804120 0.149097
0.887422 0.806183 0.151160
0.915138 0.808111 0.153088
0.940690 0.809888 0.154865
0.955925 0.810948 0.155925
0.955925 0.810948 0.155925
0.101449 0.792753 0.101449
0.103415 0.792890 0.101586
0.109173 0.793290 0.101986
0.118509 0.793940 0.102635
0.131211 0.794823 0.103519
0.147066 0.795926 0.104622
0.165861 0.797233 0.105929
0.187384 0.798730 0.107426
0.211422 0.800402 0.109098
0.237762 0.802234 0.110930
0.266191 0.804211 0.112907
0.296498 0.806319 0.115015
0.328468 0.808543 0.117238
0.361890 0.810867 0.119563
0.396550 0.813278 0.121974
0.432237 0.815760 0.124456
0.468737 0.818299 0.126994
0.505837 0.820879 0.129575
0.543325 0.823486 0.132182
0.580989 0.826106 0.134801
0.618615 0.828723 0.137418
0.655990 0.831322 0.140018
0.692903 0.833890 0.142585
0.729140 0.836410 0.145105
0.764489 0.838868 0.147564
0.798736 0.841250 0.149946
0.831670 0.843541 0.152237
0.863078 0.845725 0.154421
0.892746 0.847789 0.156484
0.920462 0.849716 0.158412
0.946014 0.851494 0.160189
0.961249 0.852553 0.161249
0.961249 0.852553 0.161249
0.106456 0.831883 0.106456
0.108423 0.832019 0.106593
0.114180 0.832420 0.106994
0.123517 0.833069 0.107643
0.136218 0.833953 0.108526
0.152073 0.835055 0.109629
0.170868 0.836363 0.110936
0.192391 0.837859 0.112433
0.216429 0.839531 0.114105
0.242769 0.841363 0.115937
0.271199 0.843341 0.117914
0.301505 0.845448 0.120022
0.333475 0.847672 0.122246
0.366897 0.849997 0.124570
0.401558 0.852407 0.126981
0.437244 0.854889 0.129463
0.473744 0.857428 0.132002
0.510844 0.860008 0.134582
0.548333 0.862616 0.137189
0.585996 0.865235 0.139809
0.623622 0.867852 0.142426
0.660998 0.870452 0.145025
0.697910 0.873019 0.147593
0.734147 0.875539 0.150113
0.769496 0.877998 0.152571
0.803744 0.880380 0.154953
0.836678 0.882670 0.157244
0.868085 0.884855 0.159428
0.897753 0.886918 0.161492
0.925470 0.888846 0.163420
0.951021 0.890623 0.165197
0.966256 0.891683 0.166256
0.966256 0.891683 0.166256
0.111097 0.868144 0.111097
0.113063 0.868280 0.111233
0.118821 0.868681 0.111634
0.128157 0.869330 0.112283
0.140859 0.870214 0.113167
0.156714 0.871316 0.114269
0.175509 0.872624 0.115577
0.197032 0.874121 0.117074
0.221069 0.875792 0.118745
0.247409 0.877624 0.120577
0.275839 0.879602 0.122555
0.306145 0.881710 0.124662
0.338116 0.883933 0.126886
0.371538 0.886258 0.129211
0.406198 0.888668 0.131621
0.441885 0.891150 0.134103
0.478384 0.893689 0.136642
0.515485 0.896269 0.139222
0.552973 0.898877 0.141830
0.590636 0.901496 0.144449
0.628262 0.904113 0.147066
0.665638 0.906713 0.149666
0.702551 0.909280 0.152233
0.738788 0.911800 0.154753
0.774136 0.914259 0.157212
0.808384 0.916641 0.159594
0.841318 0.918931 0.161884
0.872725 0.921116 0.164069
0.902394 0.923179 0.166132
0.930110 0.925107 0.168060
0.955662 0.926884 0.169837
0.970897 0.927944 0.170897
0.970897 0.927944 0.170897
0.115320 0.901144 0.115320
0.117286 0.901281 0.115457
0.123044 0.901682 0.115857
0.132380 0.902331 0.116506
0.145082 0.903214 0.117390
0.160937 0.904317 0.118492
0.179732 0.905624 0.119800
0.201255 0.907121 0.121297
0.225293 0.908793 0.122968
0.251633 0.910625 0.124800
0.280062 0.912602 0.126778
0.310368 0.914710 0.128886
0.342339 0.916934 0.131109
0.375761 0.919258 0.133434
0.410421 0.921669 0.135844
0.446108 0.924151 0.138326
0.482608 0.926690 0.140865
0.519708 0.929270 0.143445
0.557196 0.931877 0.146053
0.594860 0.934497 0.148672
0.632485 0.937114 0.151289
0.669861 0.939713 0.153889
0.706774 0.942281 0.156456
0.743011 0.944801 0.158976
0.778360 0.947259 0.161435
0.812607 0.949641 0.163817
0.845541 0.951932 0.166107
0.876948 0.954116 0.168292
0.906617 0.956180 0.170355
0.934333 0.958108 0.172283
0.959885 0.959885 0.174060
0.975120 0.960944 0.175120
0.975120 0.960944 0.175120
0.117400 0.917400 0.117400
0.119366 0.917537 0.117537
0.125124 0.917937 0.117937
0.134460 0.918587 0.118587
0.147162 0.919470 0.119470
0.163017 0.920573 0.120573
0.181812 0.921880 0.121880
0.203335 0.923377 0.123377
0.227373 0.925049 0.125049
0.253713 0.926881 0.126881
0.282142 0.928858 0.128858
0.312449 0.930966 0.130966
0.344419 0.933189 0.133189
0.377841 0.935514 0.135514
0.412501 0.937925 0.137925
0.448188 0.940407 0.140407
0.484688 0.942945 0.142945
0.521788 0.945526 0.145526
0.559276 0.948133 0.148133
0.596940 0.950753 0.150753
0.634566 0.953369 0.153369
0.671941 0.955969 0.155969
0.708854 0.958536 0.158536
0.745091 0.961057 0.161057
0.780440 0.963515 0.163515
0.814687 0.965897 0.165897
0.847621 0.968188 0.168188
