luts/cross_process.cube
TITLE "Cross Process"
LUT_3D_SIZE 9
DOMAIN_MIN 0.0 0.0 0.0
DOMAIN_MAX 1.0 1.0 1.0
0.000000 0.097210 0.050000
0.082812 0.093248 0.050000
0.181250 0.088539 0.050000
0.295312 0.083082 0.050000
0.425000 0.076878 0.050000
0.570312 0.069926 0.050000
0.731250 0.062227 0.050000
0.907813 0.053780 0.050000
1.000000 0.049370 0.050000
0.000000 0.140036 0.050000
0.082812 0.136074 0.050000
0.181250 0.131365 0.050000
0.295312 0.125908 0.050000
0.425000 0.119704 0.050000
0.570312 0.112752 0.050000
0.731250 0.105053 0.050000
0.907813 0.096606 0.050000
1.000000 0.092196 0.050000
0.000000 0.252942 0.050000
0.082812 0.248980 0.050000
0.181250 0.244271 0.050000
0.295312 0.238814 0.050000
0.425000 0.232610 0.050000
0.570312 0.225658 0.050000
0.731250 0.217959 0.050000
0.907813 0.209512 0.050000
1.000000 0.205102 0.050000
0.000000 0.412568 0.050000
0.082812 0.408606 0.050000
0.181250 0.403897 0.050000
0.295312 0.398440 0.050000
0.425000 0.392236 0.050000
0.570312 0.385284 0.050000
0.731250 0.377585 0.050000
0.907813 0.369138 0.050000
1.000000 0.368047 0.051659
0.000000 0.595554 0.050000
0.082812 0.591592 0.050000
0.181250 0.586883 0.050000
0.295312 0.581426 0.050000
0.425000 0.575222 0.050000
0.571610 0.570000 0.050865
0.738322 0.570000 0.054715
0.921220 0.570000 0.058938
1.000000 0.570000 0.061143
0.000000 0.778539 0.050000
0.082812 0.774578 0.050000
0.182814 0.771953 0.051042
0.300969 0.771953 0.053771
0.435309 0.771953 0.056873
0.585836 0.771953 0.060349
0.752548 0.771953 0.064198
0.935445 0.771953 0.068422
1.000000 0.771953 0.070627
0.007470 0.948125 0.054980
0.093254 0.948125 0.056961
0.195223 0.948125 0.059315
0.313378 0.948125 0.062044
0.447719 0.948125 0.065146
0.598245 0.948125 0.068622
0.764957 0.948125 0.072471
0.947855 0.948125 0.076695
1.000000 0.948125 0.078900
0.011124 1.000000 0.057416
0.096908 1.000000 0.059397
0.198877 1.000000 0.061752
0.317032 1.000000 0.064480
0.451373 1.000000 0.067582
0.601899 1.000000 0.071058
0.768611 1.000000 0.074908
0.951509 1.000000 0.079131
1.000000 1.000000 0.081336
0.011124 1.000000 0.057416
0.096908 1.000000 0.059397
0.198877 1.000000 0.061752
0.317032 1.000000 0.064480
0.451373 1.000000 0.067582
0.601899 1.000000 0.071058
0.768611 1.000000 0.074908
0.951509 1.000000 0.079131
1.000000 1.000000 0.081336
0.000000 0.095614 0.137500
0.082812 0.091652 0.137500
0.181250 0.086943 0.137500
0.295312 0.081486 0.137500
0.425000 0.075282 0.137500
0.570312 0.068330 0.137500
0.731250 0.060631 0.137500
0.907813 0.052184 0.137500
1.000000 0.047774 0.137500
0.000000 0.138440 0.137500
0.082812 0.134478 0.137500
0.181250 0.129769 0.137500
0.295312 0.124312 0.137500
0.425000 0.118108 0.137500
0.570312 0.111156 0.137500
0.731250 0.103457 0.137500
0.907813 0.095010 0.137500
1.000000 0.090600 0.137500
0.000000 0.251346 0.137500
0.082812 0.247384 0.137500
0.181250 0.242675 0.137500
0.295312 0.237218 0.137500
0.425000 0.231014 0.137500
0.570312 0.224062 0.137500
0.731250 0.216363 0.137500
0.907813 0.207916 0.137500
1.000000 0.203506 0.137500
0.000000 0.410972 0.137500
0.082812 0.407010 0.137500
0.181250 0.402301 0.137500
0.295312 0.396844 0.137500
0.425000 0.390640 0.137500
0.570312 0.383688 0.137500
0.731250 0.375989 0.137500
0.908191 0.368047 0.137752
1.000000 0.368047 0.139957
0.000000 0.593958 0.137500
0.082812 0.589996 0.137500
0.181250 0.585287 0.137500
0.295312 0.579830 0.137500
0.425000 0.573626 0.137500
0.572807 0.570000 0.139163
0.739519 0.570000 0.143013
0.922417 0.570000 0.147236
1.000000 0.570000 0.149441
0.000000 0.776943 0.137500
0.082812 0.772982 0.137500
0.184011 0.771953 0.139340
0.302166 0.771953 0.142069
0.436506 0.771953 0.145171
0.587033 0.771953 0.148647
0.753745 0.771953 0.152496
0.936642 0.771953 0.156720
1.000000 0.771953 0.158925
0.008667 0.948125 0.143278
0.094451 0.948125 0.145259
0.196420 0.948125 0.147613
0.314575 0.948125 0.150342
0.448916 0.948125 0.153444
0.599442 0.948125 0.156920
0.766154 0.948125 0.160769
0.949052 0.948125 0.164993
1.000000 0.948125 0.167198
0.012321 1.000000 0.145714
0.098105 1.000000 0.147695
0.200074 1.000000 0.150050
0.318229 1.000000 0.152778
0.452570 1.000000 0.155880
0.603096 1.000000 0.159356
0.769808 1.000000 0.163206
0.952706 1.000000 0.167429
1.000000 1.000000 0.169634
0.012321 1.000000 0.145714
0.098105 1.000000 0.147695
0.200074 1.000000 0.150050
0.318229 1.000000 0.152778
0.452570 1.000000 0.155880
0.603096 1.000000 0.159356
0.769808 1.000000 0.163206
0.952706 1.000000 0.167429
1.000000 1.000000 0.169634
0.000000 0.094018 0.225000
0.082812 0.090056 0.225000
0.181250 0.085347 0.225000
0.295312 0.079890 0.225000
0.425000 0.073686 0.225000
0.570312 0.066734 0.225000
0.731250 0.059035 0.225000
0.907813 0.050588 0.225000
1.000000 0.046178 0.225000
0.000000 0.136844 0.225000
0.082812 0.132882 0.225000
0.181250 0.128173 0.225000
0.295312 0.122716 0.225000
0.425000 0.116512 0.225000
0.570312 0.109560 0.225000
0.731250 0.101861 0.225000
0.907813 0.093414 0.225000
1.000000 0.089004 0.225000
0.000000 0.249750 0.225000
0.082812 0.245788 0.225000
0.181250 0.241079 0.225000
0.295312 0.235622 0.225000
0.425000 0.229418 0.225000
0.570312 0.222466 0.225000
0.731250 0.214767 0.225000
0.907813 0.206320 0.225000
1.000000 0.201910 0.225000
0.000000 0.409376 0.225000
0.082812 0.405414 0.225000
0.181250 0.400705 0.225000
0.295312 0.395248 0.225000
0.425000 0.389044 0.225000
0.570312 0.382092 0.225000
0.731250 0.374393 0.225000
0.909388 0.368047 0.226050
1.000000 0.368047 0.228255
0.000000 0.592362 0.225000
0.082812 0.588400 0.225000
0.181250 0.583691 0.225000
0.295312 0.578234 0.225000
0.425000 0.572030 0.225000
0.574004 0.570000 0.227461
0.740716 0.570000 0.231311
0.923614 0.570000 0.235534
1.000000 0.570000 0.237739
0.000000 0.775347 0.225000
0.083238 0.771953 0.225284
0.185208 0.771953 0.227638
0.303363 0.771953 0.230367
0.437703 0.771953 0.233469
0.588230 0.771953 0.236945
0.754942 0.771953 0.240794
0.937839 0.771953 0.245018
1.000000 0.771953 0.247223
0.009864 0.948125 0.231576
0.095648 0.948125 0.233557
0.197617 0.948125 0.235911
0.315772 0.948125 0.238640
0.450113 0.948125 0.241742
0.600639 0.948125 0.245218
0.767351 0.948125 0.249067
0.950249 0.948125 0.253291
1.000000 0.948125 0.255496
0.013518 1.000000 0.234012
0.099302 1.000000 0.235993
0.201271 1.000000 0.238347
0.319426 1.000000 0.241076
0.453767 1.000000 0.244178
0.604293 1.000000 0.247654
0.771005 1.000000 0.251503
0.953903 1.000000 0.255727
1.000000 1.000000 0.257932
0.013518 1.000000 0.234012
0.099302 1.000000 0.235993
0.201271 1.000000 0.238347
0.319426 1.000000 0.241076
0.453767 1.000000 0.244178
0.604293 1.000000 0.247654
0.771005 1.000000 0.251503
0.953903 1.000000 0.255727
1.000000 1.000000 0.257932
0.000000 0.092422 0.312500
0.082812 0.088460 0.312500
0.181250 0.083751 0.312500
0.295312 0.078294 0.312500
0.425000 0.072090 0.312500
0.570312 0.065138 0.312500
0.731250 0.057439 0.312500
0.907813 0.048992 0.312500
1.000000 0.044582 0.312500
0.000000 0.135248 0.312500
0.082812 0.131286 0.312500
0.181250 0.126577 0.312500
0.295312 0.121120 0.312500
0.425000 0.114916 0.312500
0.570312 0.107964 0.312500
0.731250 0.100265 0.312500
0.907813 0.091818 0.312500
1.000000 0.087408 0.312500
0.000000 0.248154 0.312500
0.082812 0.244192 0.312500
0.181250 0.239483 0.312500
0.295312 0.234026 0.312500
0.425000 0.227822 0.312500
0.570312 0.220870 0.312500
0.731250 0.213171 0.312500
0.907813 0.204724 0.312500
1.000000 0.200314 0.312500
0.000000 0.407780 0.312500
0.082812 0.403818 0.312500
0.181250 0.399109 0.312500
0.295312 0.393652 0.312500
0.425000 0.387448 0.312500
0.570312 0.380496 0.312500
0.731250 0.372797 0.312500
0.910585 0.368047 0.314348
1.000000 0.368047 0.316553
0.000000 0.590766 0.312500
0.082812 0.586804 0.312500
0.181250 0.582095 0.312500
0.295312 0.576638 0.312500
0.425000 0.570434 0.312500
0.575201 0.570000 0.315759
0.741913 0.570000 0.319609
0.924811 0.570000 0.323832
1.000000 0.570000 0.326037
0.000000 0.773751 0.312500
0.084435 0.771953 0.313582
0.186405 0.771953 0.315936
0.304560 0.771953 0.318665
0.438900 0.771953 0.321767
0.589427 0.771953 0.325243
0.756139 0.771953 0.329092
0.939036 0.771953 0.333316
1.000000 0.771953 0.335521
0.011061 0.948125 0.319874
0.096845 0.948125 0.321855
0.198814 0.948125 0.324209
0.316969 0.948125 0.326938
0.451310 0.948125 0.330040
0.601836 0.948125 0.333516
0.768548 0.948125 0.337365
0.951446 0.948125 0.341589
1.000000 0.948125 0.343794
0.014715 1.000000 0.322310
0.100499 1.000000 0.324291
0.202468 1.000000 0.326645
0.320623 1.000000 0.329374
0.454964 1.000000 0.332476
0.605490 1.000000 0.335952
0.772202 1.000000 0.339801
0.955100 1.000000 0.344025
1.000000 1.000000 0.346230
0.014715 1.000000 0.322310
0.100499 1.000000 0.324291
0.202468 1.000000 0.326645
0.320623 1.000000 0.329374
0.454964 1.000000 0.332476
0.605490 1.000000 0.335952
0.772202 1.000000 0.339801
0.955100 1.000000 0.344025
1.000000 1.000000 0.346230
0.000000 0.090826 0.400000
0.082812 0.086864 0.400000
0.181250 0.082155 0.400000
0.295312 0.076698 0.400000
0.425000 0.070494 0.400000
0.570312 0.063542 0.400000
0.731250 0.055843 0.400000
0.907813 0.047396 0.400000
1.000000 0.042986 0.400000
0.000000 0.133652 0.400000
0.082812 0.129690 0.400000
0.181250 0.124981 0.400000
0.295312 0.119524 0.400000
0.425000 0.113320 0.400000
0.570312 0.106368 0.400000
0.731250 0.098669 0.400000
0.907813 0.090222 0.400000
1.000000 0.085812 0.400000
0.000000 0.246558 0.400000
0.082812 0.242596 0.400000
0.181250 0.237887 0.400000
0.295312 0.232430 0.400000
0.425000 0.226226 0.400000
0.570312 0.219274 0.400000
0.731250 0.211575 0.400000
0.907813 0.203128 0.400000
1.000000 0.198718 0.400000
0.000000 0.406184 0.400000
0.082812 0.402222 0.400000
0.181250 0.397513 0.400000
0.295312 0.392056 0.400000
0.425000 0.385852 0.400000
0.570312 0.378900 0.400000
0.731250 0.371201 0.400000
0.911782 0.368047 0.402646
1.000000 0.368047 0.404851
0.000000 0.589170 0.400000
0.082812 0.585208 0.400000
0.181250 0.580499 0.400000
0.295312 0.575042 0.400000
0.425872 0.570000 0.400581
0.576398 0.570000 0.404057
0.743110 0.570000 0.407907
0.926008 0.570000 0.412130
1.000000 0.570000 0.414335
0.000000 0.772155 0.400000
0.085632 0.771953 0.401880
0.187602 0.771953 0.404234
0.305757 0.771953 0.406963
0.440097 0.771953 0.410065
0.590624 0.771953 0.413541
0.757336 0.771953 0.417390
0.940233 0.771953 0.421614
1.000000 0.771953 0.423819
0.012258 0.948125 0.408172
0.098042 0.948125 0.410153
0.200011 0.948125 0.412507
0.318166 0.948125 0.415236
0.452507 0.948125 0.418338
0.603033 0.948125 0.421814
0.769745 0.948125 0.425663
0.952643 0.948125 0.429887
1.000000 0.948125 0.432092
0.015912 1.000000 0.410608
0.101696 1.000000 0.412589
0.203665 1.000000 0.414943
0.321820 1.000000 0.417672
0.456161 1.000000 0.420774
0.606687 1.000000 0.424250
0.773399 1.000000 0.428099
0.956297 1.000000 0.432323
1.000000 1.000000 0.434528
0.015912 1.000000 0.410608
0.101696 1.000000 0.412589
0.203665 1.000000 0.414943
0.321820 1.000000 0.417672
0.456161 1.000000 0.420774
0.606687 1.000000 0.424250
0.773399 1.000000 0.428099
0.956297 1.000000 0.432323
1.000000 1.000000 0.434528
0.000000 0.089230 0.487500
0.082812 0.085268 0.487500
0.181250 0.080559 0.487500
0.295312 0.075102 0.487500
0.425000 0.068898 0.487500
0.570312 0.061946 0.487500
0.731250 0.054247 0.487500
0.907813 0.045800 0.487500
1.000000 0.041390 0.487500
0.000000 0.132056 0.487500
0.082812 0.128094 0.487500
0.181250 0.123385 0.487500
0.295312 0.117928 0.487500
0.425000 0.111724 0.487500
0.570312 0.104772 0.487500
0.731250 0.097073 0.487500
0.907813 0.088626 0.487500
1.000000 0.084216 0.487500
0.000000 0.244962 0.487500
0.082812 0.241000 0.487500
0.181250 0.236291 0.487500
0.295312 0.230834 0.487500
0.425000 0.224630 0.487500
0.570312 0.217678 0.487500
0.731250 0.209979 0.487500
0.907813 0.201532 0.487500
1.000000 0.197122 0.487500
0.000000 0.404588 0.487500
0.082812 0.400626 0.487500
0.181250 0.395917 0.487500
0.295312 0.390460 0.487500
0.425000 0.384256 0.487500
0.570312 0.377304 0.487500
0.731250 0.369605 0.487500
0.912979 0.368047 0.490944
1.000000 0.368047 0.493149
0.000000 0.587574 0.487500
0.082812 0.583612 0.487500
0.181250 0.578903 0.487500
0.295312 0.573446 0.487500
0.427069 0.570000 0.488879
0.577595 0.570000 0.492355
0.744307 0.570000 0.496205
0.927205 0.570000 0.500428
1.000000 0.570000 0.502633
0.001045 0.771953 0.488197
0.086829 0.771953 0.490178
0.188799 0.771953 0.492532
0.306954 0.771953 0.495261
0.441294 0.771953 0.498363
0.591821 0.771953 0.501839
0.758533 0.771953 0.505688
0.941430 0.771953 0.509912
1.000000 0.771953 0.512117
0.013455 0.948125 0.496470
0.099239 0.948125 0.498451
0.201208 0.948125 0.500805
0.319363 0.948125 0.503534
0.453704 0.948125 0.506636
0.604230 0.948125 0.510112
0.770942 0.948125 0.513961
0.953840 0.948125 0.518185
1.000000 0.948125 0.520390
0.017109 1.000000 0.498906
0.102893 1.000000 0.500887
0.204862 1.000000 0.503242
0.323017 1.000000 0.505970
0.457358 1.000000 0.509072
0.607884 1.000000 0.512548
0.774596 1.000000 0.516397
0.957494 1.000000 0.520621
1.000000 1.000000 0.522826
0.017109 1.000000 0.498906
0.102893 1.000000 0.500887
0.204862 1.000000 0.503242
0.323017 1.000000 0.505970
0.457358 1.000000 0.509072
0.607884 1.000000 0.512548
0.774596 1.000000 0.516397
0.957494 1.000000 0.520621
1.000000 1.000000 0.522826
0.000000 0.087634 0.575000
0.082812 0.083672 0.575000
0.181250 0.078963 0.575000
0.295312 0.073506 0.575000
0.425000 0.067302 0.575000
0.570312 0.060350 0.575000
0.731250 0.052651 0.575000
0.907813 0.044204 0.575000
1.000000 0.039794 0.575000
0.000000 0.130460 0.575000
0.082812 0.126498 0.575000
0.181250 0.121789 0.575000
0.295312 0.116332 0.575000
0.425000 0.110128 0.575000
0.570312 0.103176 0.575000
0.731250 0.095477 0.575000
0.907813 0.087030 0.575000
1.000000 0.082620 0.575000
0.000000 0.243366 0.575000
0.082812 0.239404 0.575000
0.181250 0.234695 0.575000
0.295312 0.229238 0.575000
0.425000 0.223034 0.575000
0.570312 0.216082 0.575000
0.731250 0.208383 0.575000
0.907813 0.199936 0.575000
1.000000 0.195526 0.575000
0.000000 0.402992 0.575000
0.082812 0.399030 0.575000
0.181250 0.394321 0.575000
0.295312 0.388864 0.575000
0.425000 0.382660 0.575000
0.570312 0.375708 0.575000
0.731278 0.368047 0.575019
0.914176 0.368047 0.579242
1.000000 0.368047 0.581447
0.000000 0.585978 0.575000
0.082812 0.582016 0.575000
0.181250 0.577307 0.575000
0.295312 0.571850 0.575000
0.428266 0.570000 0.577177
0.578792 0.570000 0.580653
0.745504 0.570000 0.584503
0.928402 0.570000 0.588726
1.000000 0.570000 0.590931
0.002242 0.771953 0.576495
0.088026 0.771953 0.578476
0.189996 0.771953 0.580830
0.308151 0.771953 0.583559
0.442491 0.771953 0.586661
0.593018 0.771953 0.590137
0.759730 0.771953 0.593986
0.942627 0.771953 0.598210
1.000000 0.771953 0.600415
0.014652 0.948125 0.584768
0.100436 0.948125 0.586749
0.202405 0.948125 0.589103
0.320560 0.948125 0.591832
0.454901 0.948125 0.594934
0.605427 0.948125 0.598410
0.772139 0.948125 0.602259
0.955037 0.948125 0.606483
1.000000 0.948125 0.608688
0.018306 1.000000 0.587204
0.104090 1.000000 0.589185
0.206059 1.000000 0.591539
0.324214 1.000000 0.594268
0.458555 1.000000 0.597370
0.609081 1.000000 0.600846
0.775793 1.000000 0.604695
0.958691 1.000000 0.608919
1.000000 1.000000 0.611124
0.018306 1.000000 0.587204
0.104090 1.000000 0.589185
0.206059 1.000000 0.591539
0.324214 1.000000 0.594268
0.458555 1.000000 0.597370
0.609081 1.000000 0.600846
0.775793 1.000000 0.604695
0.958691 1.000000 0.608919
1.000000 1.000000 0.611124
0.000000 0.086038 0.662500
0.082812 0.082076 0.662500
0.181250 0.077367 0.662500
0.295312 0.071910 0.662500
0.425000 0.065706 0.662500
0.570312 0.058754 0.662500
0.731250 0.051055 0.662500
0.907813 0.042608 0.662500
1.000000 0.038198 0.662500
0.000000 0.128864 0.662500
0.082812 0.124902 0.662500
0.181250 0.120193 0.662500
0.295312 0.114736 0.662500
0.425000 0.108532 0.662500
0.570312 0.101580 0.662500
0.731250 0.093881 0.662500
0.907813 0.085434 0.662500
1.000000 0.081024 0.662500
0.000000 0.241770 0.662500
0.082812 0.237808 0.662500
0.181250 0.233099 0.662500
0.295312 0.227642 0.662500
0.425000 0.221438 0.662500
0.570312 0.214486 0.662500
0.731250 0.206787 0.662500
0.907813 0.198340 0.662500
1.000000 0.193930 0.662500
0.000000 0.401396 0.662500
0.082812 0.397434 0.662500
0.181250 0.392725 0.662500
0.295312 0.387268 0.662500
0.425000 0.381064 0.662500
0.570312 0.374112 0.662500
0.732475 0.368047 0.663317
0.915373 0.368047 0.667540
1.000000 0.368047 0.669745
0.000000 0.584382 0.662500
0.082812 0.580420 0.662500
0.181250 0.575711 0.662500
0.295312 0.570254 0.662500
0.429463 0.570000 0.665475
0.579989 0.570000 0.668951
0.746701 0.570000 0.672801
0.929599 0.570000 0.677024
1.000000 0.570000 0.679229
0.003439 0.771953 0.664793
0.089223 0.771953 0.666774
0.191193 0.771953 0.669128
0.309348 0.771953 0.671857
0.443688 0.771953 0.674959
0.594215 0.771953 0.678435
0.760927 0.771953 0.682284
0.943824 0.771953 0.686508
1.000000 0.771953 0.688713
0.015849 0.948125 0.673066
0.101633 0.948125 0.675047
0.203602 0.948125 0.677401
0.321757 0.948125 0.680130
0.456098 0.948125 0.683232
0.606624 0.948125 0.686708
0.773336 0.948125 0.690557
0.956234 0.948125 0.694781
1.000000 0.948125 0.696986
0.019503 1.000000 0.675502
0.105287 1.000000 0.677483
0.207256 1.000000 0.679837
0.325411 1.000000 0.682566
0.459752 1.000000 0.685668
0.610278 1.000000 0.689144
0.776990 1.000000 0.692993
0.959888 1.000000 0.697217
1.000000 1.000000 0.699422
0.019503 1.000000 0.675502
0.105287 1.000000 0.677483
0.207256 1.000000 0.679837
0.325411 1.000000 0.682566
0.459752 1.000000 0.685668
0.610278 1.000000 0.689144
0.776990 1.000000 0.692993
0.959888 1.000000 0.697217
1.000000 1.000000 0.699422
0.000000 0.084442 0.750000
0.082812 0.080480 0.750000
0.181250 0.075771 0.750000
0.295312 0.070314 0.750000
0.425000 0.064110 0.750000
0.570312 0.057158 0.750000
0.731250 0.049459 0.750000
0.907813 0.041012 0.750000
1.000000 0.036602 0.750000
0.000000 0.127268 0.750000
0.082812 0.123306 0.750000
0.181250 0.118597 0.750000
0.295312 0.113140 0.750000
0.425000 0.106936 0.750000
0.570312 0.099984 0.750000
0.731250 0.092285 0.750000
0.907813 0.083838 0.750000
1.000000 0.079428 0.750000
0.000000 0.240174 0.750000
0.082812 0.236212 0.750000
0.181250 0.231503 0.750000
0.295312 0.226046 0.750000
0.425000 0.219842 0.750000
0.570312 0.212890 0.750000
0.731250 0.205191 0.750000
0.907813 0.196744 0.750000
1.000000 0.192334 0.750000
0.000000 0.399800 0.750000
0.082812 0.395838 0.750000
0.181250 0.391129 0.750000
0.295312 0.385672 0.750000
0.425000 0.379468 0.750000
0.570312 0.372516 0.750000
0.733672 0.368047 0.751615
0.916570 0.368047 0.755838
1.000000 0.368047 0.758043
0.000000 0.582786 0.750000
0.082812 0.578824 0.750000
0.181250 0.574115 0.750000
0.296319 0.570000 0.750671
0.430660 0.570000 0.753773
0.581186 0.570000 0.757249
0.747898 0.570000 0.761099
0.930796 0.570000 0.765322
1.000000 0.570000 0.767527
0.004636 0.771953 0.753091
0.090420 0.771953 0.755072
0.192390 0.771953 0.757426
0.310545 0.771953 0.760155
0.444885 0.771953 0.763257
0.595412 0.771953 0.766733
0.762124 0.771953 0.770582
0.945021 0.771953 0.774806
1.000000 0.771953 0.777011
0.017046 0.948125 0.761364
0.102830 0.948125 0.763345
0.204799 0.948125 0.765699
0.322954 0.948125 0.768428
0.457295 0.948125 0.771530
0.607821 0.948125 0.775006
0.774533 0.948125 0.778855
0.957431 0.948125 0.783079
1.000000 0.948125 0.785284
0.020700 1.000000 0.763800
0.106484 1.000000 0.765781
0.208453 1.000000 0.768135
0.326608 1.000000 0.770864
0.460949 1.000000 0.773966
0.611475 1.000000 0.777442
0.778187 1.000000 0.781292
0.961085 1.000000 0.785515
1.000000 1.000000 0.787720
0.020700 1.000000 0.763800
0.106484 1.000000 0.765781
0.208453 1.000000 0.768135
0.326608 1.000000 0.770864
0.460949 1.000000 0.773966
0.611475 1.000000 0.777442
0.778187 1.000000 0.781292
0.961085 1.000000 0.785515
1.000000 1.000000 0.787720
