luts/cross_process.cube
TITLE "Cross Process"
LUT_3D_SIZE 33
DOMAIN_MIN 0.0 0.0 0.0
DOMAIN_MAX 1.0 1.0 1.0
0.000000 0.097210 0.050000
0.019238 0.096289 0.050000
0.039453 0.095322 0.050000
0.060645 0.094308 0.050000
0.082812 0.093248 0.050000
0.105957 0.092141 0.050000
0.130078 0.090987 0.050000
0.155176 0.089786 0.050000
0.181250 0.088539 0.050000
0.208301 0.087244 0.050000
0.236328 0.085904 0.050000
0.265332 0.084516 0.050000
0.295312 0.083082 0.050000
0.326270 0.081601 0.050000
0.358203 0.080073 0.050000
0.391113 0.078499 0.050000
0.425000 0.076878 0.050000
0.459863 0.075210 0.050000
0.495703 0.073495 0.050000
0.532520 0.071734 0.050000
0.570312 0.069926 0.050000
0.609082 0.068071 0.050000
0.648828 0.066170 0.050000
0.689551 0.064221 0.050000
0.731250 0.062227 0.050000
0.773926 0.060185 0.050000
0.817578 0.058097 0.050000
0.862207 0.055962 0.050000
0.907813 0.053780 0.050000
0.954395 0.051551 0.050000
1.000000 0.049370 0.050000
1.000000 0.049370 0.050000
1.000000 0.049370 0.050000
0.000000 0.100069 0.050000
0.019238 0.099148 0.050000
0.039453 0.098181 0.050000
0.060645 0.097168 0.050000
0.082812 0.096107 0.050000
0.105957 0.095000 0.050000
0.130078 0.093846 0.050000
0.155176 0.092645 0.050000
0.181250 0.091398 0.050000
0.208301 0.090104 0.050000
0.236328 0.088763 0.050000
0.265332 0.087375 0.050000
0.295312 0.085941 0.050000
0.326270 0.084460 0.050000
0.358203 0.082932 0.050000
0.391113 0.081358 0.050000
0.425000 0.079737 0.050000
0.459863 0.078069 0.050000
0.495703 0.076354 0.050000
0.532520 0.074593 0.050000
0.570312 0.072785 0.050000
0.609082 0.070930 0.050000
0.648828 0.069029 0.050000
0.689551 0.067081 0.050000
0.731250 0.065086 0.050000
0.773926 0.063044 0.050000
0.817578 0.060956 0.050000
0.862207 0.058821 0.050000
0.907813 0.056639 0.050000
0.954395 0.054411 0.050000
1.000000 0.052229 0.050000
1.000000 0.052229 0.050000
1.000000 0.052229 0.050000
0.000000 0.108403 0.050000
0.019238 0.107483 0.050000
0.039453 0.106515 0.050000
0.060645 0.105502 0.050000
0.082812 0.104441 0.050000
0.105957 0.103334 0.050000
0.130078 0.102180 0.050000
0.155176 0.100979 0.050000
0.181250 0.099732 0.050000
0.208301 0.098438 0.050000
0.236328 0.097097 0.050000
0.265332 0.095709 0.050000
0.295312 0.094275 0.050000
0.326270 0.092794 0.050000
0.358203 0.091266 0.050000
0.391113 0.089692 0.050000
0.425000 0.088071 0.050000
0.459863 0.086403 0.050000
0.495703 0.084688 0.050000
0.532520 0.082927 0.050000
0.570312 0.081119 0.050000
0.609082 0.079264 0.050000
0.648828 0.077363 0.050000
0.689551 0.075415 0.050000
0.731250 0.073420 0.050000
0.773926 0.071378 0.050000
0.817578 0.069290 0.050000
0.862207 0.067155 0.050000
0.907813 0.064973 0.050000
0.954395 0.062745 0.050000
1.000000 0.060563 0.050000
1.000000 0.060563 0.050000
1.000000 0.060563 0.050000
0.000000 0.121847 0.050000
0.019238 0.120927 0.050000
0.039453 0.119960 0.050000
0.060645 0.118946 0.050000
0.082812 0.117885 0.050000
0.105957 0.116778 0.050000
0.130078 0.115624 0.050000
0.155176 0.114423 0.050000
0.181250 0.113176 0.050000
0.208301 0.111882 0.050000
0.236328 0.110541 0.050000
0.265332 0.109153 0.050000
0.295312 0.107719 0.050000
0.326270 0.106238 0.050000
0.358203 0.104711 0.050000
0.391113 0.103136 0.050000
0.425000 0.101515 0.050000
0.459863 0.099847 0.050000
0.495703 0.098133 0.050000
0.532520 0.096371 0.050000
0.570312 0.094563 0.050000
0.609082 0.092708 0.050000
0.648828 0.090807 0.050000
0.689551 0.088859 0.050000
0.731250 0.086864 0.050000
0.773926 0.084822 0.050000
0.817578 0.082734 0.050000
0.862207 0.080599 0.050000
0.907813 0.078417 0.050000
0.954395 0.076189 0.050000
1.000000 0.074007 0.050000
1.000000 0.074007 0.050000
1.000000 0.074007 0.050000
0.000000 0.140036 0.050000
0.019238 0.139116 0.050000
0.039453 0.138149 0.050000
0.060645 0.137135 0.050000
0.082812 0.136074 0.050000
0.105957 0.134967 0.050000
0.130078 0.133813 0.050000
0.155176 0.132612 0.050000
0.181250 0.131365 0.050000
0.208301 0.130071 0.050000
0.236328 0.128730 0.050000
0.265332 0.127343 0.050000
0.295312 0.125908 0.050000
0.326270 0.124427 0.050000
0.358203 0.122900 0.050000
0.391113 0.121325 0.050000
0.425000 0.119704 0.050000
0.459863 0.118036 0.050000
0.495703 0.116322 0.050000
0.532520 0.114560 0.050000
0.570312 0.112752 0.050000
0.609082 0.110898 0.050000
0.648828 0.108996 0.050000
0.689551 0.107048 0.050000
0.731250 0.105053 0.050000
0.773926 0.103011 0.050000
0.817578 0.100923 0.050000
0.862207 0.098788 0.050000
0.907813 0.096606 0.050000
0.954395 0.094378 0.050000
1.000000 0.092196 0.050000
1.000000 0.092196 0.050000
1.000000 0.092196 0.050000
0.000000 0.162605 0.050000
0.019238 0.161685 0.050000
0.039453 0.160718 0.050000
0.060645 0.159704 0.050000
0.082812 0.158643 0.050000
0.105957 0.157536 0.050000
0.130078 0.156382 0.050000
0.155176 0.155181 0.050000
0.181250 0.153934 0.050000
0.208301 0.152640 0.050000
0.236328 0.151299 0.050000
0.265332 0.149912 0.050000
0.295312 0.148477 0.050000
0.326270 0.146996 0.050000
0.358203 0.145469 0.050000
0.391113 0.143894 0.050000
0.425000 0.142273 0.050000
0.459863 0.140605 0.050000
0.495703 0.138891 0.050000
0.532520 0.137129 0.050000
0.570312 0.135321 0.050000
0.609082 0.133467 0.050000
0.648828 0.131565 0.050000
0.689551 0.129617 0.050000
0.731250 0.127622 0.050000
0.773926 0.125580 0.050000
0.817578 0.123492 0.050000
0.862207 0.121357 0.050000
0.907813 0.119175 0.050000
0.954395 0.116947 0.050000
1.000000 0.114765 0.050000
1.000000 0.114765 0.050000
1.000000 0.114765 0.050000
0.000000 0.189189 0.050000
0.019238 0.188269 0.050000
0.039453 0.187302 0.050000
0.060645 0.186288 0.050000
0.082812 0.185227 0.050000
0.105957 0.184120 0.050000
0.130078 0.182966 0.050000
0.155176 0.181765 0.050000
0.181250 0.180518 0.050000
0.208301 0.179224 0.050000
0.236328 0.177883 0.050000
0.265332 0.176496 0.050000
0.295312 0.175061 0.050000
0.326270 0.173580 0.050000
0.358203 0.172053 0.050000
0.391113 0.170478 0.050000
0.425000 0.168857 0.050000
0.459863 0.167189 0.050000
0.495703 0.165475 0.050000
0.532520 0.163713 0.050000
0.570312 0.161905 0.050000
0.609082 0.160051 0.050000
0.648828 0.158149 0.050000
0.689551 0.156201 0.050000
0.731250 0.154206 0.050000
0.773926 0.152164 0.050000
0.817578 0.150076 0.050000
0.862207 0.147941 0.050000
0.907813 0.145759 0.050000
0.954395 0.143531 0.050000
1.000000 0.141349 0.050000
1.000000 0.141349 0.050000
1.000000 0.141349 0.050000
0.000000 0.219423 0.050000
0.019238 0.218503 0.050000
0.039453 0.217536 0.050000
0.060645 0.216522 0.050000
0.082812 0.215461 0.050000
0.105957 0.214354 0.050000
0.130078 0.213200 0.050000
0.155176 0.212000 0.050000
0.181250 0.210752 0.050000
0.208301 0.209458 0.050000
0.236328 0.208117 0.050000
0.265332 0.206730 0.050000
0.295312 0.205295 0.050000
0.326270 0.203814 0.050000
0.358203 0.202287 0.050000
0.391113 0.200712 0.050000
0.425000 0.199091 0.050000
0.459863 0.197423 0.050000
0.495703 0.195709 0.050000
0.532520 0.193947 0.050000
0.570312 0.192139 0.050000
0.609082 0.190285 0.050000
0.648828 0.188383 0.050000
0.689551 0.186435 0.050000
0.731250 0.184440 0.050000
0.773926 0.182399 0.050000
0.817578 0.180310 0.050000
0.862207 0.178175 0.050000
0.907813 0.175993 0.050000
0.954395 0.173765 0.050000
1.000000 0.171583 0.050000
1.000000 0.171583 0.050000
1.000000 0.171583 0.050000
0.000000 0.252942 0.050000
0.019238 0.252022 0.050000
0.039453 0.251055 0.050000
0.060645 0.250041 0.050000
0.082812 0.248980 0.050000
0.105957 0.247873 0.050000
0.130078 0.246719 0.050000
0.155176 0.245518 0.050000
0.181250 0.244271 0.050000
0.208301 0.242977 0.050000
0.236328 0.241636 0.050000
0.265332 0.240249 0.050000
0.295312 0.238814 0.050000
0.326270 0.237333 0.050000
0.358203 0.235806 0.050000
0.391113 0.234231 0.050000
0.425000 0.232610 0.050000
0.459863 0.230942 0.050000
0.495703 0.229228 0.050000
0.532520 0.227466 0.050000
0.570312 0.225658 0.050000
0.609082 0.223804 0.050000
0.648828 0.221902 0.050000
0.689551 0.219954 0.050000
0.731250 0.217959 0.050000
0.773926 0.215917 0.050000
0.817578 0.213829 0.050000
0.862207 0.211694 0.050000
0.907813 0.209512 0.050000
0.954395 0.207284 0.050000
1.000000 0.205102 0.050000
1.000000 0.205102 0.050000
1.000000 0.205102 0.050000
0.000000 0.289381 0.050000
0.019238 0.288461 0.050000
0.039453 0.287494 0.050000
0.060645 0.286480 0.050000
0.082812 0.285419 0.050000
0.105957 0.284312 0.050000
0.130078 0.283158 0.050000
0.155176 0.281957 0.050000
0.181250 0.280710 0.050000
0.208301 0.279416 0.050000
0.236328 0.278075 0.050000
0.265332 0.276688 0.050000
0.295312 0.275253 0.050000
0.326270 0.273772 0.050000
0.358203 0.272245 0.050000
0.391113 0.270670 0.050000
0.425000 0.269049 0.050000
0.459863 0.267381 0.050000
0.495703 0.265667 0.050000
0.532520 0.263905 0.050000
0.570312 0.262097 0.050000
0.609082 0.260243 0.050000
0.648828 0.258341 0.050000
0.689551 0.256393 0.050000
0.731250 0.254398 0.050000
0.773926 0.252356 0.050000
0.817578 0.250268 0.050000
0.862207 0.248133 0.050000
0.907813 0.245951 0.050000
0.954395 0.243723 0.050000
1.000000 0.241541 0.050000
1.000000 0.241541 0.050000
1.000000 0.241541 0.050000
0.000000 0.328375 0.050000
0.019238 0.327455 0.050000
0.039453 0.326488 0.050000
0.060645 0.325474 0.050000
0.082812 0.324413 0.050000
0.105957 0.323306 0.050000
0.130078 0.322152 0.050000
0.155176 0.320951 0.050000
0.181250 0.319704 0.050000
0.208301 0.318410 0.050000
0.236328 0.317069 0.050000
0.265332 0.315682 0.050000
0.295312 0.314247 0.050000
0.326270 0.312766 0.050000
0.358203 0.311239 0.050000
0.391113 0.309664 0.050000
0.425000 0.308043 0.050000
0.459863 0.306375 0.050000
0.495703 0.304661 0.050000
0.532520 0.302899 0.050000
0.570312 0.301091 0.050000
0.609082 0.299237 0.050000
0.648828 0.297335 0.050000
0.689551 0.295387 0.050000
0.731250 0.293392 0.050000
0.773926 0.291350 0.050000
0.817578 0.289262 0.050000
0.862207 0.287127 0.050000
0.907813 0.284945 0.050000
0.954395 0.282717 0.050000
1.000000 0.280535 0.050000
1.000000 0.280535 0.050000
1.000000 0.280535 0.050000
0.000000 0.369559 0.050000
0.019238 0.368639 0.050000
0.039453 0.367672 0.050000
0.060645 0.366658 0.050000
0.082812 0.365597 0.050000
0.105957 0.364490 0.050000
0.130078 0.363336 0.050000
0.155176 0.362135 0.050000
0.181250 0.360888 0.050000
0.208301 0.359594 0.050000
0.236328 0.358253 0.050000
0.265332 0.356865 0.050000
0.295312 0.355431 0.050000
0.326270 0.353950 0.050000
0.358203 0.352423 0.050000
0.391113 0.350848 0.050000
0.425000 0.349227 0.050000
0.459863 0.347559 0.050000
0.495703 0.345845 0.050000
0.532520 0.344083 0.050000
0.570312 0.342275 0.050000
0.609082 0.340420 0.050000
0.648828 0.338519 0.050000
0.689551 0.336571 0.050000
0.731250 0.334576 0.050000
0.773926 0.332534 0.050000
0.817578 0.330446 0.050000
0.862207 0.328311 0.050000
0.907813 0.326129 0.050000
0.954395 0.323901 0.050000
1.000000 0.321719 0.050000
1.000000 0.321719 0.050000
1.000000 0.321719 0.050000
0.000000 0.412568 0.050000
0.019238 0.411648 0.050000
0.039453 0.410680 0.050000
0.060645 0.409667 0.050000
0.082812 0.408606 0.050000
0.105957 0.407499 0.050000
0.130078 0.406345 0.050000
0.155176 0.405144 0.050000
0.181250 0.403897 0.050000
0.208301 0.402603 0.050000
0.236328 0.401262 0.050000
0.265332 0.399874 0.050000
0.295312 0.398440 0.050000
0.326270 0.396959 0.050000
0.358203 0.395431 0.050000
0.391113 0.393857 0.050000
0.425000 0.392236 0.050000
0.459863 0.390568 0.050000
0.495703 0.388853 0.050000
0.532520 0.387092 0.050000
0.570312 0.385284 0.050000
0.609082 0.383429 0.050000
0.648828 0.381528 0.050000
0.689551 0.379580 0.050000
0.731250 0.377585 0.050000
0.773926 0.375543 0.050000
0.817578 0.373455 0.050000
0.862207 0.371320 0.050000
0.907813 0.369138 0.050000
0.955247 0.368047 0.050569
1.000000 0.368047 0.051659
1.000000 0.368047 0.051659
1.000000 0.368047 0.051659
0.000000 0.457037 0.050000
0.019238 0.456116 0.050000
0.039453 0.455149 0.050000
0.060645 0.454136 0.050000
0.082812 0.453075 0.050000
0.105957 0.451968 0.050000
0.130078 0.450814 0.050000
0.155176 0.449613 0.050000
0.181250 0.448366 0.050000
0.208301 0.447072 0.050000
0.236328 0.445731 0.050000
0.265332 0.444343 0.050000
0.295312 0.442909 0.050000
0.326270 0.441428 0.050000
0.358203 0.439900 0.050000
0.391113 0.438326 0.050000
0.425000 0.436705 0.050000
0.459863 0.435037 0.050000
0.495703 0.433322 0.050000
0.532520 0.431561 0.050000
0.570312 0.429753 0.050000
0.609082 0.427898 0.050000
0.648828 0.425997 0.050000
0.689551 0.424049 0.050000
0.731250 0.422054 0.050000
0.773926 0.420012 0.050000
0.817578 0.417924 0.050000
0.863209 0.417125 0.050668
0.910451 0.417125 0.051759
0.958705 0.417125 0.052873
1.000000 0.417125 0.053964
1.000000 0.417125 0.053964
1.000000 0.417125 0.053964
0.000000 0.502601 0.050000
0.019238 0.501680 0.050000
0.039453 0.500713 0.050000
0.060645 0.499700 0.050000
0.082812 0.498639 0.050000
0.105957 0.497532 0.050000
0.130078 0.496378 0.050000
0.155176 0.495177 0.050000
0.181250 0.493930 0.050000
0.208301 0.492636 0.050000
0.236328 0.491295 0.050000
0.265332 0.489907 0.050000
0.295312 0.488473 0.050000
0.326270 0.486992 0.050000
0.358203 0.485464 0.050000
0.391113 0.483890 0.050000
0.425000 0.482269 0.050000
0.459863 0.480601 0.050000
0.495703 0.478886 0.050000
0.532520 0.477125 0.050000
0.570312 0.475317 0.050000
0.609082 0.473462 0.050000
0.648828 0.471561 0.050000
0.689551 0.469613 0.050000
0.731250 0.467618 0.050000
0.775303 0.467412 0.050918
0.820521 0.467412 0.051962
0.866752 0.467412 0.053030
0.913993 0.467412 0.054121
0.962247 0.467412 0.055235
1.000000 0.467412 0.056326
1.000000 0.467412 0.056326
1.000000 0.467412 0.056326
0.000000 0.548895 0.050000
0.019238 0.547974 0.050000
0.039453 0.547007 0.050000
0.060645 0.545993 0.050000
0.082812 0.544933 0.050000
0.105957 0.543826 0.050000
0.130078 0.542672 0.050000
0.155176 0.541471 0.050000
0.181250 0.540224 0.050000
0.208301 0.538930 0.050000
0.236328 0.537589 0.050000
0.265332 0.536201 0.050000
0.295312 0.534767 0.050000
0.326270 0.533286 0.050000
0.358203 0.531758 0.050000
0.391113 0.530184 0.050000
0.425000 0.528563 0.050000
0.459863 0.526895 0.050000
0.495703 0.525180 0.050000
0.532520 0.523419 0.050000
0.570312 0.521611 0.050000
0.609082 0.519756 0.050000
0.649316 0.518505 0.050325
0.691499 0.518505 0.051299
0.734695 0.518505 0.052296
0.778902 0.518505 0.053317
0.824120 0.518505 0.054361
0.870350 0.518505 0.055429
0.917592 0.518505 0.056520
0.965846 0.518505 0.057634
1.000000 0.518505 0.058725
1.000000 0.518505 0.058725
1.000000 0.518505 0.058725
0.000000 0.595554 0.050000
0.019238 0.594633 0.050000
0.039453 0.593666 0.050000
0.060645 0.592652 0.050000
0.082812 0.591592 0.050000
0.105957 0.590485 0.050000
0.130078 0.589331 0.050000
0.155176 0.588130 0.050000
0.181250 0.586883 0.050000
0.208301 0.585588 0.050000
0.236328 0.584248 0.050000
0.265332 0.582860 0.050000
0.295312 0.581426 0.050000
0.326270 0.579945 0.050000
0.358203 0.578417 0.050000
0.391113 0.576843 0.050000
0.425000 0.575222 0.050000
0.459863 0.573554 0.050000
0.495703 0.571839 0.050000
0.532520 0.570078 0.050000
0.571610 0.570000 0.050865
0.611771 0.570000 0.051792
0.652943 0.570000 0.052743
0.695127 0.570000 0.053717
0.738322 0.570000 0.054715
0.782529 0.570000 0.055736
0.827748 0.570000 0.056780
0.873978 0.570000 0.057847
0.921220 0.570000 0.058938
0.969473 0.570000 0.060052
1.000000 0.570000 0.061143
1.000000 0.570000 0.061143
1.000000 0.570000 0.061143
0.000000 0.642213 0.050000
0.019238 0.641292 0.050000
0.039453 0.640325 0.050000
0.060645 0.639311 0.050000
0.082812 0.638251 0.050000
0.105957 0.637144 0.050000
0.130078 0.635990 0.050000
0.155176 0.634789 0.050000
0.181250 0.633542 0.050000
0.208301 0.632247 0.050000
0.236328 0.630907 0.050000
0.265332 0.629519 0.050000
0.295312 0.628085 0.050000
0.326270 0.626604 0.050000
0.358203 0.625076 0.050000
0.391113 0.623502 0.050000
0.425000 0.621881 0.050000
0.460825 0.621495 0.050641
0.497951 0.621495 0.051499
0.536088 0.621495 0.052379
0.575237 0.621495 0.053283
0.615398 0.621495 0.054211
0.656570 0.621495 0.055161
0.698754 0.621495 0.056135
0.741949 0.621495 0.057133
0.786156 0.621495 0.058154
0.831375 0.621495 0.059198
0.877605 0.621495 0.060265
0.924847 0.621495 0.061356
0.973100 0.621495 0.062471
1.000000 0.621495 0.063561
1.000000 0.621495 0.063561
1.000000 0.621495 0.063561
0.000000 0.688506 0.050000
0.019238 0.687586 0.050000
0.039453 0.686619 0.050000
0.060645 0.685605 0.050000
0.082812 0.684545 0.050000
0.105957 0.683437 0.050000
0.130078 0.682283 0.050000
0.155176 0.681083 0.050000
0.181250 0.679835 0.050000
0.208301 0.678541 0.050000
0.236328 0.677200 0.050000
0.265332 0.675813 0.050000
0.295312 0.674379 0.050000
0.326270 0.672898 0.050000
0.359117 0.672588 0.050609
0.393208 0.672588 0.051396
0.428310 0.672588 0.052207
0.464424 0.672588 0.053041
0.501550 0.672588 0.053898
0.539687 0.672588 0.054779
0.578836 0.672588 0.055683
0.618997 0.672588 0.056610
0.660169 0.672588 0.057561
0.702353 0.672588 0.058535
0.745548 0.672588 0.059532
0.789755 0.672588 0.060553
0.834974 0.672588 0.061597
0.881204 0.672588 0.062665
0.928446 0.672588 0.063756
0.976699 0.672588 0.064870
1.000000 0.672588 0.065961
1.000000 0.672588 0.065961
1.000000 0.672588 0.065961
0.000000 0.734070 0.050000
0.019238 0.733150 0.050000
0.039453 0.732183 0.050000
0.060645 0.731169 0.050000
0.082812 0.730109 0.050000
0.105957 0.729001 0.050000
0.130078 0.727847 0.050000
0.155176 0.726647 0.050000
0.181250 0.725399 0.050000
0.208301 0.724105 0.050000
0.236411 0.722875 0.050055
0.266455 0.722875 0.050749
0.297512 0.722875 0.051466
0.329579 0.722875 0.052207
0.362659 0.722875 0.052970
0.396750 0.722875 0.053758
0.431852 0.722875 0.054568
0.467966 0.722875 0.055402
0.505092 0.722875 0.056259
0.543230 0.722875 0.057140
0.582379 0.722875 0.058044
0.622539 0.722875 0.058971
0.663711 0.722875 0.059922
0.705895 0.722875 0.060896
0.749091 0.722875 0.061894
0.793298 0.722875 0.062915
0.838516 0.722875 0.063959
0.884746 0.722875 0.065026
0.931988 0.722875 0.066117
0.980242 0.722875 0.067231
1.000000 0.722875 0.068322
1.000000 0.722875 0.068322
1.000000 0.722875 0.068322
0.000000 0.778539 0.050000
0.019238 0.777619 0.050000
0.039453 0.776652 0.050000
0.060645 0.775638 0.050000
0.082812 0.774578 0.050000
0.105957 0.773470 0.050000
0.130078 0.772316 0.050000
0.155804 0.771953 0.050419
0.182814 0.771953 0.051042
0.210835 0.771953 0.051689
0.239868 0.771953 0.052360
0.269913 0.771953 0.053054
0.300969 0.771953 0.053771
0.333036 0.771953 0.054511
0.366116 0.771953 0.055275
0.400207 0.771953 0.056062
0.435309 0.771953 0.056873
0.471424 0.771953 0.057707
0.508549 0.771953 0.058564
0.546687 0.771953 0.059445
0.585836 0.771953 0.060349
0.625996 0.771953 0.061276
0.667168 0.771953 0.062227
0.709352 0.771953 0.063201
0.752548 0.771953 0.064198
0.796755 0.771953 0.065219
0.841973 0.771953 0.066263
0.888203 0.771953 0.067331
0.935445 0.771953 0.068422
0.983699 0.771953 0.069536
1.000000 0.771953 0.070627
1.000000 0.771953 0.070627
1.000000 0.771953 0.070627
0.000000 0.821548 0.050000
0.019238 0.820628 0.050000
0.039453 0.819661 0.050000
0.061224 0.819420 0.050387
0.084188 0.819420 0.050917
0.108163 0.819420 0.051470
0.133149 0.819420 0.052047
0.159147 0.819420 0.052648
0.186157 0.819420 0.053271
0.214179 0.819420 0.053919
0.243212 0.819420 0.054589
0.273256 0.819420 0.055283
0.304312 0.819420 0.056000
0.336380 0.819420 0.056740
0.369459 0.819420 0.057504
0.403550 0.819420 0.058291
0.438653 0.819420 0.059102
0.474767 0.819420 0.059936
0.511893 0.819420 0.060793
0.550030 0.819420 0.061674
0.589179 0.819420 0.062578
0.629340 0.819420 0.063505
0.670512 0.819420 0.064456
0.712696 0.819420 0.065430
0.755891 0.819420 0.066427
0.800098 0.819420 0.067448
0.845317 0.819420 0.068492
0.891547 0.819420 0.069560
0.938789 0.819420 0.070651
0.987042 0.819420 0.071765
1.000000 0.819420 0.072856
1.000000 0.819420 0.072856
1.000000 0.819420 0.072856
0.001606 0.864873 0.051070
0.021534 0.864873 0.051531
0.042474 0.864873 0.052014
0.064426 0.864873 0.052521
0.087389 0.864873 0.053051
0.111364 0.864873 0.053605
0.136351 0.864873 0.054182
0.162349 0.864873 0.054782
0.189359 0.864873 0.055406
0.217380 0.864873 0.056053
0.246413 0.864873 0.056723
0.276458 0.864873 0.057417
0.307514 0.864873 0.058134
0.339582 0.864873 0.058875
0.372661 0.864873 0.059639
0.406752 0.864873 0.060426
0.441855 0.864873 0.061236
0.477969 0.864873 0.062070
0.515095 0.864873 0.062928
0.553232 0.864873 0.063808
0.592381 0.864873 0.064712
0.632542 0.864873 0.065640
0.673714 0.864873 0.066590
0.715898 0.864873 0.067564
0.759093 0.864873 0.068562
0.803300 0.864873 0.069583
0.848518 0.864873 0.070627
0.894749 0.864873 0.071694
0.941990 0.864873 0.072785
0.990244 0.864873 0.073900
1.000000 0.864873 0.074990
1.000000 0.864873 0.074990
1.000000 0.864873 0.074990
0.004637 0.907909 0.053091
0.024566 0.907909 0.053552
0.045506 0.907909 0.054035
0.067458 0.907909 0.054542
0.090421 0.907909 0.055072
0.114396 0.907909 0.055626
0.139382 0.907909 0.056203
0.165381 0.907909 0.056803
0.192390 0.907909 0.057427
0.220412 0.907909 0.058074
0.249445 0.907909 0.058744
0.279489 0.907909 0.059438
0.310545 0.907909 0.060155
0.342613 0.907909 0.060896
0.375693 0.907909 0.061660
0.409784 0.907909 0.062447
0.444886 0.907909 0.063257
0.481000 0.907909 0.064091
0.518126 0.907909 0.064949
0.556263 0.907909 0.065829
0.595412 0.907909 0.066733
0.635573 0.907909 0.067661
0.676745 0.907909 0.068611
0.718929 0.907909 0.069585
0.762124 0.907909 0.070583
0.806331 0.907909 0.071604
0.851550 0.907909 0.072648
0.897780 0.907909 0.073715
0.945022 0.907909 0.074806
0.993275 0.907909 0.075921
1.000000 0.907909 0.077011
1.000000 0.907909 0.077011
1.000000 0.907909 0.077011
0.007470 0.948125 0.054980
0.027398 0.948125 0.055440
0.048339 0.948125 0.055924
0.070290 0.948125 0.056431
0.093254 0.948125 0.056961
0.117229 0.948125 0.057514
0.142215 0.948125 0.058091
0.168213 0.948125 0.058692
0.195223 0.948125 0.059315
0.223245 0.948125 0.059963
0.252278 0.948125 0.060633
0.282322 0.948125 0.061327
0.313378 0.948125 0.062044
0.345446 0.948125 0.062784
0.378525 0.948125 0.063548
0.412616 0.948125 0.064335
0.447719 0.948125 0.065146
0.483833 0.948125 0.065980
0.520959 0.948125 0.066837
0.559096 0.948125 0.067718
0.598245 0.948125 0.068622
0.638406 0.948125 0.069549
0.679578 0.948125 0.070500
0.721762 0.948125 0.071474
0.764957 0.948125 0.072471
0.809164 0.948125 0.073492
0.854383 0.948125 0.074536
0.900613 0.948125 0.075604
0.947855 0.948125 0.076695
0.996108 0.948125 0.077809
1.000000 0.948125 0.078900
1.000000 0.948125 0.078900
1.000000 0.948125 0.078900
0.010076 0.985118 0.056717
0.030004 0.985118 0.057177
0.050944 0.985118 0.057661
0.072896 0.985118 0.058168
0.095860 0.985118 0.058698
0.119835 0.985118 0.059252
0.144821 0.985118 0.059829
0.170819 0.985118 0.060429
0.197829 0.985118 0.061053
0.225850 0.985118 0.061700
0.254883 0.985118 0.062370
0.284928 0.985118 0.063064
0.315984 0.985118 0.063781
0.348052 0.985118 0.064522
0.381131 0.985118 0.065285
0.415222 0.985118 0.066073
0.450325 0.985118 0.066883
0.486439 0.985118 0.067717
0.523565 0.985118 0.068574
0.561702 0.985118 0.069455
0.600851 0.985118 0.070359
0.641012 0.985118 0.071286
0.682184 0.985118 0.072237
0.724368 0.985118 0.073211
0.767563 0.985118 0.074209
0.811770 0.985118 0.075229
0.856989 0.985118 0.076274
0.903219 0.985118 0.077341
0.950461 0.985118 0.078432
0.998714 0.985118 0.079546
1.000000 0.985118 0.080637
1.000000 0.985118 0.080637
1.000000 0.985118 0.080637
0.011124 1.000000 0.057416
0.031053 1.000000 0.057876
0.051993 1.000000 0.058360
0.073944 1.000000 0.058867
0.096908 1.000000 0.059397
0.120883 1.000000 0.059950
0.145869 1.000000 0.060527
0.171867 1.000000 0.061128
0.198877 1.000000 0.061752
0.226899 1.000000 0.062399
0.255932 1.000000 0.063069
0.285976 1.000000 0.063763
0.317032 1.000000 0.064480
0.349100 1.000000 0.065220
0.382179 1.000000 0.065984
0.416270 1.000000 0.066771
0.451373 1.000000 0.067582
0.487487 1.000000 0.068416
0.524613 1.000000 0.069273
0.562750 1.000000 0.070154
0.601899 1.000000 0.071058
0.642060 1.000000 0.071985
0.683232 1.000000 0.072936
0.725416 1.000000 0.073910
0.768611 1.000000 0.074908
0.812818 1.000000 0.075928
0.858037 1.000000 0.076972
