luts/cross_process.cube
TITLE "Cross Process"
LUT_3D_SIZE 5
DOMAIN_MIN 0.0 0.0 0.0
DOMAIN_MAX 1.0 1.0 1.0
0.000000 0.097210 0.050000
0.181250 0.088539 0.050000
0.425000 0.076878 0.050000
0.731250 0.062227 0.050000
1.000000 0.049370 0.050000
0.000000 0.252942 0.050000
0.181250 0.244271 0.050000
0.425000 0.232610 0.050000
0.731250 0.217959 0.050000
1.000000 0.205102 0.050000
0.000000 0.595554 0.050000
0.181250 0.586883 0.050000
0.425000 0.575222 0.050000
0.738322 0.570000 0.054715
1.000000 0.570000 0.061143
0.007470 0.948125 0.054980
0.195223 0.948125 0.059315
0.447719 0.948125 0.065146
0.764957 0.948125 0.072471
1.000000 0.948125 0.078900
0.011124 1.000000 0.057416
0.198877 1.000000 0.061752
0.451373 1.000000 0.067582
0.768611 1.000000 0.074908
1.000000 1.000000 0.081336
0.000000 0.094018 0.225000
0.181250 0.085347 0.225000
0.425000 0.073686 0.225000
0.731250 0.059035 0.225000
1.000000 0.046178 0.225000
0.000000 0.249750 0.225000
0.181250 0.241079 0.225000
0.425000 0.229418 0.225000
0.731250 0.214767 0.225000
1.000000 0.201910 0.225000
0.000000 0.592362 0.225000
0.181250 0.583691 0.225000
0.425000 0.572030 0.225000
0.740716 0.570000 0.231311
1.000000 0.570000 0.237739
0.009864 0.948125 0.231576
0.197617 0.948125 0.235911
0.450113 0.948125 0.241742
0.767351 0.948125 0.249067
1.000000 0.948125 0.255496
0.013518 1.000000 0.234012
0.201271 1.000000 0.238347
0.453767 1.000000 0.244178
0.771005 1.000000 0.251503
1.000000 1.000000 0.257932
0.000000 0.090826 0.400000
0.181250 0.082155 0.400000
0.425000 0.070494 0.400000
0.731250 0.055843 0.400000
1.000000 0.042986 0.400000
0.000000 0.246558 0.400000
0.181250 0.237887 0.400000
0.425000 0.226226 0.400000
0.731250 0.211575 0.400000
1.000000 0.198718 0.400000
0.000000 0.589170 0.400000
0.181250 0.580499 0.400000
0.425872 0.570000 0.400581
0.743110 0.570000 0.407907
1.000000 0.570000 0.414335
0.012258 0.948125 0.408172
0.200011 0.948125 0.412507
0.452507 0.948125 0.418338
0.769745 0.948125 0.425663
1.000000 0.948125 0.432092
0.015912 1.000000 0.410608
0.203665 1.000000 0.414943
0.456161 1.000000 0.420774
0.773399 1.000000 0.428099
1.000000 1.000000 0.434528
0.000000 0.087634 0.575000
0.181250 0.078963 0.575000
0.425000 0.067302 0.575000
0.731250 0.052651 0.575000
1.000000 0.039794 0.575000
0.000000 0.243366 0.575000
0.181250 0.234695 0.575000
0.425000 0.223034 0.575000
0.731250 0.208383 0.575000
1.000000 0.195526 0.575000
0.000000 0.585978 0.575000
0.181250 0.577307 0.575000
0.428266 0.570000 0.577177
0.745504 0.570000 0.584503
1.000000 0.570000 0.590931
0.014652 0.948125 0.584768
0.202405 0.948125 0.589103
0.454901 0.948125 0.594934
0.772139 0.948125 0.602259
1.000000 0.948125 0.608688
0.018306 1.000000 0.587204
0.206059 1.000000 0.591539
0.458555 1.000000 0.597370
0.775793 1.000000 0.604695
1.000000 1.000000 0.611124
0.000000 0.084442 0.750000
0.181250 0.075771 0.750000
0.425000 0.064110 0.750000
0.731250 0.049459 0.750000
1.000000 0.036602 0.750000
0.000000 0.240174 0.750000
0.181250 0.231503 0.750000
0.425000 0.219842 0.750000
0.731250 0.205191 0.750000
1.000000 0.192334 0.750000
0.000000 0.582786 0.750000
0.181250 0.574115 0.750000
0.430660 0.570000 0.753773
0.747898 0.570000 0.761099
1.000000 0.570000 0.767527
0.017046 0.948125 0.761364
0.204799 0.948125 0.765699
0.457295 0.948125 0.771530
0.774533 0.948125 0.778855
1.000000 0.948125 0.785284
0.020700 1.000000 0.763800
0.208453 1.000000 0.768135
0.460949 1.000000 0.773966
0.778187 1.000000 0.781292
1.000000 1.000000 0.787720
