luts/film_noir.cube
TITLE "Film Noir"
LUT_3D_SIZE 9
DOMAIN_MIN 0.0 0.0 0.0
DOMAIN_MAX 1.0 1.0 1.0
0.000000 0.000000 0.030000
0.000000 0.000000 0.030000
0.028401 0.000000 0.030000
0.096601 0.020663 0.050663
0.164801 0.063551 0.093551
0.233002 0.106439 0.136439
0.301202 0.149327 0.179327
0.369402 0.192215 0.222215
0.437603 0.235102 0.265102
0.000000 0.001510 0.030000
0.044398 0.044398 0.049086
0.112598 0.087286 0.091973
0.180799 0.130174 0.134861
0.248999 0.173062 0.177749
0.317199 0.215949 0.220637
0.385400 0.258837 0.263525
0.453600 0.301725 0.306412
0.521800 0.344613 0.349300
0.060396 0.111021 0.090396
0.128596 0.153908 0.133283
0.196796 0.196796 0.176171
0.264997 0.239684 0.219059
0.333197 0.282572 0.261947
0.401397 0.325460 0.304835
0.469598 0.368347 0.347723
0.537798 0.411235 0.390610
0.605998 0.454123 0.433498
0.144593 0.220531 0.174593
0.212794 0.263419 0.217481
0.280994 0.306307 0.260369
0.349194 0.349194 0.303257
0.417395 0.392082 0.346145
0.485595 0.434970 0.389033
0.553795 0.477858 0.431920
0.621996 0.520746 0.474808
0.690196 0.563633 0.517696
0.228791 0.330041 0.258791
0.296992 0.372929 0.301679
0.365192 0.415817 0.344567
0.433392 0.458705 0.387455
0.501592 0.501592 0.430342
0.569793 0.544480 0.473230
0.637993 0.587368 0.516118
0.706193 0.630256 0.559006
0.774394 0.673144 0.601894
0.312989 0.439552 0.342989
0.381189 0.482439 0.385877
0.449390 0.525327 0.428765
0.517590 0.568215 0.471653
0.585790 0.611103 0.514540
0.653991 0.653991 0.557428
0.722191 0.696878 0.600316
0.790391 0.739766 0.643204
0.858592 0.782654 0.686092
0.397187 0.549062 0.427187
0.465387 0.591950 0.470075
0.533587 0.634838 0.512963
0.601788 0.677725 0.555850
0.669988 0.720613 0.598738
0.738188 0.763501 0.641626
0.806389 0.806389 0.684514
0.874589 0.849277 0.727402
0.942789 0.892164 0.770289
0.481385 0.658572 0.511385
0.549585 0.701460 0.554273
0.617785 0.744348 0.597160
0.685986 0.787236 0.640048
0.754186 0.830123 0.682936
0.822386 0.873011 0.725824
0.890587 0.915899 0.768712
0.958787 0.958787 0.811599
1.000000 1.000000 0.854487
0.565582 0.768083 0.595583
0.633783 0.810970 0.638470
0.701983 0.853858 0.681358
0.770183 0.896746 0.724246
0.838384 0.939634 0.767134
0.906584 0.982522 0.810022
0.974784 1.000000 0.852909
1.000000 1.000000 0.895797
1.000000 1.000000 0.938685
0.000000 0.000000 0.030000
0.000000 0.000000 0.030000
0.044753 0.000000 0.049440
0.112953 0.037015 0.092328
0.181153 0.079903 0.135216
0.249353 0.122791 0.178103
0.317554 0.165679 0.220991
0.385754 0.208567 0.263879
0.453954 0.251454 0.306767
0.000000 0.017862 0.047862
0.060750 0.060750 0.090750
0.128950 0.103638 0.133638
0.197151 0.146526 0.176526
0.265351 0.189413 0.219413
0.333551 0.232301 0.262301
0.401752 0.275189 0.305189
0.469952 0.318077 0.348077
0.538152 0.360965 0.390965
0.076747 0.127372 0.132060
0.144948 0.170260 0.174948
0.213148 0.213148 0.217836
0.281348 0.256036 0.260723
0.349549 0.298924 0.303611
0.417749 0.341812 0.346499
0.485949 0.384699 0.389387
0.554150 0.427587 0.432275
0.622350 0.470475 0.475162
0.160945 0.236883 0.216258
0.229146 0.279771 0.259146
0.297346 0.322658 0.302033
0.365546 0.365546 0.344921
0.433747 0.408434 0.387809
0.501947 0.451322 0.430697
0.570147 0.494210 0.473585
0.638347 0.537098 0.516473
0.706548 0.579985 0.559360
0.245143 0.346393 0.300456
0.313343 0.389281 0.343343
0.381544 0.432169 0.386231
0.449744 0.475057 0.429119
0.517944 0.517944 0.472007
0.586145 0.560832 0.514895
0.654345 0.603720 0.557782
0.722545 0.646608 0.600670
0.790746 0.689496 0.643558
0.329341 0.455903 0.384653
0.397541 0.498791 0.427541
0.465742 0.541679 0.470429
0.533942 0.584567 0.513317
0.602142 0.627455 0.556205
0.670343 0.670343 0.599092
0.738543 0.713230 0.641980
0.806743 0.756118 0.684868
0.874943 0.799006 0.727756
0.413539 0.565414 0.468851
0.481739 0.608302 0.511739
0.549939 0.651189 0.554627
0.618140 0.694077 0.597515
0.686340 0.736965 0.640403
0.754540 0.779853 0.683290
0.822741 0.822741 0.726178
0.890941 0.865628 0.769066
0.959141 0.908516 0.811954
0.497737 0.674924 0.553049
0.565937 0.717812 0.595937
0.634137 0.760700 0.638825
0.702338 0.803588 0.681713
0.770538 0.846475 0.724600
0.838738 0.889363 0.767488
0.906938 0.932251 0.810376
0.975139 0.975139 0.853264
1.000000 1.000000 0.896152
0.581934 0.784434 0.637247
0.650135 0.827322 0.680135
0.718335 0.870210 0.723023
0.786535 0.913098 0.765910
0.854736 0.955986 0.808798
0.922936 0.998873 0.851686
0.991136 1.000000 0.894574
1.000000 1.000000 0.937462
1.000000 1.000000 0.980349
0.000000 0.000000 0.030000
0.000000 0.000000 0.048217
0.061104 0.010479 0.091104
0.129305 0.053367 0.133992
0.197505 0.096255 0.176880
0.265705 0.139143 0.219768
0.333906 0.182031 0.262656
0.402106 0.224918 0.305543
0.470306 0.267806 0.348431
0.008902 0.034214 0.089527
0.077102 0.077102 0.132414
0.145302 0.119990 0.175302
0.213503 0.162878 0.218190
0.281703 0.205765 0.261078
0.349903 0.248653 0.303966
0.418103 0.291541 0.346853
0.486304 0.334429 0.389741
0.554504 0.377317 0.432629
0.093099 0.143724 0.173724
0.161300 0.186612 0.216612
0.229500 0.229500 0.259500
0.297700 0.272388 0.302388
0.365901 0.315276 0.345276
0.434101 0.358163 0.388163
0.502301 0.401051 0.431051
0.570502 0.443939 0.473939
0.638702 0.486827 0.516827
0.177297 0.253235 0.257922
0.245498 0.296123 0.300810
0.313698 0.339010 0.343698
0.381898 0.381898 0.386586
0.450098 0.424786 0.429473
0.518299 0.467674 0.472361
0.586499 0.510562 0.515249
0.654699 0.553449 0.558137
0.722900 0.596337 0.601025
0.261495 0.362745 0.342120
0.329695 0.405633 0.385008
0.397896 0.448521 0.427896
0.466096 0.491408 0.470783
0.534296 0.534296 0.513671
0.602497 0.577184 0.556559
0.670697 0.620072 0.599447
0.738897 0.662960 0.642335
0.807098 0.705848 0.685223
0.345693 0.472255 0.426318
0.413893 0.515143 0.469206
0.482093 0.558031 0.512093
0.550294 0.600919 0.554981
0.618494 0.643807 0.597869
0.686694 0.686694 0.640757
0.754895 0.729582 0.683645
0.823095 0.772470 0.726533
0.891295 0.815358 0.769420
0.429891 0.581766 0.510516
0.498091 0.624653 0.553403
0.566291 0.667541 0.596291
0.634492 0.710429 0.639179
0.702692 0.753317 0.682067
0.770892 0.796205 0.724955
0.839093 0.839093 0.767843
0.907293 0.881980 0.810730
0.975493 0.924868 0.853618
0.514088 0.691276 0.594713
0.582289 0.734164 0.637601
0.650489 0.777052 0.680489
0.718689 0.819939 0.723377
0.786890 0.862827 0.766265
0.855090 0.905715 0.809153
0.923290 0.948603 0.852040
0.991491 0.991491 0.894928
1.000000 1.000000 0.937816
0.598286 0.800786 0.678911
0.666487 0.843674 0.721799
0.734687 0.886562 0.764687
0.802887 0.929450 0.807575
0.871088 0.972337 0.850462
0.939288 1.000000 0.893350
1.000000 1.000000 0.936238
1.000000 1.000000 0.979126
1.000000 1.000000 1.000000
0.000000 0.000000 0.046993
0.009256 0.000000 0.089881
0.077456 0.026831 0.132769
0.145657 0.069719 0.175657
0.213857 0.112607 0.218544
0.282057 0.155495 0.261432
0.350258 0.198383 0.304320
0.418458 0.241270 0.347208
0.486658 0.284158 0.390096
0.025253 0.050566 0.131191
0.093454 0.093454 0.174079
0.161654 0.136342 0.216967
0.229854 0.179229 0.259854
0.298055 0.222117 0.302742
0.366255 0.265005 0.345630
0.434455 0.307893 0.388518
0.502656 0.350781 0.431406
0.570856 0.393668 0.474293
0.109451 0.160076 0.215389
0.177652 0.202964 0.258277
0.245852 0.245852 0.301164
0.314052 0.288740 0.344052
0.382253 0.331628 0.386940
0.450453 0.374515 0.429828
0.518653 0.417403 0.472716
0.586853 0.460291 0.515603
0.655054 0.503179 0.558491
0.193649 0.269587 0.299587
0.261849 0.312474 0.342474
0.330050 0.355362 0.385362
0.398250 0.398250 0.428250
0.466450 0.441138 0.471138
0.534651 0.484026 0.514026
0.602851 0.526913 0.556913
0.671051 0.569801 0.599801
0.739252 0.612689 0.642689
0.277847 0.379097 0.383784
0.346047 0.421985 0.426672
0.414247 0.464873 0.469560
0.482448 0.507760 0.512448
0.550648 0.550648 0.555336
0.618848 0.593536 0.598223
0.687049 0.636424 0.641111
0.755249 0.679312 0.683999
0.823449 0.722199 0.726887
0.362045 0.488607 0.467982
0.430245 0.531495 0.510870
0.498445 0.574383 0.553758
0.566646 0.617271 0.596646
0.634846 0.660158 0.639533
0.703046 0.703046 0.682421
0.771247 0.745934 0.725309
0.839447 0.788822 0.768197
0.907647 0.831710 0.811085
0.446242 0.598118 0.552180
0.514443 0.641005 0.595068
0.582643 0.683893 0.637956
0.650843 0.726781 0.680843
0.719044 0.769669 0.723731
0.787244 0.812557 0.766619
0.855444 0.855444 0.809507
0.923645 0.898332 0.852395
0.991845 0.941220 0.895283
0.530440 0.707628 0.636378
0.598641 0.750516 0.679266
0.666841 0.793403 0.722153
0.735041 0.836291 0.765041
0.803242 0.879179 0.807929
0.871442 0.922067 0.850817
0.939642 0.964955 0.893705
1.000000 1.000000 0.936593
1.000000 1.000000 0.979480
0.614638 0.817138 0.720576
0.682838 0.860026 0.763463
0.751039 0.902914 0.806351
0.819239 0.945802 0.849239
0.887439 0.988689 0.892127
0.955640 1.000000 0.935015
1.000000 1.000000 0.977903
1.000000 1.000000 1.000000
1.000000 1.000000 1.000000
0.000000 0.000000 0.088658
0.025608 0.000295 0.131545
0.093808 0.043183 0.174433
0.162008 0.086071 0.217321
0.230209 0.128959 0.260209
0.298409 0.171847 0.303097
0.366609 0.214734 0.345984
0.434810 0.257622 0.388872
0.503010 0.300510 0.431760
0.041605 0.066918 0.172855
0.109806 0.109806 0.215743
0.178006 0.152693 0.258631
0.246206 0.195581 0.301519
0.314407 0.238469 0.344407
0.382607 0.281357 0.387294
0.450807 0.324245 0.430182
0.519007 0.367132 0.473070
0.587208 0.410020 0.515958
0.125803 0.176428 0.257053
0.194003 0.219316 0.299941
0.262204 0.262204 0.342829
0.330404 0.305092 0.385717
0.398604 0.347979 0.428604
0.466805 0.390867 0.471492
0.535005 0.433755 0.514380
0.603205 0.476643 0.557268
0.671406 0.519531 0.600156
0.210001 0.285938 0.341251
0.278201 0.328826 0.384139
0.346402 0.371714 0.427027
0.414602 0.414602 0.469914
0.482802 0.457490 0.512802
0.551002 0.500378 0.555690
0.619203 0.543265 0.598578
0.687403 0.586153 0.641466
0.755603 0.629041 0.684353
0.294199 0.395449 0.425449
0.362399 0.438337 0.468337
0.430599 0.481224 0.511224
0.498800 0.524112 0.554112
0.567000 0.567000 0.597000
0.635200 0.609888 0.639888
0.703401 0.652776 0.682776
0.771601 0.695663 0.725663
0.839801 0.738551 0.768551
0.378397 0.504959 0.509647
0.446597 0.547847 0.552534
0.514797 0.590735 0.595422
0.582998 0.633622 0.638310
0.651198 0.676510 0.681198
0.719398 0.719398 0.724086
0.787598 0.762286 0.766973
0.855799 0.805174 0.809861
0.923999 0.848062 0.852749
0.462594 0.614469 0.593844
0.530795 0.657357 0.636732
0.598995 0.700245 0.679620
0.667195 0.743133 0.722508
0.735396 0.786021 0.765396
0.803596 0.828908 0.808283
0.871796 0.871796 0.851171
0.939997 0.914684 0.894059
1.000000 0.957572 0.936947
0.546792 0.723980 0.678042
0.614993 0.766868 0.720930
0.683193 0.809755 0.763818
0.751393 0.852643 0.806706
0.819593 0.895531 0.849593
0.887794 0.938419 0.892481
0.955994 0.981307 0.935369
1.000000 1.000000 0.978257
1.000000 1.000000 1.000000
0.630990 0.833490 0.762240
0.699190 0.876378 0.805128
0.767391 0.919266 0.848016
0.835591 0.962153 0.890903
0.903791 1.000000 0.933791
0.971992 1.000000 0.976679
1.000000 1.000000 1.000000
1.000000 1.000000 1.000000
1.000000 1.000000 1.000000
0.000000 0.000000 0.130322
0.041960 0.016647 0.173210
0.110160 0.059535 0.216098
0.178360 0.102423 0.258985
0.246561 0.145311 0.301873
0.314761 0.188198 0.344761
0.382961 0.231086 0.387649
0.451162 0.273974 0.430537
0.519362 0.316862 0.473424
0.057957 0.083270 0.214520
0.126158 0.126158 0.257408
0.194358 0.169045 0.300295
0.262558 0.211933 0.343183
0.330758 0.254821 0.386071
0.398959 0.297709 0.428959
0.467159 0.340597 0.471847
0.535359 0.383484 0.514734
0.603560 0.426372 0.557622
0.142155 0.192780 0.298717
0.210355 0.235668 0.341605
0.278556 0.278556 0.384493
0.346756 0.321443 0.427381
0.414956 0.364331 0.470269
0.483157 0.407219 0.513157
0.551357 0.450107 0.556044
0.619557 0.492995 0.598932
0.687758 0.535883 0.641820
0.226353 0.302290 0.382915
0.294553 0.345178 0.425803
0.362753 0.388066 0.468691
0.430954 0.430954 0.511579
0.499154 0.473842 0.554467
0.567354 0.516729 0.597354
0.635555 0.559617 0.640242
0.703755 0.602505 0.683130
0.771955 0.645393 0.726018
0.310551 0.411801 0.467113
0.378751 0.454688 0.510001
0.446951 0.497576 0.552889
0.515152 0.540464 0.595777
0.583352 0.583352 0.638664
0.651552 0.626240 0.681552
0.719753 0.669127 0.724440
0.787953 0.712015 0.767328
0.856153 0.754903 0.810216
0.394748 0.521311 0.551311
0.462949 0.564199 0.594199
0.531149 0.607087 0.637087
0.599349 0.649974 0.679974
0.667550 0.692862 0.722862
0.735750 0.735750 0.765750
0.803950 0.778638 0.808638
0.872151 0.821526 0.851526
0.940351 0.864413 0.894413
0.478946 0.630821 0.635509
0.547147 0.673709 0.678397
0.615347 0.716597 0.721284
0.683547 0.759485 0.764172
0.751748 0.802373 0.807060
0.819948 0.845260 0.849948
0.888148 0.888148 0.892836
0.956348 0.931036 0.935723
1.000000 0.973924 0.978611
0.563144 0.740332 0.719707
0.631344 0.783219 0.762594
0.699545 0.826107 0.805482
0.767745 0.868995 0.848370
0.835945 0.911883 0.891258
0.904146 0.954771 0.934146
0.972346 0.997658 0.977033
1.000000 1.000000 1.000000
1.000000 1.000000 1.000000
0.647342 0.849842 0.803904
0.715542 0.892730 0.846792
0.783743 0.935618 0.889680
0.851943 0.978505 0.932568
0.920143 1.000000 0.975456
0.988343 1.000000 1.000000
1.000000 1.000000 1.000000
1.000000 1.000000 1.000000
1.000000 1.000000 1.000000
0.000000 0.000000 0.171986
0.058312 0.032999 0.214874
0.126512 0.075887 0.257762
0.194712 0.118775 0.300650
0.262912 0.161662 0.343537
0.331113 0.204550 0.386425
0.399313 0.247438 0.429313
0.467513 0.290326 0.472201
0.535714 0.333214 0.515089
0.074309 0.099622 0.256184
0.142509 0.142509 0.299072
0.210710 0.185397 0.341960
0.278910 0.228285 0.384848
0.347110 0.271173 0.427735
0.415311 0.314061 0.470623
0.483511 0.356948 0.513511
0.551711 0.399836 0.556399
0.619912 0.442724 0.599287
0.158507 0.209132 0.340382
0.226707 0.252020 0.383270
0.294907 0.294907 0.426157
0.363108 0.337795 0.469045
0.431308 0.380683 0.511933
0.499508 0.423571 0.554821
0.567709 0.466459 0.597709
0.635909 0.509347 0.640597
0.704109 0.552234 0.683484
0.242705 0.318642 0.424580
0.310905 0.361530 0.467468
0.379105 0.404418 0.510355
0.447306 0.447306 0.553243
0.515506 0.490193 0.596131
0.583706 0.533081 0.639019
0.651907 0.575969 0.681907
0.720107 0.618857 0.724794
0.788307 0.661745 0.767682
0.326902 0.428152 0.508777
0.395103 0.471040 0.551665
0.463303 0.513928 0.594553
0.531503 0.556816 0.637441
0.599704 0.599704 0.680329
0.667904 0.642592 0.723217
0.736104 0.685479 0.766104
0.804305 0.728367 0.808992
0.872505 0.771255 0.851880
0.411100 0.537663 0.592975
0.479301 0.580551 0.635863
0.547501 0.623438 0.678751
0.615701 0.666326 0.721639
0.683902 0.709214 0.764527
0.752102 0.752102 0.807414
0.820302 0.794990 0.850302
0.888503 0.837878 0.893190
0.956703 0.880765 0.936078
0.495298 0.647173 0.677173
0.563498 0.690061 0.720061
0.631699 0.732949 0.762949
0.699899 0.775837 0.805837
0.768099 0.818724 0.848724
0.836300 0.861612 0.891612
0.904500 0.904500 0.934500
0.972700 0.947388 0.977388
1.000000 0.990276 1.000000
0.579496 0.756683 0.761371
0.647696 0.799571 0.804259
0.715897 0.842459 0.847147
0.784097 0.885347 0.890034
0.852297 0.928235 0.932922
0.920498 0.971123 0.975810
0.988698 1.000000 1.000000
1.000000 1.000000 1.000000
1.000000 1.000000 1.000000
0.663694 0.866194 0.845569
0.731894 0.909082 0.888457
0.800094 0.951969 0.931344
0.868295 0.994857 0.974232
0.936495 1.000000 1.000000
1.000000 1.000000 1.000000
1.000000 1.000000 1.000000
1.000000 1.000000 1.000000
1.000000 1.000000 1.000000
0.006463 0.006463 0.213651
0.074663 0.049351 0.256538
0.142864 0.092239 0.299426
0.211064 0.135127 0.342314
0.279264 0.178014 0.385202
0.347465 0.220902 0.428090
0.415665 0.263790 0.470978
0.483865 0.306678 0.513865
0.552066 0.349566 0.556753
0.090661 0.115973 0.297848
0.158861 0.158861 0.340736
0.227062 0.201749 0.383624
0.295262 0.244637 0.426512
0.363462 0.287525 0.469400
0.431663 0.330412 0.512288
0.499863 0.373300 0.555175
0.568063 0.416188 0.598063
0.636263 0.459076 0.640951
0.174859 0.225484 0.382046
0.243059 0.268372 0.424934
0.311259 0.311259 0.467822
0.379460 0.354147 0.510710
0.447660 0.397035 0.553598
0.515860 0.439923 0.596485
0.584061 0.482811 0.639373
0.652261 0.525698 0.682261
0.720461 0.568586 0.725149
0.259057 0.334994 0.466244
0.327257 0.377882 0.509132
0.395457 0.420770 0.552020
0.463658 0.463658 0.594908
0.531858 0.506545 0.637795
0.600058 0.549433 0.680683
0.668258 0.592321 0.723571
0.736459 0.635209 0.766459
0.804659 0.678097 0.809347
0.343254 0.444504 0.550442
0.411455 0.487392 0.593330
0.479655 0.530280 0.636218
0.547855 0.573168 0.679105
0.616056 0.616056 0.721993
0.684256 0.658943 0.764881
0.752456 0.701831 0.807769
0.820657 0.744719 0.850657
0.888857 0.787607 0.893544
0.427452 0.554015 0.634640
0.495652 0.596903 0.677528
0.563853 0.639790 0.720415
0.632053 0.682678 0.763303
0.700253 0.725566 0.806191
0.768454 0.768454 0.849079
0.836654 0.811342 0.891967
0.904854 0.854229 0.934854
0.973055 0.897117 0.977742
0.511650 0.663525 0.718838
0.579850 0.706413 0.761725
0.648051 0.749301 0.804613
0.716251 0.792188 0.847501
0.784451 0.835076 0.890389
0.852652 0.877964 0.933277
0.920852 0.920852 0.976164
0.989052 0.963740 1.000000
1.000000 1.000000 1.000000
0.595848 0.773035 0.803035
0.664048 0.815923 0.845923
0.732248 0.858811 0.888811
0.800449 0.901699 0.931699
0.868649 0.944587 0.974587
0.936849 0.987474 1.000000
1.000000 1.000000 1.000000
1.000000 1.000000 1.000000
1.000000 1.000000 1.000000
0.680046 0.882546 0.887233
0.748246 0.925433 0.930121
0.816446 0.968321 0.973009
0.884647 1.000000 1.000000
0.952847 1.000000 1.000000
1.000000 1.000000 1.000000
1.000000 1.000000 1.000000
1.000000 1.000000 1.000000
1.000000 1.000000 1.000000
0.022815 0.022815 0.255315
0.091015 0.065703 0.298203
0.159216 0.108591 0.341091
0.227416 0.151478 0.383978
0.295616 0.194366 0.426866
0.363817 0.237254 0.469754
0.432017 0.280142 0.512642
0.500217 0.323030 0.555530
0.568418 0.365917 0.598418
0.107013 0.132325 0.339513
0.175213 0.175213 0.382401
0.243413 0.218101 0.425288
0.311614 0.260989 0.468176
0.379814 0.303877 0.511064
0.448014 0.346764 0.553952
0.516215 0.389652 0.596840
0.584415 0.432540 0.639728
0.652615 0.475428 0.682615
0.191211 0.241836 0.423711
0.259411 0.284723 0.466598
0.327611 0.327611 0.509486
0.395812 0.370499 0.552374
0.464012 0.413387 0.595262
0.532212 0.456275 0.638150
0.600412 0.499163 0.681038
0.668613 0.542050 0.723925
0.736813 0.584938 0.766813
0.275408 0.351346 0.507908
0.343609 0.394234 0.550796
0.411809 0.437122 0.593684
0.480009 0.480009 0.636572
0.548210 0.522897 0.679460
0.616410 0.565785 0.722348
0.684610 0.608673 0.765235
0.752811 0.651561 0.808123
0.821011 0.694448 0.851011
0.359606 0.460856 0.592106
0.427807 0.503744 0.634994
0.496007 0.546632 0.677882
0.564207 0.589520 0.720770
0.632408 0.632408 0.763658
0.700608 0.675295 0.806545
0.768808 0.718183 0.849433
0.837008 0.761071 0.892321
0.905209 0.803959 0.935209
0.443804 0.570367 0.676304
0.512004 0.613254 0.719192
0.580205 0.656142 0.762080
0.648405 0.699030 0.804968
0.716605 0.741918 0.847855
0.784806 0.784806 0.890743
0.853006 0.827693 0.933631
0.921206 0.870581 0.976519
0.989407 0.913469 1.000000
0.528002 0.679877 0.760502
0.596202 0.722765 0.803390
0.664403 0.765653 0.846278
0.732603 0.808540 0.889165
0.800803 0.851428 0.932053
0.869003 0.894316 0.974941
0.937204 0.937204 1.000000
1.000000 0.980092 1.000000
1.000000 1.000000 1.000000
0.612200 0.789387 0.844700
0.680400 0.832275 0.887588
0.748600 0.875163 0.930475
0.816801 0.918051 0.973363
0.885001 0.960938 1.000000
0.953201 1.000000 1.000000
1.000000 1.000000 1.000000
1.000000 1.000000 1.000000
1.000000 1.000000 1.000000
0.696398 0.898898 0.928898
0.764598 0.941785 0.971785
0.832798 0.984673 1.000000
0.900998 1.000000 1.000000
0.969199 1.000000 1.000000
1.000000 1.000000 1.000000
1.000000 1.000000 1.000000
1.000000 1.000000 1.000000
1.000000 1.000000 1.000000
