luts/film_noir.cube
TITLE "Film Noir"
LUT_3D_SIZE 5
DOMAIN_MIN 0.0 0.0 0.0
DOMAIN_MAX 1.0 1.0 1.0
0.000000 0.000000 0.030000
0.028401 0.000000 0.030000
0.164801 0.063551 0.093551
0.301202 0.149327 0.179327
0.437603 0.235102 0.265102
0.060396 0.111021 0.090396
0.196796 0.196796 0.176171
0.333197 0.282572 0.261947
0.469598 0.368347 0.347723
0.605998 0.454123 0.433498
0.228791 0.330041 0.258791
0.365192 0.415817 0.344567
0.501592 0.501592 0.430342
0.637993 0.587368 0.516118
0.774394 0.673144 0.601894
0.397187 0.549062 0.427187
0.533587 0.634838 0.512963
0.669988 0.720613 0.598738
0.806389 0.806389 0.684514
0.942789 0.892164 0.770289
0.565582 0.768083 0.595583
0.701983 0.853858 0.681358
0.838384 0.939634 0.767134
0.974784 1.000000 0.852909
1.000000 1.000000 0.938685
0.000000 0.000000 0.030000
0.061104 0.010479 0.091104
0.197505 0.096255 0.176880
0.333906 0.182031 0.262656
0.470306 0.267806 0.348431
0.093099 0.143724 0.173724
0.229500 0.229500 0.259500
0.365901 0.315276 0.345276
0.502301 0.401051 0.431051
0.638702 0.486827 0.516827
0.261495 0.362745 0.342120
0.397896 0.448521 0.427896
0.534296 0.534296 0.513671
0.670697 0.620072 0.599447
0.807098 0.705848 0.685223
0.429891 0.581766 0.510516
0.566291 0.667541 0.596291
0.702692 0.753317 0.682067
0.839093 0.839093 0.767843
0.975493 0.924868 0.853618
0.598286 0.800786 0.678911
0.734687 0.886562 0.764687
0.871088 0.972337 0.850462
1.000000 1.000000 0.936238
1.000000 1.000000 1.000000
0.000000 0.000000 0.088658
0.093808 0.043183 0.174433
0.230209 0.128959 0.260209
0.366609 0.214734 0.345984
0.503010 0.300510 0.431760
0.125803 0.176428 0.257053
0.262204 0.262204 0.342829
0.398604 0.347979 0.428604
0.535005 0.433755 0.514380
0.671406 0.519531 0.600156
0.294199 0.395449 0.425449
0.430599 0.481224 0.511224
0.567000 0.567000 0.597000
0.703401 0.652776 0.682776
0.839801 0.738551 0.768551
0.462594 0.614469 0.593844
0.598995 0.700245 0.679620
0.735396 0.786021 0.765396
0.871796 0.871796 0.851171
1.000000 0.957572 0.936947
0.630990 0.833490 0.762240
0.767391 0.919266 0.848016
0.903791 1.000000 0.933791
1.000000 1.000000 1.000000
1.000000 1.000000 1.000000
0.000000 0.000000 0.171986
0.126512 0.075887 0.257762
0.262912 0.161662 0.343537
0.399313 0.247438 0.429313
0.535714 0.333214 0.515089
0.158507 0.209132 0.340382
0.294907 0.294907 0.426157
0.431308 0.380683 0.511933
0.567709 0.466459 0.597709
0.704109 0.552234 0.683484
0.326902 0.428152 0.508777
0.463303 0.513928 0.594553
0.599704 0.599704 0.680329
0.736104 0.685479 0.766104
0.872505 0.771255 0.851880
0.495298 0.647173 0.677173
0.631699 0.732949 0.762949
0.768099 0.818724 0.848724
0.904500 0.904500 0.934500
1.000000 0.990276 1.000000
0.663694 0.866194 0.845569
0.800094 0.951969 0.931344
0.936495 1.000000 1.000000
1.000000 1.000000 1.000000
1.000000 1.000000 1.000000
0.022815 0.022815 0.255315
0.159216 0.108591 0.341091
0.295616 0.194366 0.426866
0.432017 0.280142 0.512642
0.568418 0.365917 0.598418
0.191211 0.241836 0.423711
0.327611 0.327611 0.509486
0.464012 0.413387 0.595262
0.600412 0.499163 0.681038
0.736813 0.584938 0.766813
0.359606 0.460856 0.592106
0.496007 0.546632 0.677882
0.632408 0.632408 0.763658
0.768808 0.718183 0.849433
0.905209 0.803959 0.935209
0.528002 0.679877 0.760502
0.664403 0.765653 0.846278
0.800803 0.851428 0.932053
0.937204 0.937204 1.000000
1.000000 1.000000 1.000000
0.696398 0.898898 0.928898
0.832798 0.984673 1.000000
0.969199 1.000000 1.000000
1.000000 1.000000 1.000000
1.000000 1.000000 1.000000
