luts/film_noir.cube
TITLE "Film Noir"
LUT_3D_SIZE 33
DOMAIN_MIN 0.0 0.0 0.0
DOMAIN_MAX 1.0 1.0 1.0
0.000000 0.000000 0.030000
0.000000 0.000000 0.030000
0.000000 0.000000 0.030000
0.000000 0.000000 0.030000
0.000000 0.000000 0.030000
0.000000 0.000000 0.030000
0.000000 0.000000 0.030000
0.011351 0.000000 0.030000
0.028401 0.000000 0.030000
0.045451 0.000000 0.030000
0.062501 0.000000 0.030000
0.079551 0.009941 0.039941
0.096601 0.020663 0.050663
0.113651 0.031385 0.061385
0.130701 0.042107 0.072107
0.147751 0.052829 0.082829
0.164801 0.063551 0.093551
0.181851 0.074273 0.104273
0.198901 0.084995 0.114995
0.215951 0.095717 0.125717
0.233002 0.106439 0.136439
0.250052 0.117161 0.147161
0.267102 0.127883 0.157883
0.284152 0.138605 0.168605
0.301202 0.149327 0.179327
0.318252 0.160049 0.190049
0.335302 0.170771 0.200771
0.352352 0.181493 0.211493
0.369402 0.192215 0.222215
0.386452 0.202937 0.232937
0.403502 0.213659 0.243659
0.420552 0.224381 0.254381
0.437603 0.235102 0.265102
0.000000 0.000000 0.030000
0.000000 0.000000 0.030000
0.000000 0.000000 0.030000
0.000000 0.000000 0.030000
0.000000 0.000000 0.030000
0.000000 0.000000 0.030000
0.015350 0.000000 0.030000
0.032400 0.000000 0.030000
0.049450 0.005153 0.030000
0.066500 0.015875 0.039547
0.083550 0.026597 0.050269
0.100600 0.037319 0.060991
0.117650 0.048041 0.071713
0.134700 0.058763 0.082435
0.151751 0.069485 0.093157
0.168801 0.080207 0.103879
0.185851 0.090929 0.114601
0.202901 0.101651 0.125323
0.219951 0.112373 0.136045
0.237001 0.123095 0.146767
0.254051 0.133817 0.157489
0.271101 0.144539 0.168210
0.288151 0.155261 0.178932
0.305201 0.165983 0.189654
0.322251 0.176704 0.200376
0.339301 0.187426 0.211098
0.356351 0.198148 0.221820
0.373402 0.208870 0.232542
0.390452 0.219592 0.243264
0.407502 0.230314 0.253986
0.424552 0.241036 0.264708
0.441602 0.251758 0.275430
0.458652 0.262480 0.286152
0.000000 0.000000 0.030000
0.000000 0.000000 0.030000
0.000000 0.000000 0.030000
0.000000 0.000000 0.030000
0.002299 0.000000 0.030000
0.019349 0.000365 0.030000
0.036399 0.011087 0.030000
0.053449 0.021809 0.039153
0.070500 0.032531 0.049875
0.087550 0.043253 0.060596
0.104600 0.053975 0.071318
0.121650 0.064697 0.082040
0.138700 0.075419 0.092762
0.155750 0.086141 0.103484
0.172800 0.096863 0.114206
0.189850 0.107584 0.124928
0.206900 0.118306 0.135650
0.223950 0.129028 0.146372
0.241000 0.139750 0.157094
0.258050 0.150472 0.167816
0.275100 0.161194 0.178538
0.292151 0.171916 0.189260
0.309201 0.182638 0.199982
0.326251 0.193360 0.210704
0.343301 0.204082 0.221426
0.360351 0.214804 0.232148
0.377401 0.225526 0.242870
0.394451 0.236248 0.253592
0.411501 0.246970 0.264314
0.428551 0.257692 0.275036
0.445601 0.268414 0.285757
0.462651 0.279136 0.296479
0.479701 0.289858 0.307201
0.000000 0.000000 0.030000
0.000000 0.000000 0.030000
0.000000 0.000000 0.030000
0.006299 0.006299 0.030000
0.023349 0.017021 0.030000
0.040399 0.027742 0.038758
0.057449 0.038464 0.049480
0.074499 0.049186 0.060202
0.091549 0.059908 0.070924
0.108599 0.070630 0.081646
0.125649 0.081352 0.092368
0.142699 0.092074 0.103090
0.159749 0.102796 0.113812
0.176799 0.113518 0.124534
0.193849 0.124240 0.135256
0.210900 0.134962 0.145978
0.227950 0.145684 0.156700
0.245000 0.156406 0.167422
0.262050 0.167128 0.178144
0.279100 0.177850 0.188865
0.296150 0.188572 0.199587
0.313200 0.199294 0.210309
0.330250 0.210016 0.221031
0.347300 0.220738 0.231753
0.364350 0.231460 0.242475
0.381400 0.242182 0.253197
0.398450 0.252904 0.263919
0.415500 0.263625 0.274641
0.432551 0.274347 0.285363
0.449601 0.285069 0.296085
0.466651 0.295791 0.306807
0.483701 0.306513 0.317529
0.500751 0.317235 0.328251
0.000000 0.001510 0.030000
0.000000 0.012232 0.030000
0.010298 0.022954 0.030000
0.027348 0.033676 0.038364
0.044398 0.044398 0.049086
0.061448 0.055120 0.059808
0.078498 0.065842 0.070530
0.095548 0.076564 0.081251
0.112598 0.087286 0.091973
0.129649 0.098008 0.102695
0.146699 0.108730 0.113417
0.163749 0.119452 0.124139
0.180799 0.130174 0.134861
0.197849 0.140896 0.145583
0.214899 0.151618 0.156305
0.231949 0.162340 0.167027
0.248999 0.173062 0.177749
0.266049 0.183784 0.188471
0.283099 0.194505 0.199193
0.300149 0.205227 0.209915
0.317199 0.215949 0.220637
0.334249 0.226671 0.231359
0.351300 0.237393 0.242081
0.368350 0.248115 0.252803
0.385400 0.258837 0.263525
0.402450 0.269559 0.274247
0.419500 0.280281 0.284969
0.436550 0.291003 0.295691
0.453600 0.301725 0.306412
0.470650 0.312447 0.317134
0.487700 0.323169 0.327856
0.504750 0.333891 0.338578
0.521800 0.344613 0.349300
0.000000 0.028888 0.030000
0.014297 0.039610 0.037969
0.031347 0.050332 0.048691
0.048397 0.061054 0.059413
0.065448 0.071776 0.070135
0.082498 0.082498 0.080857
0.099548 0.093220 0.091579
0.116598 0.103942 0.102301
0.133648 0.114664 0.113023
0.150698 0.125385 0.123745
0.167748 0.136107 0.134467
0.184798 0.146829 0.145189
0.201848 0.157551 0.155911
0.218898 0.168273 0.166633
0.235948 0.178995 0.177355
0.252998 0.189717 0.188077
0.270049 0.200439 0.198799
0.287099 0.211161 0.209520
0.304149 0.221883 0.220242
0.321199 0.232605 0.230964
0.338249 0.243327 0.241686
0.355299 0.254049 0.252408
0.372349 0.264771 0.263130
0.389399 0.275493 0.273852
0.406449 0.286215 0.284574
0.423499 0.296937 0.295296
0.440549 0.307659 0.306018
0.457599 0.318381 0.316740
0.474649 0.329103 0.327462
0.491700 0.339825 0.338184
0.508750 0.350546 0.348906
0.525800 0.361268 0.359628
0.542850 0.371990 0.370350
0.018297 0.056265 0.048297
0.035347 0.066987 0.059019
0.052397 0.077709 0.069741
0.069447 0.088431 0.080463
0.086497 0.099153 0.091185
0.103547 0.109875 0.101906
0.120597 0.120597 0.112628
0.137647 0.131319 0.123350
0.154697 0.142041 0.134072
0.171747 0.152763 0.144794
0.188797 0.163485 0.155516
0.205848 0.174207 0.166238
0.222898 0.184929 0.176960
0.239948 0.195651 0.187682
0.256998 0.206373 0.198404
0.274048 0.217095 0.209126
0.291098 0.227817 0.219848
0.308148 0.238539 0.230570
0.325198 0.249261 0.241292
0.342248 0.259983 0.252014
0.359298 0.270705 0.262736
0.376348 0.281426 0.273458
0.393398 0.292148 0.284180
0.410449 0.302870 0.294902
0.427499 0.313592 0.305624
0.444549 0.324314 0.316346
0.461599 0.335036 0.327067
0.478649 0.345758 0.337789
0.495699 0.356480 0.348511
0.512749 0.367202 0.359233
0.529799 0.377924 0.369955
0.546849 0.388646 0.380677
0.563899 0.399368 0.391399
0.039346 0.083643 0.069346
0.056396 0.094365 0.080068
0.073446 0.105087 0.090790
0.090496 0.115809 0.101512
0.107546 0.126531 0.112234
0.124597 0.137253 0.122956
0.141647 0.147975 0.133678
0.158697 0.158697 0.144400
0.175747 0.169419 0.155122
0.192797 0.180141 0.165844
0.209847 0.190863 0.176566
0.226897 0.201585 0.187288
0.243947 0.212306 0.198010
0.260997 0.223028 0.208732
0.278047 0.233750 0.219454
0.295097 0.244472 0.230175
0.312147 0.255194 0.240897
0.329198 0.265916 0.251619
0.346248 0.276638 0.262341
0.363298 0.287360 0.273063
0.380348 0.298082 0.283785
0.397398 0.308804 0.294507
0.414448 0.319526 0.305229
0.431498 0.330248 0.315951
0.448548 0.340970 0.326673
0.465598 0.351692 0.337395
0.482648 0.362414 0.348117
0.499698 0.373136 0.358839
0.516748 0.383858 0.369561
0.533798 0.394580 0.380283
0.550849 0.405302 0.391005
0.567899 0.416024 0.401727
0.584949 0.426746 0.412449
0.060396 0.111021 0.090396
0.077446 0.121743 0.101118
0.094496 0.132465 0.111840
0.111546 0.143186 0.122561
0.128596 0.153908 0.133283
0.145646 0.164630 0.144005
0.162696 0.175352 0.154727
0.179746 0.186074 0.165449
0.196796 0.196796 0.176171
0.213846 0.207518 0.186893
0.230896 0.218240 0.197615
0.247946 0.228962 0.208337
0.264997 0.239684 0.219059
0.282047 0.250406 0.229781
0.299097 0.261128 0.240503
0.316147 0.271850 0.251225
0.333197 0.282572 0.261947
0.350247 0.293294 0.272669
0.367297 0.304016 0.283391
0.384347 0.314738 0.294113
0.401397 0.325460 0.304835
0.418447 0.336182 0.315557
0.435497 0.346904 0.326279
0.452547 0.357626 0.337001
0.469598 0.368347 0.347723
0.486648 0.379069 0.358444
0.503698 0.389791 0.369166
0.520748 0.400513 0.379888
0.537798 0.411235 0.390610
0.554848 0.421957 0.401332
0.571898 0.432679 0.412054
0.588948 0.443401 0.422776
0.605998 0.454123 0.433498
0.081445 0.138398 0.111445
0.098495 0.149120 0.122167
0.115545 0.159842 0.132889
0.132595 0.170564 0.143611
0.149645 0.181286 0.154333
0.166695 0.192008 0.165055
0.183746 0.202730 0.175777
0.200796 0.213452 0.186499
0.217846 0.224174 0.197221
0.234896 0.234896 0.207943
0.251946 0.245618 0.218665
0.268996 0.256340 0.229387
0.286046 0.267062 0.240109
0.303096 0.277784 0.250830
0.320146 0.288506 0.261552
0.337196 0.299227 0.272274
0.354246 0.309949 0.282996
0.371296 0.320671 0.293718
0.388346 0.331393 0.304440
0.405397 0.342115 0.315162
0.422447 0.352837 0.325884
0.439497 0.363559 0.336606
0.456547 0.374281 0.347328
0.473597 0.385003 0.358050
0.490647 0.395725 0.368772
0.507697 0.406447 0.379494
0.524747 0.417169 0.390216
0.541797 0.427891 0.400938
0.558847 0.438613 0.411660
0.575897 0.449335 0.422382
0.592947 0.460057 0.433104
0.609997 0.470779 0.443826
0.627048 0.481501 0.454548
0.102495 0.165776 0.132495
0.119545 0.176498 0.143216
0.136595 0.187220 0.153938
0.153645 0.197942 0.164660
0.170695 0.208664 0.175382
0.187745 0.219386 0.186104
0.204795 0.230107 0.196826
0.221845 0.240829 0.207548
0.238895 0.251551 0.218270
0.255945 0.262273 0.228992
0.272995 0.272995 0.239714
0.290045 0.283717 0.250436
0.307095 0.294439 0.261158
0.324146 0.305161 0.271880
0.341196 0.315883 0.282602
0.358246 0.326605 0.293324
0.375296 0.337327 0.304046
0.392346 0.348049 0.314768
0.409396 0.358771 0.325490
0.426446 0.369493 0.336212
0.443496 0.380215 0.346934
0.460546 0.390937 0.357656
0.477596 0.401659 0.368377
0.494646 0.412381 0.379099
0.511696 0.423103 0.389821
0.528746 0.433825 0.400543
0.545797 0.444547 0.411265
0.562847 0.455269 0.421987
0.579897 0.465990 0.432709
0.596947 0.476712 0.443431
0.613997 0.487434 0.454153
0.631047 0.498156 0.464875
0.648097 0.508878 0.475597
0.123544 0.193153 0.153544
0.140594 0.203875 0.164266
0.157644 0.214597 0.174988
0.174694 0.225319 0.185710
0.191744 0.236041 0.196432
0.208794 0.246763 0.207154
0.225844 0.257485 0.217876
0.242895 0.268207 0.228598
0.259945 0.278929 0.239320
0.276995 0.289651 0.250042
0.294045 0.300373 0.260764
0.311095 0.311095 0.271485
0.328145 0.321817 0.282207
0.345195 0.332539 0.292929
0.362245 0.343261 0.303651
0.379295 0.353983 0.314373
0.396345 0.364705 0.325095
0.413395 0.375427 0.335817
0.430445 0.386149 0.346539
0.447495 0.396870 0.357261
0.464546 0.407592 0.367983
0.481596 0.418314 0.378705
0.498646 0.429036 0.389427
0.515696 0.439758 0.400149
0.532746 0.450480 0.410871
0.549796 0.461202 0.421593
0.566846 0.471924 0.432315
0.583896 0.482646 0.443037
0.600946 0.493368 0.453759
0.617996 0.504090 0.464481
0.635046 0.514812 0.475203
0.652096 0.525534 0.485925
0.669146 0.536256 0.496646
0.144593 0.220531 0.174593
0.161644 0.231253 0.185315
0.178694 0.241975 0.196037
0.195744 0.252697 0.206759
0.212794 0.263419 0.217481
0.229844 0.274141 0.228203
0.246894 0.284863 0.238925
0.263944 0.295585 0.249647
0.280994 0.306307 0.260369
0.298044 0.317029 0.271091
0.315094 0.327750 0.281813
0.332144 0.338472 0.292535
0.349194 0.349194 0.303257
0.366244 0.359916 0.313979
0.383295 0.370638 0.324701
0.400345 0.381360 0.335423
0.417395 0.392082 0.346145
0.434445 0.402804 0.356867
0.451495 0.413526 0.367589
0.468545 0.424248 0.378311
0.485595 0.434970 0.389033
0.502645 0.445692 0.399754
0.519695 0.456414 0.410476
0.536745 0.467136 0.421198
0.553795 0.477858 0.431920
0.570845 0.488580 0.442642
0.587895 0.499302 0.453364
0.604946 0.510024 0.464086
0.621996 0.520746 0.474808
0.639046 0.531468 0.485530
0.656096 0.542190 0.496252
0.673146 0.552911 0.506974
0.690196 0.563633 0.517696
0.165643 0.247909 0.195643
0.182693 0.258630 0.206365
0.199743 0.269352 0.217087
0.216793 0.280074 0.227809
0.233843 0.290796 0.238531
0.250893 0.301518 0.249253
0.267943 0.312240 0.259975
0.284993 0.322962 0.270697
0.302044 0.333684 0.281419
0.319094 0.344406 0.292140
0.336144 0.355128 0.302862
0.353194 0.365850 0.313584
0.370244 0.376572 0.324306
0.387294 0.387294 0.335028
0.404344 0.398016 0.345750
0.421394 0.408738 0.356472
0.438444 0.419460 0.367194
0.455494 0.430182 0.377916
0.472544 0.440904 0.388638
0.489594 0.451626 0.399360
0.506644 0.462348 0.410082
0.523695 0.473070 0.420804
0.540745 0.483791 0.431526
0.557795 0.494513 0.442248
0.574845 0.505235 0.452970
0.591895 0.515957 0.463692
0.608945 0.526679 0.474414
0.625995 0.537401 0.485136
0.643045 0.548123 0.495858
0.660095 0.558845 0.506580
0.677145 0.569567 0.517301
0.694195 0.580289 0.528023
0.711245 0.591011 0.538745
0.186692 0.275286 0.216692
0.203742 0.286008 0.227414
0.220793 0.296730 0.238136
0.237843 0.307452 0.248858
0.254893 0.318174 0.259580
0.271943 0.328896 0.270302
0.288993 0.339618 0.281024
0.306043 0.350340 0.291746
0.323093 0.361062 0.302468
0.340143 0.371784 0.313190
0.357193 0.382506 0.323912
0.374243 0.393228 0.334634
0.391293 0.403950 0.345356
0.408343 0.414671 0.356078
0.425393 0.425393 0.366800
0.442444 0.436115 0.377522
0.459494 0.446837 0.388244
0.476544 0.457559 0.398966
0.493594 0.468281 0.409687
0.510644 0.479003 0.420409
0.527694 0.489725 0.431131
0.544744 0.500447 0.441853
0.561794 0.511169 0.452575
0.578844 0.521891 0.463297
0.595894 0.532613 0.474019
0.612944 0.543335 0.484741
0.629994 0.554057 0.495463
0.647044 0.564779 0.506185
0.664095 0.575501 0.516907
0.681145 0.586223 0.527629
0.698195 0.596945 0.538351
0.715245 0.607667 0.549073
0.732295 0.618389 0.559795
0.207742 0.302664 0.237742
0.224792 0.313386 0.248464
0.241842 0.324108 0.259186
0.258892 0.334830 0.269908
0.275942 0.345551 0.280630
0.292992 0.356273 0.291352
0.310042 0.366995 0.302074
0.327092 0.377717 0.312795
0.344142 0.388439 0.323517
0.361192 0.399161 0.334239
0.378243 0.409883 0.344961
0.395293 0.420605 0.355683
0.412343 0.431327 0.366405
0.429393 0.442049 0.377127
0.446443 0.452771 0.387849
0.463493 0.463493 0.398571
0.480543 0.474215 0.409293
0.497593 0.484937 0.420015
0.514643 0.495659 0.430737
0.531693 0.506381 0.441459
0.548743 0.517103 0.452181
0.565793 0.527825 0.462903
0.582844 0.538547 0.473625
0.599894 0.549269 0.484347
0.616944 0.559991 0.495069
0.633994 0.570713 0.505791
0.651044 0.581434 0.516513
0.668094 0.592156 0.527235
0.685144 0.602878 0.537956
0.702194 0.613600 0.548678
0.719244 0.624322 0.559400
0.736294 0.635044 0.570122
0.753344 0.645766 0.580844
0.228791 0.330041 0.258791
0.245841 0.340763 0.269513
0.262891 0.351485 0.280235
0.279941 0.362207 0.290957
0.296992 0.372929 0.301679
0.314042 0.383651 0.312401
0.331092 0.394373 0.323123
0.348142 0.405095 0.333845
0.365192 0.415817 0.344567
0.382242 0.426539 0.355289
0.399292 0.437261 0.366011
0.416342 0.447983 0.376733
0.433392 0.458705 0.387455
0.450442 0.469427 0.398177
0.467492 0.480149 0.408899
0.484542 0.490871 0.419621
0.501592 0.501592 0.430342
0.518643 0.512314 0.441064
0.535693 0.523036 0.451786
0.552743 0.533758 0.462508
0.569793 0.544480 0.473230
0.586843 0.555202 0.483952
0.603893 0.565924 0.494674
0.620943 0.576646 0.505396
0.637993 0.587368 0.516118
0.655043 0.598090 0.526840
0.672093 0.608812 0.537562
0.689143 0.619534 0.548284
0.706193 0.630256 0.559006
0.723244 0.640978 0.569728
0.740294 0.651700 0.580450
0.757344 0.662422 0.591172
0.774394 0.673144 0.601894
0.249841 0.357419 0.279841
0.266891 0.368141 0.290563
0.283941 0.378863 0.301285
0.300991 0.389585 0.312007
0.318041 0.400307 0.322729
0.335091 0.411029 0.333450
0.352141 0.421751 0.344172
0.369191 0.432472 0.354894
0.386241 0.443194 0.365616
0.403291 0.453916 0.376338
0.420341 0.464638 0.387060
0.437392 0.475360 0.397782
0.454442 0.486082 0.408504
0.471492 0.496804 0.419226
0.488542 0.507526 0.429948
0.505592 0.518248 0.440670
0.522642 0.528970 0.451392
0.539692 0.539692 0.462114
0.556742 0.550414 0.472836
0.573792 0.561136 0.483558
0.590842 0.571858 0.494280
0.607892 0.582580 0.505002
0.624942 0.593302 0.515724
0.641992 0.604024 0.526446
0.659043 0.614746 0.537168
0.676093 0.625468 0.547890
0.693143 0.636190 0.558611
0.710193 0.646912 0.569333
0.727243 0.657634 0.580055
0.744293 0.668355 0.590777
0.761343 0.679077 0.601499
0.778393 0.689799 0.612221
0.795443 0.700521 0.622943
0.270890 0.384796 0.300890
0.287940 0.395518 0.311612
0.304990 0.406240 0.322334
0.322040 0.416962 0.333056
0.339090 0.427684 0.343778
0.356141 0.438406 0.354500
0.373191 0.449128 0.365222
0.390241 0.459850 0.375944
0.407291 0.470572 0.386666
0.424341 0.481294 0.397388
0.441391 0.492016 0.408110
0.458441 0.502738 0.418832
0.475491 0.513460 0.429554
0.492541 0.524182 0.440276
0.509591 0.534904 0.450997
0.526641 0.545626 0.461719
0.543691 0.556348 0.472441
0.560741 0.567070 0.483163
0.577792 0.577792 0.493885
0.594842 0.588514 0.504607
0.611892 0.599235 0.515329
0.628942 0.609957 0.526051
0.645992 0.620679 0.536773
0.663042 0.631401 0.547495
0.680092 0.642123 0.558217
0.697142 0.652845 0.568939
0.714192 0.663567 0.579661
0.731242 0.674289 0.590383
0.748292 0.685011 0.601105
0.765342 0.695733 0.611827
0.782393 0.706455 0.622549
0.799443 0.717177 0.633271
0.816493 0.727899 0.643993
0.291940 0.412174 0.321940
0.308990 0.422896 0.332662
0.326040 0.433618 0.343384
0.343090 0.444340 0.354105
0.360140 0.455062 0.364827
0.377190 0.465784 0.375549
0.394240 0.476506 0.386271
0.411290 0.487228 0.396993
0.428340 0.497950 0.407715
0.445390 0.508672 0.418437
0.462440 0.519394 0.429159
0.479490 0.530115 0.439881
0.496541 0.540837 0.450603
0.513591 0.551559 0.461325
0.530641 0.562281 0.472047
0.547691 0.573003 0.482769
0.564741 0.583725 0.493491
0.581791 0.594447 0.504213
0.598841 0.605169 0.514935
0.615891 0.615891 0.525657
0.632941 0.626613 0.536379
0.649991 0.637335 0.547101
0.667041 0.648057 0.557823
0.684091 0.658779 0.568545
0.701141 0.669501 0.579266
0.718192 0.680223 0.589988
0.735242 0.690945 0.600710
0.752292 0.701667 0.611432
0.769342 0.712389 0.622154
0.786392 0.723111 0.632876
0.803442 0.733833 0.643598
0.820492 0.744555 0.654320
0.837542 0.755276 0.665042
0.312989 0.439552 0.342989
0.330039 0.450274 0.353711
0.347089 0.460995 0.364433
0.364139 0.471717 0.375155
0.381189 0.482439 0.385877
0.398239 0.493161 0.396599
0.415290 0.503883 0.407321
0.432340 0.514605 0.418043
0.449390 0.525327 0.428765
0.466440 0.536049 0.439487
0.483490 0.546771 0.450209
0.500540 0.557493 0.460931
0.517590 0.568215 0.471653
0.534640 0.578937 0.482374
0.551690 0.589659 0.493096
0.568740 0.600381 0.503818
0.585790 0.611103 0.514540
0.602840 0.621825 0.525262
0.619890 0.632547 0.535984
0.636941 0.643269 0.546706
0.653991 0.653991 0.557428
0.671041 0.664713 0.568150
0.688091 0.675435 0.578872
0.705141 0.686156 0.589594
0.722191 0.696878 0.600316
0.739241 0.707600 0.611038
0.756291 0.718322 0.621760
0.773341 0.729044 0.632482
0.790391 0.739766 0.643204
0.807441 0.750488 0.653926
0.824491 0.761210 0.664648
0.841541 0.771932 0.675370
0.858592 0.782654 0.686092
0.334039 0.466929 0.364039
0.351089 0.477651 0.374760
0.368139 0.488373 0.385482
0.385189 0.499095 0.396204
0.402239 0.509817 0.406926
0.419289 0.520539 0.417648
0.436339 0.531261 0.428370
0.453389 0.541983 0.439092
0.470439 0.552705 0.449814
0.487489 0.563427 0.460536
0.504539 0.574149 0.471258
0.521589 0.584871 0.481980
0.538639 0.595593 0.492702
0.555690 0.606315 0.503424
0.572740 0.617036 0.514146
0.589790 0.627758 0.524868
0.606840 0.638480 0.535590
0.623890 0.649202 0.546312
0.640940 0.659924 0.557034
0.657990 0.670646 0.567756
0.675040 0.681368 0.578478
0.692090 0.692090 0.589200
0.709140 0.702812 0.599921
0.726190 0.713534 0.610643
0.743240 0.724256 0.621365
0.760290 0.734978 0.632087
0.777341 0.745700 0.642809
0.794391 0.756422 0.653531
0.811441 0.767144 0.664253
0.828491 0.777866 0.674975
0.845541 0.788588 0.685697
0.862591 0.799310 0.696419
0.879641 0.810032 0.707141
0.355088 0.494307 0.385088
0.372138 0.505029 0.395810
0.389188 0.515751 0.406532
0.406238 0.526473 0.417254
0.423288 0.537195 0.427976
0.440338 0.547916 0.438698
0.457388 0.558638 0.449420
0.474439 0.569360 0.460142
0.491489 0.580082 0.470864
0.508539 0.590804 0.481586
0.525589 0.601526 0.492308
0.542639 0.612248 0.503029
0.559689 0.622970 0.513751
0.576739 0.633692 0.524473
0.593789 0.644414 0.535195
0.610839 0.655136 0.545917
0.627889 0.665858 0.556639
0.644939 0.676580 0.567361
0.661989 0.687302 0.578083
0.679039 0.698024 0.588805
0.696090 0.708746 0.599527
0.713140 0.719468 0.610249
0.730190 0.730190 0.620971
0.747240 0.740912 0.631693
0.764290 0.751634 0.642415
0.781340 0.762356 0.653137
0.798390 0.773078 0.663859
0.815440 0.783799 0.674581
0.832490 0.794521 0.685303
0.849540 0.805243 0.696025
0.866590 0.815965 0.706747
0.883640 0.826687 0.717469
0.900690 0.837409 0.728190
0.376137 0.521684 0.406137
0.393187 0.532406 0.416859
0.410238 0.543128 0.427581
0.427288 0.553850 0.438303
0.444338 0.564572 0.449025
0.461388 0.575294 0.459747
0.478438 0.586016 0.470469
0.495488 0.596738 0.481191
0.512538 0.607460 0.491913
0.529588 0.618182 0.502635
0.546638 0.628904 0.513357
0.563688 0.639626 0.524079
0.580738 0.650348 0.534801
0.597788 0.661070 0.545523
0.614839 0.671792 0.556245
0.631889 0.682514 0.566967
0.648939 0.693236 0.577689
0.665989 0.703958 0.588411
0.683039 0.714679 0.599133
0.700089 0.725401 0.609855
0.717139 0.736123 0.620576
0.734189 0.746845 0.631298
0.751239 0.757567 0.642020
0.768289 0.768289 0.652742
0.785339 0.779011 0.663464
0.802389 0.789733 0.674186
0.819439 0.800455 0.684908
0.836490 0.811177 0.695630
0.853540 0.821899 0.706352
0.870590 0.832621 0.717074
0.887640 0.843343 0.727796
0.904690 0.854065 0.738518
0.921740 0.864787 0.749240
0.397187 0.549062 0.427187
0.414237 0.559784 0.437909
0.431287 0.570506 0.448631
0.448337 0.581228 0.459353
0.465387 0.591950 0.470075
0.482437 0.602672 0.480797
0.499487 0.613394 0.491519
0.516537 0.624116 0.502241
0.533587 0.634838 0.512963
0.550638 0.645559 0.523684
0.567688 0.656281 0.534406
0.584738 0.667003 0.545128
0.601788 0.677725 0.555850
0.618838 0.688447 0.566572
0.635888 0.699169 0.577294
0.652938 0.709891 0.588016
0.669988 0.720613 0.598738
0.687038 0.731335 0.609460
0.704088 0.742057 0.620182
0.721138 0.752779 0.630904
0.738188 0.763501 0.641626
0.755239 0.774223 0.652348
0.772289 0.784945 0.663070
0.789339 0.795667 0.673792
0.806389 0.806389 0.684514
0.823439 0.817111 0.695236
0.840489 0.827833 0.705958
0.857539 0.838555 0.716680
0.874589 0.849277 0.727402
0.891639 0.859999 0.738124
0.908689 0.870720 0.748845
0.925739 0.881442 0.759567
0.942789 0.892164 0.770289
0.418236 0.576439 0.448236
0.435286 0.587161 0.458958
0.452336 0.597883 0.469680
0.469387 0.608605 0.480402
0.486437 0.619327 0.491124
0.503487 0.630049 0.501846
0.520537 0.640771 0.512568
0.537587 0.651493 0.523290
0.554637 0.662215 0.534012
0.571687 0.672937 0.544734
0.588737 0.683659 0.555456
0.605787 0.694381 0.566178
0.622837 0.705103 0.576900
0.639887 0.715825 0.587622
0.656937 0.726547 0.598344
0.673987 0.737269 0.609066
0.691038 0.747991 0.619788
0.708088 0.758713 0.630510
0.725138 0.769435 0.641231
0.742188 0.780157 0.651953
0.759238 0.790879 0.662675
0.776288 0.801600 0.673397
0.793338 0.812322 0.684119
0.810388 0.823044 0.694841
0.827438 0.833766 0.705563
0.844488 0.844488 0.716285
0.861538 0.855210 0.727007
0.878588 0.865932 0.737729
0.895639 0.876654 0.748451
0.912689 0.887376 0.759173
0.929739 0.898098 0.769895
0.946789 0.908820 0.780617
0.963839 0.919542 0.791339
0.439286 0.603817 0.469286
0.456336 0.614539 0.480008
0.473386 0.625261 0.490730
0.490436 0.635983 0.501452
0.507486 0.646705 0.512174
0.524536 0.657427 0.522896
0.541586 0.668149 0.533617
0.558636 0.678871 0.544339
0.575686 0.689593 0.555061
0.592736 0.700315 0.565783
0.609787 0.711037 0.576505
0.626837 0.721759 0.587227
0.643887 0.732480 0.597949
0.660937 0.743202 0.608671
0.677987 0.753924 0.619393
0.695037 0.764646 0.630115
0.712087 0.775368 0.640837
0.729137 0.786090 0.651559
0.746187 0.796812 0.662281
0.763237 0.807534 0.673003
0.780287 0.818256 0.683725
0.797337 0.828978 0.694447
0.814388 0.839700 0.705169
0.831438 0.850422 0.715891
0.848488 0.861144 0.726613
0.865538 0.871866 0.737335
0.882588 0.882588 0.748057
