luts/golden_hour.cube
TITLE "Golden Hour"
LUT_3D_SIZE 9
DOMAIN_MIN 0.0 0.0 0.0
DOMAIN_MAX 1.0 1.0 1.0
0.080000 0.060000 0.020000
0.209375 0.060000 0.020000
0.338750 0.060000 0.020000
0.468125 0.060000 0.020000
0.597500 0.060000 0.020000
0.726875 0.060000 0.020000
0.856250 0.060000 0.020000
0.980000 0.060000 0.020000
0.980000 0.060000 0.020000
0.080000 0.178125 0.020000
0.209375 0.178125 0.020000
0.338750 0.178125 0.020000
0.468125 0.178125 0.020000
0.597500 0.178125 0.020000
0.726875 0.178125 0.020000
0.856250 0.178125 0.020000
0.980000 0.178125 0.020000
0.980000 0.178125 0.020000
0.080000 0.296250 0.020000
0.209375 0.296250 0.020000
0.338750 0.296250 0.020000
0.468125 0.296250 0.020000
0.597500 0.296250 0.020000
0.726875 0.296250 0.020000
0.856250 0.296250 0.020000
0.980000 0.296250 0.020000
0.980000 0.296250 0.020000
0.080000 0.414375 0.020000
0.209375 0.414375 0.020000
0.338750 0.414375 0.020000
0.468125 0.414375 0.020000
0.597500 0.414375 0.020000
0.726875 0.414375 0.020000
0.856250 0.414375 0.020000
0.980000 0.414375 0.020000
0.980000 0.414375 0.020000
0.080000 0.532500 0.020000
0.209375 0.532500 0.020000
0.338750 0.532500 0.020000
0.468125 0.532500 0.020000
0.597500 0.532500 0.020000
0.726875 0.532500 0.020000
0.856250 0.532500 0.020000
0.982836 0.534391 0.020709
0.982836 0.534391 0.020709
0.080000 0.650625 0.020000
0.209375 0.650625 0.020000
0.338750 0.650625 0.020000
0.468125 0.650625 0.020000
0.597500 0.650625 0.020000
0.727427 0.650993 0.020138
0.870728 0.660277 0.023619
1.000000 0.669157 0.026950
1.000000 0.669157 0.026950
0.080000 0.768750 0.020000
0.209375 0.768750 0.020000
0.338750 0.768750 0.020000
0.468125 0.768750 0.020000
0.609088 0.776475 0.022897
0.752389 0.785759 0.026378
0.895690 0.795043 0.029860
1.000000 0.803924 0.033190
1.000000 0.803924 0.033190
0.080000 0.886875 0.020000
0.209375 0.886875 0.020000
0.347448 0.892674 0.022175
0.490749 0.901958 0.025656
0.634050 0.911242 0.029138
0.777351 0.920526 0.032619
0.920652 0.929810 0.036100
1.000000 0.938690 0.039431
1.000000 0.938690 0.039431
0.080000 0.960000 0.020000
0.219600 0.966817 0.022556
0.362901 0.976101 0.026038
0.506202 0.985385 0.029519
0.649503 0.994669 0.033001
0.792804 1.000000 0.036482
0.936105 1.000000 0.039964
1.000000 1.000000 0.043294
1.000000 1.000000 0.043294
0.080000 0.060000 0.110000
0.209375 0.060000 0.110000
0.338750 0.060000 0.110000
0.468125 0.060000 0.110000
0.597500 0.060000 0.110000
0.726875 0.060000 0.110000
0.856250 0.060000 0.110000
0.980000 0.060000 0.110000
0.980000 0.060000 0.110000
0.080000 0.178125 0.110000
0.209375 0.178125 0.110000
0.338750 0.178125 0.110000
0.468125 0.178125 0.110000
0.597500 0.178125 0.110000
0.726875 0.178125 0.110000
0.856250 0.178125 0.110000
0.980000 0.178125 0.110000
0.980000 0.178125 0.110000
0.080000 0.296250 0.110000
0.209375 0.296250 0.110000
0.338750 0.296250 0.110000
0.468125 0.296250 0.110000
0.597500 0.296250 0.110000
0.726875 0.296250 0.110000
0.856250 0.296250 0.110000
0.980000 0.296250 0.110000
0.980000 0.296250 0.110000
0.080000 0.414375 0.110000
0.209375 0.414375 0.110000
0.338750 0.414375 0.110000
0.468125 0.414375 0.110000
0.597500 0.414375 0.110000
0.726875 0.414375 0.110000
0.856250 0.414375 0.110000
0.980000 0.414375 0.110000
0.980000 0.414375 0.110000
0.080000 0.532500 0.110000
0.209375 0.532500 0.110000
0.338750 0.532500 0.110000
0.468125 0.532500 0.110000
0.597500 0.532500 0.110000
0.726875 0.532500 0.110000
0.856250 0.532500 0.110000
0.986529 0.536853 0.111632
0.986529 0.536853 0.111632
0.080000 0.650625 0.110000
0.209375 0.650625 0.110000
0.338750 0.650625 0.110000
0.468125 0.650625 0.110000
0.597500 0.650625 0.110000
0.731120 0.653455 0.111061
0.874421 0.662739 0.114543
1.000000 0.671619 0.117873
1.000000 0.671619 0.117873
0.080000 0.768750 0.110000
0.209375 0.768750 0.110000
0.338750 0.768750 0.110000
0.469481 0.769654 0.110339
0.612782 0.778938 0.113820
0.756082 0.788222 0.117302
0.899383 0.797506 0.120783
1.000000 0.806386 0.124113
1.000000 0.806386 0.124113
0.080000 0.886875 0.110000
0.209375 0.886875 0.110000
0.351142 0.895136 0.113098
0.494443 0.904420 0.116579
0.637744 0.913704 0.120061
0.781045 0.922988 0.123542
0.924346 0.932272 0.127024
1.000000 0.941152 0.130354
1.000000 0.941152 0.130354
0.080000 0.960000 0.110000
0.223294 0.969279 0.113480
0.366595 0.978563 0.116961
0.509896 0.987847 0.120443
0.653196 0.997131 0.123924
0.796497 1.000000 0.127406
0.939798 1.000000 0.130887
1.000000 1.000000 0.134217
1.000000 1.000000 0.134217
0.080000 0.060000 0.200000
0.209375 0.060000 0.200000
0.338750 0.060000 0.200000
0.468125 0.060000 0.200000
0.597500 0.060000 0.200000
0.726875 0.060000 0.200000
0.856250 0.060000 0.200000
0.980000 0.060000 0.200000
0.980000 0.060000 0.200000
0.080000 0.178125 0.200000
0.209375 0.178125 0.200000
0.338750 0.178125 0.200000
0.468125 0.178125 0.200000
0.597500 0.178125 0.200000
0.726875 0.178125 0.200000
0.856250 0.178125 0.200000
0.980000 0.178125 0.200000
0.980000 0.178125 0.200000
0.080000 0.296250 0.200000
0.209375 0.296250 0.200000
0.338750 0.296250 0.200000
0.468125 0.296250 0.200000
0.597500 0.296250 0.200000
0.726875 0.296250 0.200000
0.856250 0.296250 0.200000
0.980000 0.296250 0.200000
0.980000 0.296250 0.200000
0.080000 0.414375 0.200000
0.209375 0.414375 0.200000
0.338750 0.414375 0.200000
0.468125 0.414375 0.200000
0.597500 0.414375 0.200000
0.726875 0.414375 0.200000
0.856250 0.414375 0.200000
0.980000 0.414375 0.200000
0.980000 0.414375 0.200000
0.080000 0.532500 0.200000
0.209375 0.532500 0.200000
0.338750 0.532500 0.200000
0.468125 0.532500 0.200000
0.597500 0.532500 0.200000
0.726875 0.532500 0.200000
0.856250 0.532500 0.200000
0.990223 0.539315 0.202556
0.990223 0.539315 0.202556
0.080000 0.650625 0.200000
0.209375 0.650625 0.200000
0.338750 0.650625 0.200000
0.468125 0.650625 0.200000
0.597500 0.650625 0.200000
0.734814 0.655918 0.201985
0.878115 0.665202 0.205466
1.000000 0.674082 0.208796
1.000000 0.674082 0.208796
0.080000 0.768750 0.200000
0.209375 0.768750 0.200000
0.338750 0.768750 0.200000
0.473174 0.772116 0.201262
0.616475 0.781400 0.204744
0.759776 0.790684 0.208225
0.903077 0.799968 0.211707
1.000000 0.808848 0.215037
1.000000 0.808848 0.215037
0.080000 0.886875 0.200000
0.211535 0.888315 0.200540
0.354835 0.897599 0.204021
0.498136 0.906883 0.207503
0.641437 0.916167 0.210984
0.784738 0.925451 0.214466
0.928039 0.934734 0.217947
1.000000 0.943615 0.221277
1.000000 0.943615 0.221277
0.083686 0.962458 0.200922
0.226987 0.971742 0.204403
0.370288 0.981025 0.207885
0.513589 0.990309 0.211366
0.656890 0.999593 0.214848
0.800191 1.000000 0.218329
0.943492 1.000000 0.221810
1.000000 1.000000 0.225141
1.000000 1.000000 0.225141
0.080000 0.060000 0.290000
0.209375 0.060000 0.290000
0.338750 0.060000 0.290000
0.468125 0.060000 0.290000
0.597500 0.060000 0.290000
0.726875 0.060000 0.290000
0.856250 0.060000 0.290000
0.980000 0.060000 0.290000
0.980000 0.060000 0.290000
0.080000 0.178125 0.290000
0.209375 0.178125 0.290000
0.338750 0.178125 0.290000
0.468125 0.178125 0.290000
0.597500 0.178125 0.290000
0.726875 0.178125 0.290000
0.856250 0.178125 0.290000
0.980000 0.178125 0.290000
0.980000 0.178125 0.290000
0.080000 0.296250 0.290000
0.209375 0.296250 0.290000
0.338750 0.296250 0.290000
0.468125 0.296250 0.290000
0.597500 0.296250 0.290000
0.726875 0.296250 0.290000
0.856250 0.296250 0.290000
0.980000 0.296250 0.290000
0.980000 0.296250 0.290000
0.080000 0.414375 0.290000
0.209375 0.414375 0.290000
0.338750 0.414375 0.290000
0.468125 0.414375 0.290000
0.597500 0.414375 0.290000
0.726875 0.414375 0.290000
0.856250 0.414375 0.290000
0.980000 0.414375 0.290000
0.980000 0.414375 0.290000
0.080000 0.532500 0.290000
0.209375 0.532500 0.290000
0.338750 0.532500 0.290000
0.468125 0.532500 0.290000
0.597500 0.532500 0.290000
0.726875 0.532500 0.290000
0.856846 0.532897 0.290149
0.993917 0.541778 0.293479
0.993917 0.541778 0.293479
0.080000 0.650625 0.290000
0.209375 0.650625 0.290000
0.338750 0.650625 0.290000
0.468125 0.650625 0.290000
0.597500 0.650625 0.290000
0.738507 0.658380 0.292908
0.881808 0.667664 0.296390
1.000000 0.676544 0.299720
1.000000 0.676544 0.299720
0.080000 0.768750 0.290000
0.209375 0.768750 0.290000
0.338750 0.768750 0.290000
0.476868 0.774579 0.292186
0.620169 0.783863 0.295667
0.763470 0.793146 0.299149
0.906771 0.802430 0.302630
1.000000 0.811311 0.305960
1.000000 0.811311 0.305960
0.080000 0.886875 0.290000
0.215228 0.890777 0.291463
0.358529 0.900061 0.294945
0.501830 0.909345 0.298426
0.645131 0.918629 0.301908
0.788432 0.927913 0.305389
0.931733 0.937197 0.308871
1.000000 0.946077 0.312201
1.000000 0.946077 0.312201
0.087380 0.964920 0.291845
0.230681 0.974204 0.295326
0.373982 0.983488 0.298808
0.517283 0.992772 0.302289
0.660584 1.000000 0.305771
0.803885 1.000000 0.309252
0.947186 1.000000 0.312734
1.000000 1.000000 0.316064
1.000000 1.000000 0.316064
0.080000 0.060000 0.380000
0.209375 0.060000 0.380000
0.338750 0.060000 0.380000
0.468125 0.060000 0.380000
0.597500 0.060000 0.380000
0.726875 0.060000 0.380000
0.856250 0.060000 0.380000
0.980000 0.060000 0.380000
0.980000 0.060000 0.380000
0.080000 0.178125 0.380000
0.209375 0.178125 0.380000
0.338750 0.178125 0.380000
0.468125 0.178125 0.380000
0.597500 0.178125 0.380000
0.726875 0.178125 0.380000
0.856250 0.178125 0.380000
0.980000 0.178125 0.380000
0.980000 0.178125 0.380000
0.080000 0.296250 0.380000
0.209375 0.296250 0.380000
0.338750 0.296250 0.380000
0.468125 0.296250 0.380000
0.597500 0.296250 0.380000
0.726875 0.296250 0.380000
0.856250 0.296250 0.380000
0.980000 0.296250 0.380000
0.980000 0.296250 0.380000
0.080000 0.414375 0.380000
0.209375 0.414375 0.380000
0.338750 0.414375 0.380000
0.468125 0.414375 0.380000
0.597500 0.414375 0.380000
0.726875 0.414375 0.380000
0.856250 0.414375 0.380000
0.980000 0.414375 0.380000
0.980000 0.414375 0.380000
0.080000 0.532500 0.380000
0.209375 0.532500 0.380000
0.338750 0.532500 0.380000
0.468125 0.532500 0.380000
0.597500 0.532500 0.380000
0.726875 0.532500 0.380000
0.860540 0.535360 0.381072
0.997610 0.544240 0.384403
0.997610 0.544240 0.384403
0.080000 0.650625 0.380000
0.209375 0.650625 0.380000
0.338750 0.650625 0.380000
0.468125 0.650625 0.380000
0.598900 0.651558 0.380350
0.742201 0.660842 0.383832
0.885502 0.670126 0.387313
1.000000 0.679007 0.390643
1.000000 0.679007 0.390643
0.080000 0.768750 0.380000
0.209375 0.768750 0.380000
0.338750 0.768750 0.380000
0.480561 0.777041 0.383109
0.623862 0.786325 0.386591
0.767163 0.795609 0.390072
0.910464 0.804893 0.393554
1.000000 0.813773 0.396884
1.000000 0.813773 0.396884
0.080000 0.886875 0.380000
0.218922 0.893240 0.382387
0.362223 0.902523 0.385868
0.505524 0.911807 0.389350
0.648825 0.921091 0.392831
0.792125 0.930375 0.396313
0.935426 0.939659 0.399794
1.000000 0.948540 0.403124
1.000000 0.948540 0.403124
0.091074 0.967382 0.382768
0.234375 0.976666 0.386250
0.377675 0.985950 0.389731
0.520976 0.995234 0.393213
0.664277 1.000000 0.396694
0.807578 1.000000 0.400176
0.950879 1.000000 0.403657
1.000000 1.000000 0.406987
1.000000 1.000000 0.406987
0.080000 0.060000 0.470000
0.209375 0.060000 0.470000
0.338750 0.060000 0.470000
0.468125 0.060000 0.470000
0.597500 0.060000 0.470000
0.726875 0.060000 0.470000
0.856250 0.060000 0.470000
0.980000 0.060000 0.470000
0.980000 0.060000 0.470000
0.080000 0.178125 0.470000
0.209375 0.178125 0.470000
0.338750 0.178125 0.470000
0.468125 0.178125 0.470000
0.597500 0.178125 0.470000
0.726875 0.178125 0.470000
0.856250 0.178125 0.470000
0.980000 0.178125 0.470000
0.980000 0.178125 0.470000
0.080000 0.296250 0.470000
0.209375 0.296250 0.470000
0.338750 0.296250 0.470000
0.468125 0.296250 0.470000
0.597500 0.296250 0.470000
0.726875 0.296250 0.470000
0.856250 0.296250 0.470000
0.980000 0.296250 0.470000
0.980000 0.296250 0.470000
0.080000 0.414375 0.470000
0.209375 0.414375 0.470000
0.338750 0.414375 0.470000
0.468125 0.414375 0.470000
0.597500 0.414375 0.470000
0.726875 0.414375 0.470000
0.856250 0.414375 0.470000
0.980000 0.414375 0.470000
0.980000 0.414375 0.470000
0.080000 0.532500 0.470000
0.209375 0.532500 0.470000
0.338750 0.532500 0.470000
0.468125 0.532500 0.470000
0.597500 0.532500 0.470000
0.726875 0.532500 0.470000
0.864233 0.537822 0.471996
1.000000 0.546703 0.475326
1.000000 0.546703 0.475326
0.080000 0.650625 0.470000
0.209375 0.650625 0.470000
0.338750 0.650625 0.470000
0.468125 0.650625 0.470000
0.602594 0.654021 0.471273
0.745895 0.663305 0.474755
0.889196 0.672589 0.478236
1.000000 0.681469 0.481567
1.000000 0.681469 0.481567
0.080000 0.768750 0.470000
0.209375 0.768750 0.470000
0.340954 0.770219 0.470551
0.484255 0.779503 0.474033
0.627556 0.788787 0.477514
0.770857 0.798071 0.480995
0.914158 0.807355 0.484477
1.000000 0.816236 0.487807
1.000000 0.816236 0.487807
0.080000 0.886875 0.470000
0.222615 0.895702 0.473310
0.365916 0.904986 0.476792
0.509217 0.914270 0.480273
0.652518 0.923554 0.483755
0.795819 0.932838 0.487236
0.939120 0.942122 0.490717
1.000000 0.951002 0.494048
1.000000 0.951002 0.494048
0.094767 0.969845 0.473692
0.238068 0.979129 0.477173
0.381369 0.988413 0.480655
0.524670 0.997697 0.484136
0.667971 1.000000 0.487618
0.811272 1.000000 0.491099
0.954573 1.000000 0.494581
1.000000 1.000000 0.497911
1.000000 1.000000 0.497911
0.080000 0.060000 0.560000
0.209375 0.060000 0.560000
0.338750 0.060000 0.560000
0.468125 0.060000 0.560000
0.597500 0.060000 0.560000
0.726875 0.060000 0.560000
0.856250 0.060000 0.560000
0.980000 0.060000 0.560000
0.980000 0.060000 0.560000
0.080000 0.178125 0.560000
0.209375 0.178125 0.560000
0.338750 0.178125 0.560000
0.468125 0.178125 0.560000
0.597500 0.178125 0.560000
0.726875 0.178125 0.560000
0.856250 0.178125 0.560000
0.980000 0.178125 0.560000
0.980000 0.178125 0.560000
0.080000 0.296250 0.560000
0.209375 0.296250 0.560000
0.338750 0.296250 0.560000
0.468125 0.296250 0.560000
0.597500 0.296250 0.560000
0.726875 0.296250 0.560000
0.856250 0.296250 0.560000
0.980000 0.296250 0.560000
0.980000 0.296250 0.560000
0.080000 0.414375 0.560000
0.209375 0.414375 0.560000
0.338750 0.414375 0.560000
0.468125 0.414375 0.560000
0.597500 0.414375 0.560000
0.726875 0.414375 0.560000
0.856250 0.414375 0.560000
0.980035 0.414399 0.560009
0.980035 0.414399 0.560009
0.080000 0.532500 0.560000
0.209375 0.532500 0.560000
0.338750 0.532500 0.560000
0.468125 0.532500 0.560000
0.597500 0.532500 0.560000
0.726875 0.532500 0.560000
0.867927 0.540285 0.562919
1.000000 0.549165 0.566249
1.000000 0.549165 0.566249
0.080000 0.650625 0.560000
0.209375 0.650625 0.560000
0.338750 0.650625 0.560000
0.468125 0.650625 0.560000
0.606287 0.656483 0.562197
0.749588 0.665767 0.565678
0.892889 0.675051 0.569160
1.000000 0.683931 0.572490
1.000000 0.683931 0.572490
0.080000 0.768750 0.560000
0.209375 0.768750 0.560000
0.344648 0.772682 0.561474
0.487949 0.781966 0.564956
0.631250 0.791250 0.568437
0.774550 0.800534 0.571919
0.917851 0.809818 0.575400
1.000000 0.818698 0.578730
1.000000 0.818698 0.578730
0.083008 0.888880 0.560752
0.226309 0.898164 0.564233
0.369610 0.907448 0.567715
0.512911 0.916732 0.571196
0.656212 0.926016 0.574678
0.799513 0.935300 0.578159
0.942814 0.944584 0.581641
1.000000 0.953464 0.584971
1.000000 0.953464 0.584971
0.098461 0.972307 0.564615
0.241762 0.981591 0.568097
0.385063 0.990875 0.571578
0.528364 1.000000 0.575060
0.671664 1.000000 0.578541
0.814965 1.000000 0.582023
0.958266 1.000000 0.585504
1.000000 1.000000 0.588834
1.000000 1.000000 0.588834
0.080000 0.060000 0.650000
0.209375 0.060000 0.650000
0.338750 0.060000 0.650000
0.468125 0.060000 0.650000
0.597500 0.060000 0.650000
0.726875 0.060000 0.650000
0.856250 0.060000 0.650000
0.980000 0.060000 0.650000
0.980000 0.060000 0.650000
0.080000 0.178125 0.650000
0.209375 0.178125 0.650000
0.338750 0.178125 0.650000
0.468125 0.178125 0.650000
0.597500 0.178125 0.650000
0.726875 0.178125 0.650000
0.856250 0.178125 0.650000
0.980000 0.178125 0.650000
0.980000 0.178125 0.650000
0.080000 0.296250 0.650000
0.209375 0.296250 0.650000
0.338750 0.296250 0.650000
0.468125 0.296250 0.650000
0.597500 0.296250 0.650000
0.726875 0.296250 0.650000
0.856250 0.296250 0.650000
0.980000 0.296250 0.650000
0.980000 0.296250 0.650000
0.080000 0.414375 0.650000
0.209375 0.414375 0.650000
0.338750 0.414375 0.650000
0.468125 0.414375 0.650000
0.597500 0.414375 0.650000
0.726875 0.414375 0.650000
0.856250 0.414375 0.650000
0.983729 0.416861 0.650932
0.983729 0.416861 0.650932
0.080000 0.532500 0.650000
0.209375 0.532500 0.650000
0.338750 0.532500 0.650000
0.468125 0.532500 0.650000
0.597500 0.532500 0.650000
0.728320 0.533463 0.650361
0.871621 0.542747 0.653843
1.000000 0.551627 0.657173
1.000000 0.551627 0.657173
0.080000 0.650625 0.650000
0.209375 0.650625 0.650000
0.338750 0.650625 0.650000
0.468125 0.650625 0.650000
0.609981 0.658946 0.653120
0.753282 0.668230 0.656602
0.896583 0.677514 0.660083
1.000000 0.686394 0.663413
1.000000 0.686394 0.663413
0.080000 0.768750 0.650000
0.209375 0.768750 0.650000
0.348341 0.775144 0.652398
0.491642 0.784428 0.655879
0.634943 0.793712 0.659361
0.778244 0.802996 0.662842
0.921545 0.812280 0.666324
1.000000 0.821160 0.669654
1.000000 0.821160 0.669654
0.086702 0.891343 0.651675
0.230003 0.900627 0.655157
0.373303 0.909911 0.658638
0.516604 0.919195 0.662120
0.659905 0.928479 0.665601
0.803206 0.937763 0.669083
0.946507 0.947046 0.672564
1.000000 0.955927 0.675894
1.000000 0.955927 0.675894
0.102154 0.974770 0.655539
0.245455 0.984054 0.659020
0.388756 0.993337 0.662502
0.532057 1.000000 0.665983
0.675358 1.000000 0.669465
0.818659 1.000000 0.672946
0.961960 1.000000 0.676427
1.000000 1.000000 0.679758
1.000000 1.000000 0.679758
0.080000 0.060000 0.740000
0.209375 0.060000 0.740000
0.338750 0.060000 0.740000
0.468125 0.060000 0.740000
0.597500 0.060000 0.740000
0.726875 0.060000 0.740000
0.856250 0.060000 0.740000
0.980000 0.060000 0.740000
0.980000 0.060000 0.740000
0.080000 0.178125 0.740000
0.209375 0.178125 0.740000
0.338750 0.178125 0.740000
0.468125 0.178125 0.740000
0.597500 0.178125 0.740000
0.726875 0.178125 0.740000
0.856250 0.178125 0.740000
0.980000 0.178125 0.740000
0.980000 0.178125 0.740000
0.080000 0.296250 0.740000
0.209375 0.296250 0.740000
0.338750 0.296250 0.740000
0.468125 0.296250 0.740000
0.597500 0.296250 0.740000
0.726875 0.296250 0.740000
0.856250 0.296250 0.740000
0.980000 0.296250 0.740000
0.980000 0.296250 0.740000
0.080000 0.414375 0.740000
0.209375 0.414375 0.740000
0.338750 0.414375 0.740000
0.468125 0.414375 0.740000
0.597500 0.414375 0.740000
0.726875 0.414375 0.740000
0.856250 0.414375 0.740000
0.987423 0.419323 0.741856
0.987423 0.419323 0.741856
0.080000 0.532500 0.740000
0.209375 0.532500 0.740000
0.338750 0.532500 0.740000
0.468125 0.532500 0.740000
0.597500 0.532500 0.740000
0.732013 0.535926 0.741285
0.875314 0.545209 0.744766
1.000000 0.554090 0.748096
1.000000 0.554090 0.748096
0.080000 0.650625 0.740000
0.209375 0.650625 0.740000
0.338750 0.650625 0.740000
0.470374 0.652124 0.740562
0.613675 0.661408 0.744044
0.756976 0.670692 0.747525
0.900276 0.679976 0.751007
1.000000 0.688856 0.754337
1.000000 0.688856 0.754337
0.080000 0.768750 0.740000
0.209375 0.768750 0.740000
0.352035 0.777607 0.743321
0.495336 0.786891 0.746803
0.638637 0.796175 0.750284
0.781938 0.805458 0.753766
0.925239 0.814742 0.757247
1.000000 0.823623 0.760577
1.000000 0.823623 0.760577
0.090395 0.893805 0.742599
0.233696 0.903089 0.746080
0.376997 0.912373 0.749562
0.520298 0.921657 0.753043
0.663599 0.930941 0.756525
0.806900 0.940225 0.760006
0.950201 0.949509 0.763488
1.000000 0.958389 0.766818
1.000000 0.958389 0.766818
0.105848 0.977232 0.746462
0.249149 0.986516 0.749943
0.392450 0.995800 0.753425
0.535751 1.000000 0.756906
0.679052 1.000000 0.760388
0.822353 1.000000 0.763869
0.965654 1.000000 0.767351
1.000000 1.000000 0.770681
1.000000 1.000000 0.770681
