luts/golden_hour.cube
TITLE "Golden Hour"
LUT_3D_SIZE 33
DOMAIN_MIN 0.0 0.0 0.0
DOMAIN_MAX 1.0 1.0 1.0
0.080000 0.060000 0.020000
0.112344 0.060000 0.020000
0.144688 0.060000 0.020000
0.177031 0.060000 0.020000
0.209375 0.060000 0.020000
0.241719 0.060000 0.020000
0.274062 0.060000 0.020000
0.306406 0.060000 0.020000
0.338750 0.060000 0.020000
0.371094 0.060000 0.020000
0.403438 0.060000 0.020000
0.435781 0.060000 0.020000
0.468125 0.060000 0.020000
0.500469 0.060000 0.020000
0.532812 0.060000 0.020000
0.565156 0.060000 0.020000
0.597500 0.060000 0.020000
0.629844 0.060000 0.020000
0.662188 0.060000 0.020000
0.694531 0.060000 0.020000
0.726875 0.060000 0.020000
0.759219 0.060000 0.020000
0.791562 0.060000 0.020000
0.823906 0.060000 0.020000
0.856250 0.060000 0.020000
0.888594 0.060000 0.020000
0.920937 0.060000 0.020000
0.953281 0.060000 0.020000
0.980000 0.060000 0.020000
0.980000 0.060000 0.020000
0.980000 0.060000 0.020000
0.980000 0.060000 0.020000
0.980000 0.060000 0.020000
0.080000 0.089531 0.020000
0.112344 0.089531 0.020000
0.144688 0.089531 0.020000
0.177031 0.089531 0.020000
0.209375 0.089531 0.020000
0.241719 0.089531 0.020000
0.274062 0.089531 0.020000
0.306406 0.089531 0.020000
0.338750 0.089531 0.020000
0.371094 0.089531 0.020000
0.403438 0.089531 0.020000
0.435781 0.089531 0.020000
0.468125 0.089531 0.020000
0.500469 0.089531 0.020000
0.532812 0.089531 0.020000
0.565156 0.089531 0.020000
0.597500 0.089531 0.020000
0.629844 0.089531 0.020000
0.662188 0.089531 0.020000
0.694531 0.089531 0.020000
0.726875 0.089531 0.020000
0.759219 0.089531 0.020000
0.791562 0.089531 0.020000
0.823906 0.089531 0.020000
0.856250 0.089531 0.020000
0.888594 0.089531 0.020000
0.920937 0.089531 0.020000
0.953281 0.089531 0.020000
0.980000 0.089531 0.020000
0.980000 0.089531 0.020000
0.980000 0.089531 0.020000
0.980000 0.089531 0.020000
0.980000 0.089531 0.020000
0.080000 0.119063 0.020000
0.112344 0.119063 0.020000
0.144688 0.119063 0.020000
0.177031 0.119063 0.020000
0.209375 0.119063 0.020000
0.241719 0.119063 0.020000
0.274062 0.119063 0.020000
0.306406 0.119063 0.020000
0.338750 0.119063 0.020000
0.371094 0.119063 0.020000
0.403438 0.119063 0.020000
0.435781 0.119063 0.020000
0.468125 0.119063 0.020000
0.500469 0.119063 0.020000
0.532812 0.119063 0.020000
0.565156 0.119063 0.020000
0.597500 0.119063 0.020000
0.629844 0.119063 0.020000
0.662188 0.119063 0.020000
0.694531 0.119063 0.020000
0.726875 0.119063 0.020000
0.759219 0.119063 0.020000
0.791562 0.119063 0.020000
0.823906 0.119063 0.020000
0.856250 0.119063 0.020000
0.888594 0.119063 0.020000
0.920937 0.119063 0.020000
0.953281 0.119063 0.020000
0.980000 0.119063 0.020000
0.980000 0.119063 0.020000
0.980000 0.119063 0.020000
0.980000 0.119063 0.020000
0.980000 0.119063 0.020000
0.080000 0.148594 0.020000
0.112344 0.148594 0.020000
0.144688 0.148594 0.020000
0.177031 0.148594 0.020000
0.209375 0.148594 0.020000
0.241719 0.148594 0.020000
0.274062 0.148594 0.020000
0.306406 0.148594 0.020000
0.338750 0.148594 0.020000
0.371094 0.148594 0.020000
0.403438 0.148594 0.020000
0.435781 0.148594 0.020000
0.468125 0.148594 0.020000
0.500469 0.148594 0.020000
0.532812 0.148594 0.020000
0.565156 0.148594 0.020000
0.597500 0.148594 0.020000
0.629844 0.148594 0.020000
0.662188 0.148594 0.020000
0.694531 0.148594 0.020000
0.726875 0.148594 0.020000
0.759219 0.148594 0.020000
0.791562 0.148594 0.020000
0.823906 0.148594 0.020000
0.856250 0.148594 0.020000
0.888594 0.148594 0.020000
0.920937 0.148594 0.020000
0.953281 0.148594 0.020000
0.980000 0.148594 0.020000
0.980000 0.148594 0.020000
0.980000 0.148594 0.020000
0.980000 0.148594 0.020000
0.980000 0.148594 0.020000
0.080000 0.178125 0.020000
0.112344 0.178125 0.020000
0.144688 0.178125 0.020000
0.177031 0.178125 0.020000
0.209375 0.178125 0.020000
0.241719 0.178125 0.020000
0.274062 0.178125 0.020000
0.306406 0.178125 0.020000
0.338750 0.178125 0.020000
0.371094 0.178125 0.020000
0.403438 0.178125 0.020000
0.435781 0.178125 0.020000
0.468125 0.178125 0.020000
0.500469 0.178125 0.020000
0.532812 0.178125 0.020000
0.565156 0.178125 0.020000
0.597500 0.178125 0.020000
0.629844 0.178125 0.020000
0.662188 0.178125 0.020000
0.694531 0.178125 0.020000
0.726875 0.178125 0.020000
0.759219 0.178125 0.020000
0.791562 0.178125 0.020000
0.823906 0.178125 0.020000
0.856250 0.178125 0.020000
0.888594 0.178125 0.020000
0.920937 0.178125 0.020000
0.953281 0.178125 0.020000
0.980000 0.178125 0.020000
0.980000 0.178125 0.020000
0.980000 0.178125 0.020000
0.980000 0.178125 0.020000
0.980000 0.178125 0.020000
0.080000 0.207656 0.020000
0.112344 0.207656 0.020000
0.144688 0.207656 0.020000
0.177031 0.207656 0.020000
0.209375 0.207656 0.020000
0.241719 0.207656 0.020000
0.274062 0.207656 0.020000
0.306406 0.207656 0.020000
0.338750 0.207656 0.020000
0.371094 0.207656 0.020000
0.403438 0.207656 0.020000
0.435781 0.207656 0.020000
0.468125 0.207656 0.020000
0.500469 0.207656 0.020000
0.532812 0.207656 0.020000
0.565156 0.207656 0.020000
0.597500 0.207656 0.020000
0.629844 0.207656 0.020000
0.662188 0.207656 0.020000
0.694531 0.207656 0.020000
0.726875 0.207656 0.020000
0.759219 0.207656 0.020000
0.791562 0.207656 0.020000
0.823906 0.207656 0.020000
0.856250 0.207656 0.020000
0.888594 0.207656 0.020000
0.920937 0.207656 0.020000
0.953281 0.207656 0.020000
0.980000 0.207656 0.020000
0.980000 0.207656 0.020000
0.980000 0.207656 0.020000
0.980000 0.207656 0.020000
0.980000 0.207656 0.020000
0.080000 0.237187 0.020000
0.112344 0.237187 0.020000
0.144688 0.237187 0.020000
0.177031 0.237187 0.020000
0.209375 0.237187 0.020000
0.241719 0.237187 0.020000
0.274062 0.237187 0.020000
0.306406 0.237187 0.020000
0.338750 0.237187 0.020000
0.371094 0.237187 0.020000
0.403438 0.237187 0.020000
0.435781 0.237187 0.020000
0.468125 0.237187 0.020000
0.500469 0.237187 0.020000
0.532812 0.237187 0.020000
0.565156 0.237187 0.020000
0.597500 0.237187 0.020000
0.629844 0.237187 0.020000
0.662188 0.237187 0.020000
0.694531 0.237187 0.020000
0.726875 0.237187 0.020000
0.759219 0.237187 0.020000
0.791562 0.237187 0.020000
0.823906 0.237187 0.020000
0.856250 0.237187 0.020000
0.888594 0.237187 0.020000
0.920937 0.237187 0.020000
0.953281 0.237187 0.020000
0.980000 0.237187 0.020000
0.980000 0.237187 0.020000
0.980000 0.237187 0.020000
0.980000 0.237187 0.020000
0.980000 0.237187 0.020000
0.080000 0.266719 0.020000
0.112344 0.266719 0.020000
0.144688 0.266719 0.020000
0.177031 0.266719 0.020000
0.209375 0.266719 0.020000
0.241719 0.266719 0.020000
0.274062 0.266719 0.020000
0.306406 0.266719 0.020000
0.338750 0.266719 0.020000
0.371094 0.266719 0.020000
0.403438 0.266719 0.020000
0.435781 0.266719 0.020000
0.468125 0.266719 0.020000
0.500469 0.266719 0.020000
0.532812 0.266719 0.020000
0.565156 0.266719 0.020000
0.597500 0.266719 0.020000
0.629844 0.266719 0.020000
0.662188 0.266719 0.020000
0.694531 0.266719 0.020000
0.726875 0.266719 0.020000
0.759219 0.266719 0.020000
0.791562 0.266719 0.020000
0.823906 0.266719 0.020000
0.856250 0.266719 0.020000
0.888594 0.266719 0.020000
0.920937 0.266719 0.020000
0.953281 0.266719 0.020000
0.980000 0.266719 0.020000
0.980000 0.266719 0.020000
0.980000 0.266719 0.020000
0.980000 0.266719 0.020000
0.980000 0.266719 0.020000
0.080000 0.296250 0.020000
0.112344 0.296250 0.020000
0.144688 0.296250 0.020000
0.177031 0.296250 0.020000
0.209375 0.296250 0.020000
0.241719 0.296250 0.020000
0.274062 0.296250 0.020000
0.306406 0.296250 0.020000
0.338750 0.296250 0.020000
0.371094 0.296250 0.020000
0.403438 0.296250 0.020000
0.435781 0.296250 0.020000
0.468125 0.296250 0.020000
0.500469 0.296250 0.020000
0.532812 0.296250 0.020000
0.565156 0.296250 0.020000
0.597500 0.296250 0.020000
0.629844 0.296250 0.020000
0.662188 0.296250 0.020000
0.694531 0.296250 0.020000
0.726875 0.296250 0.020000
0.759219 0.296250 0.020000
0.791562 0.296250 0.020000
0.823906 0.296250 0.020000
0.856250 0.296250 0.020000
0.888594 0.296250 0.020000
0.920937 0.296250 0.020000
0.953281 0.296250 0.020000
0.980000 0.296250 0.020000
0.980000 0.296250 0.020000
0.980000 0.296250 0.020000
0.980000 0.296250 0.020000
0.980000 0.296250 0.020000
0.080000 0.325781 0.020000
0.112344 0.325781 0.020000
0.144688 0.325781 0.020000
0.177031 0.325781 0.020000
0.209375 0.325781 0.020000
0.241719 0.325781 0.020000
0.274062 0.325781 0.020000
0.306406 0.325781 0.020000
0.338750 0.325781 0.020000
0.371094 0.325781 0.020000
0.403438 0.325781 0.020000
0.435781 0.325781 0.020000
0.468125 0.325781 0.020000
0.500469 0.325781 0.020000
0.532812 0.325781 0.020000
0.565156 0.325781 0.020000
0.597500 0.325781 0.020000
0.629844 0.325781 0.020000
0.662188 0.325781 0.020000
0.694531 0.325781 0.020000
0.726875 0.325781 0.020000
0.759219 0.325781 0.020000
0.791562 0.325781 0.020000
0.823906 0.325781 0.020000
0.856250 0.325781 0.020000
0.888594 0.325781 0.020000
0.920937 0.325781 0.020000
0.953281 0.325781 0.020000
0.980000 0.325781 0.020000
0.980000 0.325781 0.020000
0.980000 0.325781 0.020000
0.980000 0.325781 0.020000
0.980000 0.325781 0.020000
0.080000 0.355313 0.020000
0.112344 0.355313 0.020000
0.144688 0.355313 0.020000
0.177031 0.355313 0.020000
0.209375 0.355313 0.020000
0.241719 0.355313 0.020000
0.274062 0.355313 0.020000
0.306406 0.355313 0.020000
0.338750 0.355313 0.020000
0.371094 0.355313 0.020000
0.403438 0.355313 0.020000
0.435781 0.355313 0.020000
0.468125 0.355313 0.020000
0.500469 0.355313 0.020000
0.532812 0.355313 0.020000
0.565156 0.355313 0.020000
0.597500 0.355313 0.020000
0.629844 0.355313 0.020000
0.662188 0.355313 0.020000
0.694531 0.355313 0.020000
0.726875 0.355313 0.020000
0.759219 0.355313 0.020000
0.791562 0.355313 0.020000
0.823906 0.355313 0.020000
0.856250 0.355313 0.020000
0.888594 0.355313 0.020000
0.920937 0.355313 0.020000
0.953281 0.355313 0.020000
0.980000 0.355313 0.020000
0.980000 0.355313 0.020000
0.980000 0.355313 0.020000
0.980000 0.355313 0.020000
0.980000 0.355313 0.020000
0.080000 0.384844 0.020000
0.112344 0.384844 0.020000
0.144688 0.384844 0.020000
0.177031 0.384844 0.020000
0.209375 0.384844 0.020000
0.241719 0.384844 0.020000
0.274062 0.384844 0.020000
0.306406 0.384844 0.020000
0.338750 0.384844 0.020000
0.371094 0.384844 0.020000
0.403438 0.384844 0.020000
0.435781 0.384844 0.020000
0.468125 0.384844 0.020000
0.500469 0.384844 0.020000
0.532812 0.384844 0.020000
0.565156 0.384844 0.020000
0.597500 0.384844 0.020000
0.629844 0.384844 0.020000
0.662188 0.384844 0.020000
0.694531 0.384844 0.020000
0.726875 0.384844 0.020000
0.759219 0.384844 0.020000
0.791562 0.384844 0.020000
0.823906 0.384844 0.020000
0.856250 0.384844 0.020000
0.888594 0.384844 0.020000
0.920937 0.384844 0.020000
0.953281 0.384844 0.020000
0.980000 0.384844 0.020000
0.980000 0.384844 0.020000
0.980000 0.384844 0.020000
0.980000 0.384844 0.020000
0.980000 0.384844 0.020000
0.080000 0.414375 0.020000
0.112344 0.414375 0.020000
0.144688 0.414375 0.020000
0.177031 0.414375 0.020000
0.209375 0.414375 0.020000
0.241719 0.414375 0.020000
0.274062 0.414375 0.020000
0.306406 0.414375 0.020000
0.338750 0.414375 0.020000
0.371094 0.414375 0.020000
0.403438 0.414375 0.020000
0.435781 0.414375 0.020000
0.468125 0.414375 0.020000
0.500469 0.414375 0.020000
0.532812 0.414375 0.020000
0.565156 0.414375 0.020000
0.597500 0.414375 0.020000
0.629844 0.414375 0.020000
0.662188 0.414375 0.020000
0.694531 0.414375 0.020000
0.726875 0.414375 0.020000
0.759219 0.414375 0.020000
0.791562 0.414375 0.020000
0.823906 0.414375 0.020000
0.856250 0.414375 0.020000
0.888594 0.414375 0.020000
0.920937 0.414375 0.020000
0.953281 0.414375 0.020000
0.980000 0.414375 0.020000
0.980000 0.414375 0.020000
0.980000 0.414375 0.020000
0.980000 0.414375 0.020000
0.980000 0.414375 0.020000
0.080000 0.443906 0.020000
0.112344 0.443906 0.020000
0.144688 0.443906 0.020000
0.177031 0.443906 0.020000
0.209375 0.443906 0.020000
0.241719 0.443906 0.020000
0.274062 0.443906 0.020000
0.306406 0.443906 0.020000
0.338750 0.443906 0.020000
0.371094 0.443906 0.020000
0.403438 0.443906 0.020000
0.435781 0.443906 0.020000
0.468125 0.443906 0.020000
0.500469 0.443906 0.020000
0.532812 0.443906 0.020000
0.565156 0.443906 0.020000
0.597500 0.443906 0.020000
0.629844 0.443906 0.020000
0.662188 0.443906 0.020000
0.694531 0.443906 0.020000
0.726875 0.443906 0.020000
0.759219 0.443906 0.020000
0.791562 0.443906 0.020000
0.823906 0.443906 0.020000
0.856250 0.443906 0.020000
0.888594 0.443906 0.020000
0.920937 0.443906 0.020000
0.953281 0.443906 0.020000
0.980000 0.443906 0.020000
0.980000 0.443906 0.020000
0.980000 0.443906 0.020000
0.980000 0.443906 0.020000
0.980000 0.443906 0.020000
0.080000 0.473438 0.020000
0.112344 0.473438 0.020000
0.144688 0.473438 0.020000
0.177031 0.473438 0.020000
0.209375 0.473438 0.020000
0.241719 0.473438 0.020000
0.274062 0.473438 0.020000
0.306406 0.473438 0.020000
0.338750 0.473438 0.020000
0.371094 0.473438 0.020000
0.403438 0.473438 0.020000
0.435781 0.473438 0.020000
0.468125 0.473438 0.020000
0.500469 0.473438 0.020000
0.532812 0.473438 0.020000
0.565156 0.473438 0.020000
0.597500 0.473438 0.020000
0.629844 0.473438 0.020000
0.662188 0.473438 0.020000
0.694531 0.473438 0.020000
0.726875 0.473438 0.020000
0.759219 0.473438 0.020000
0.791562 0.473438 0.020000
0.823906 0.473438 0.020000
0.856250 0.473438 0.020000
0.888594 0.473438 0.020000
0.920937 0.473438 0.020000
0.953281 0.473438 0.020000
0.980000 0.473438 0.020000
0.980000 0.473438 0.020000
0.980000 0.473438 0.020000
0.980000 0.473438 0.020000
0.980000 0.473438 0.020000
0.080000 0.502969 0.020000
0.112344 0.502969 0.020000
0.144688 0.502969 0.020000
0.177031 0.502969 0.020000
0.209375 0.502969 0.020000
0.241719 0.502969 0.020000
0.274062 0.502969 0.020000
0.306406 0.502969 0.020000
0.338750 0.502969 0.020000
0.371094 0.502969 0.020000
0.403438 0.502969 0.020000
0.435781 0.502969 0.020000
0.468125 0.502969 0.020000
0.500469 0.502969 0.020000
0.532812 0.502969 0.020000
0.565156 0.502969 0.020000
0.597500 0.502969 0.020000
0.629844 0.502969 0.020000
0.662188 0.502969 0.020000
0.694531 0.502969 0.020000
0.726875 0.502969 0.020000
0.759219 0.502969 0.020000
0.791562 0.502969 0.020000
0.823906 0.502969 0.020000
0.856250 0.502969 0.020000
0.888594 0.502969 0.020000
0.920937 0.502969 0.020000
0.953281 0.502969 0.020000
0.980000 0.502969 0.020000
0.980000 0.502969 0.020000
0.980000 0.502969 0.020000
0.980000 0.502969 0.020000
0.980000 0.502969 0.020000
0.080000 0.532500 0.020000
0.112344 0.532500 0.020000
0.144688 0.532500 0.020000
0.177031 0.532500 0.020000
0.209375 0.532500 0.020000
0.241719 0.532500 0.020000
0.274062 0.532500 0.020000
0.306406 0.532500 0.020000
0.338750 0.532500 0.020000
0.371094 0.532500 0.020000
0.403438 0.532500 0.020000
0.435781 0.532500 0.020000
0.468125 0.532500 0.020000
0.500469 0.532500 0.020000
0.532812 0.532500 0.020000
0.565156 0.532500 0.020000
0.597500 0.532500 0.020000
0.629844 0.532500 0.020000
0.662188 0.532500 0.020000
0.694531 0.532500 0.020000
0.726875 0.532500 0.020000
0.759219 0.532500 0.020000
0.791562 0.532500 0.020000
0.823906 0.532500 0.020000
0.856250 0.532500 0.020000
0.888594 0.532500 0.020000
0.920937 0.532500 0.020000
0.953281 0.532500 0.020000
0.982836 0.534391 0.020709
0.982836 0.534391 0.020709
0.982836 0.534391 0.020709
0.982836 0.534391 0.020709
0.982836 0.534391 0.020709
0.080000 0.562031 0.020000
0.112344 0.562031 0.020000
0.144688 0.562031 0.020000
0.177031 0.562031 0.020000
0.209375 0.562031 0.020000
0.241719 0.562031 0.020000
0.274062 0.562031 0.020000
0.306406 0.562031 0.020000
0.338750 0.562031 0.020000
0.371094 0.562031 0.020000
0.403438 0.562031 0.020000
0.435781 0.562031 0.020000
0.468125 0.562031 0.020000
0.500469 0.562031 0.020000
0.532812 0.562031 0.020000
0.565156 0.562031 0.020000
0.597500 0.562031 0.020000
0.629844 0.562031 0.020000
0.662188 0.562031 0.020000
0.694531 0.562031 0.020000
0.726875 0.562031 0.020000
0.759219 0.562031 0.020000
0.791562 0.562031 0.020000
0.823906 0.562031 0.020000
0.856250 0.562031 0.020000
0.888594 0.562031 0.020000
0.923656 0.563844 0.020680
0.959482 0.566165 0.021550
0.989076 0.568082 0.022269
0.989076 0.568082 0.022269
0.989076 0.568082 0.022269
0.989076 0.568082 0.022269
0.989076 0.568082 0.022269
0.080000 0.591563 0.020000
0.112344 0.591563 0.020000
0.144688 0.591563 0.020000
0.177031 0.591563 0.020000
0.209375 0.591563 0.020000
0.241719 0.591563 0.020000
0.274062 0.591563 0.020000
0.306406 0.591563 0.020000
0.338750 0.591563 0.020000
0.371094 0.591563 0.020000
0.403438 0.591563 0.020000
0.435781 0.591563 0.020000
0.468125 0.591563 0.020000
0.500469 0.591563 0.020000
0.532812 0.591563 0.020000
0.565156 0.591563 0.020000
0.597500 0.591563 0.020000
0.629844 0.591563 0.020000
0.662188 0.591563 0.020000
0.694531 0.591563 0.020000
0.726875 0.591563 0.020000
0.759219 0.591563 0.020000
0.791562 0.591563 0.020000
0.823906 0.591563 0.020000
0.858247 0.592894 0.020499
0.894072 0.595215 0.021370
0.929897 0.597536 0.022240
0.965722 0.599856 0.023110
0.995317 0.601774 0.023829
0.995317 0.601774 0.023829
0.995317 0.601774 0.023829
0.995317 0.601774 0.023829
0.995317 0.601774 0.023829
0.080000 0.621094 0.020000
0.112344 0.621094 0.020000
0.144688 0.621094 0.020000
0.177031 0.621094 0.020000
0.209375 0.621094 0.020000
0.241719 0.621094 0.020000
0.274062 0.621094 0.020000
0.306406 0.621094 0.020000
0.338750 0.621094 0.020000
0.371094 0.621094 0.020000
0.403438 0.621094 0.020000
0.435781 0.621094 0.020000
0.468125 0.621094 0.020000
0.500469 0.621094 0.020000
0.532812 0.621094 0.020000
0.565156 0.621094 0.020000
0.597500 0.621094 0.020000
0.629844 0.621094 0.020000
0.662188 0.621094 0.020000
0.694531 0.621094 0.020000
0.726875 0.621094 0.020000
0.759219 0.621094 0.020000
0.792837 0.621943 0.020319
0.828662 0.624264 0.021189
0.864487 0.626585 0.022059
0.900312 0.628906 0.022930
0.936138 0.631227 0.023800
0.971963 0.633548 0.024670
1.000000 0.635465 0.025389
1.000000 0.635465 0.025389
1.000000 0.635465 0.025389
1.000000 0.635465 0.025389
1.000000 0.635465 0.025389
0.080000 0.650625 0.020000
0.112344 0.650625 0.020000
0.144688 0.650625 0.020000
0.177031 0.650625 0.020000
0.209375 0.650625 0.020000
0.241719 0.650625 0.020000
0.274062 0.650625 0.020000
0.306406 0.650625 0.020000
0.338750 0.650625 0.020000
0.371094 0.650625 0.020000
0.403438 0.650625 0.020000
0.435781 0.650625 0.020000
0.468125 0.650625 0.020000
0.500469 0.650625 0.020000
0.532812 0.650625 0.020000
0.565156 0.650625 0.020000
0.597500 0.650625 0.020000
0.629844 0.650625 0.020000
0.662188 0.650625 0.020000
0.694531 0.650625 0.020000
0.727427 0.650993 0.020138
0.763252 0.653314 0.021008
0.799077 0.655635 0.021879
0.834902 0.657956 0.022749
0.870728 0.660277 0.023619
0.906553 0.662598 0.024490
0.942378 0.664919 0.025360
0.978203 0.667240 0.026231
1.000000 0.669157 0.026950
1.000000 0.669157 0.026950
1.000000 0.669157 0.026950
1.000000 0.669157 0.026950
1.000000 0.669157 0.026950
0.080000 0.680156 0.020000
0.112344 0.680156 0.020000
0.144688 0.680156 0.020000
0.177031 0.680156 0.020000
0.209375 0.680156 0.020000
0.241719 0.680156 0.020000
0.274062 0.680156 0.020000
0.306406 0.680156 0.020000
0.338750 0.680156 0.020000
0.371094 0.680156 0.020000
0.403438 0.680156 0.020000
0.435781 0.680156 0.020000
0.468125 0.680156 0.020000
0.500469 0.680156 0.020000
0.532812 0.680156 0.020000
0.565156 0.680156 0.020000
0.597500 0.680156 0.020000
0.629844 0.680156 0.020000
0.662188 0.680156 0.020000
0.697842 0.682363 0.020828
0.733667 0.684684 0.021698
0.769492 0.687005 0.022568
0.805318 0.689326 0.023439
0.841143 0.691647 0.024309
0.876968 0.693968 0.025180
0.912793 0.696289 0.026050
0.948619 0.698610 0.026920
0.984444 0.700931 0.027791
1.000000 0.702849 0.028510
1.000000 0.702849 0.028510
1.000000 0.702849 0.028510
1.000000 0.702849 0.028510
1.000000 0.702849 0.028510
0.080000 0.709688 0.020000
0.112344 0.709688 0.020000
0.144688 0.709688 0.020000
0.177031 0.709688 0.020000
0.209375 0.709688 0.020000
0.241719 0.709688 0.020000
0.274062 0.709688 0.020000
0.306406 0.709688 0.020000
0.338750 0.709688 0.020000
0.371094 0.709688 0.020000
0.403438 0.709688 0.020000
0.435781 0.709688 0.020000
0.468125 0.709688 0.020000
0.500469 0.709688 0.020000
0.532812 0.709688 0.020000
0.565156 0.709688 0.020000
0.597500 0.709688 0.020000
0.632432 0.711413 0.020647
0.668257 0.713734 0.021517
0.704083 0.716055 0.022388
0.739908 0.718376 0.023258
0.775733 0.720697 0.024129
0.811558 0.723018 0.024999
0.847383 0.725339 0.025869
0.883209 0.727660 0.026740
0.919034 0.729981 0.027610
0.954859 0.732302 0.028480
0.990684 0.734623 0.029351
1.000000 0.736540 0.030070
1.000000 0.736540 0.030070
1.000000 0.736540 0.030070
1.000000 0.736540 0.030070
1.000000 0.736540 0.030070
0.080000 0.739219 0.020000
0.112344 0.739219 0.020000
0.144688 0.739219 0.020000
0.177031 0.739219 0.020000
0.209375 0.739219 0.020000
0.241719 0.739219 0.020000
0.274062 0.739219 0.020000
0.306406 0.739219 0.020000
0.338750 0.739219 0.020000
0.371094 0.739219 0.020000
0.403438 0.739219 0.020000
0.435781 0.739219 0.020000
0.468125 0.739219 0.020000
0.500469 0.739219 0.020000
0.532812 0.739219 0.020000
0.567022 0.740463 0.020466
0.602847 0.742784 0.021337
0.638673 0.745105 0.022207
0.674498 0.747426 0.023078
0.710323 0.749747 0.023948
0.746148 0.752068 0.024818
0.781974 0.754389 0.025689
0.817799 0.756710 0.026559
0.853624 0.759031 0.027429
0.889449 0.761352 0.028300
0.925274 0.763673 0.029170
0.961100 0.765994 0.030041
0.996925 0.768315 0.030911
1.000000 0.770232 0.031630
1.000000 0.770232 0.031630
1.000000 0.770232 0.031630
1.000000 0.770232 0.031630
1.000000 0.770232 0.031630
0.080000 0.768750 0.020000
0.112344 0.768750 0.020000
0.144688 0.768750 0.020000
0.177031 0.768750 0.020000
0.209375 0.768750 0.020000
0.241719 0.768750 0.020000
0.274062 0.768750 0.020000
0.306406 0.768750 0.020000
0.338750 0.768750 0.020000
0.371094 0.768750 0.020000
0.403438 0.768750 0.020000
0.435781 0.768750 0.020000
0.468125 0.768750 0.020000
0.501612 0.769512 0.020286
0.537437 0.771833 0.021156
0.573263 0.774154 0.022027
0.609088 0.776475 0.022897
0.644913 0.778796 0.023767
0.680738 0.781117 0.024638
0.716564 0.783438 0.025508
0.752389 0.785759 0.026378
0.788214 0.788080 0.027249
0.824039 0.790401 0.028119
0.859865 0.792722 0.028990
0.895690 0.795043 0.029860
0.931515 0.797364 0.030730
0.967340 0.799685 0.031601
1.000000 0.802006 0.032471
1.000000 0.803924 0.033190
1.000000 0.803924 0.033190
1.000000 0.803924 0.033190
1.000000 0.803924 0.033190
1.000000 0.803924 0.033190
0.080000 0.798281 0.020000
0.112344 0.798281 0.020000
0.144688 0.798281 0.020000
0.177031 0.798281 0.020000
0.209375 0.798281 0.020000
0.241719 0.798281 0.020000
0.274062 0.798281 0.020000
0.306406 0.798281 0.020000
0.338750 0.798281 0.020000
0.371094 0.798281 0.020000
0.403438 0.798281 0.020000
0.436202 0.798562 0.020105
0.472028 0.800883 0.020976
0.507853 0.803204 0.021846
0.543678 0.805525 0.022716
0.579503 0.807846 0.023587
0.615328 0.810167 0.024457
0.651154 0.812488 0.025327
0.686979 0.814809 0.026198
0.722804 0.817130 0.027068
0.758629 0.819451 0.027939
0.794455 0.821772 0.028809
0.830280 0.824093 0.029679
0.866105 0.826414 0.030550
0.901930 0.828735 0.031420
0.937756 0.831056 0.032290
0.973581 0.833377 0.033161
1.000000 0.835698 0.034031
1.000000 0.837615 0.034750
1.000000 0.837615 0.034750
1.000000 0.837615 0.034750
1.000000 0.837615 0.034750
1.000000 0.837615 0.034750
0.080000 0.827813 0.020000
0.112344 0.827813 0.020000
0.144688 0.827813 0.020000
0.177031 0.827813 0.020000
0.209375 0.827813 0.020000
0.241719 0.827813 0.020000
0.274062 0.827813 0.020000
0.306406 0.827813 0.020000
0.338750 0.827813 0.020000
0.371094 0.827813 0.020000
0.406618 0.829933 0.020795
0.442443 0.832254 0.021665
0.478268 0.834575 0.022536
0.514093 0.836896 0.023406
0.549919 0.839217 0.024277
0.585744 0.841538 0.025147
0.621569 0.843859 0.026017
0.657394 0.846180 0.026888
0.693220 0.848501 0.027758
0.729045 0.850821 0.028628
0.764870 0.853142 0.029499
0.800695 0.855463 0.030369
0.836520 0.857784 0.031239
0.872346 0.860105 0.032110
0.908171 0.862426 0.032980
0.943996 0.864747 0.033851
0.979821 0.867068 0.034721
