luts/golden_hour.cube
TITLE "Golden Hour"
LUT_3D_SIZE 5
DOMAIN_MIN 0.0 0.0 0.0
DOMAIN_MAX 1.0 1.0 1.0
0.080000 0.060000 0.020000
0.338750 0.060000 0.020000
0.597500 0.060000 0.020000
0.856250 0.060000 0.020000
0.980000 0.060000 0.020000
0.080000 0.296250 0.020000
0.338750 0.296250 0.020000
0.597500 0.296250 0.020000
0.856250 0.296250 0.020000
0.980000 0.296250 0.020000
0.080000 0.532500 0.020000
0.338750 0.532500 0.020000
0.597500 0.532500 0.020000
0.856250 0.532500 0.020000
0.982836 0.534391 0.020709
0.080000 0.768750 0.020000
0.338750 0.768750 0.020000
0.609088 0.776475 0.022897
0.895690 0.795043 0.029860
1.000000 0.803924 0.033190
0.080000 0.960000 0.020000
0.362901 0.976101 0.026038
0.649503 0.994669 0.033001
0.936105 1.000000 0.039964
1.000000 1.000000 0.043294
0.080000 0.060000 0.200000
0.338750 0.060000 0.200000
0.597500 0.060000 0.200000
0.856250 0.060000 0.200000
0.980000 0.060000 0.200000
0.080000 0.296250 0.200000
0.338750 0.296250 0.200000
0.597500 0.296250 0.200000
0.856250 0.296250 0.200000
0.980000 0.296250 0.200000
0.080000 0.532500 0.200000
0.338750 0.532500 0.200000
0.597500 0.532500 0.200000
0.856250 0.532500 0.200000
0.990223 0.539315 0.202556
0.080000 0.768750 0.200000
0.338750 0.768750 0.200000
0.616475 0.781400 0.204744
0.903077 0.799968 0.211707
1.000000 0.808848 0.215037
0.083686 0.962458 0.200922
0.370288 0.981025 0.207885
0.656890 0.999593 0.214848
0.943492 1.000000 0.221810
1.000000 1.000000 0.225141
0.080000 0.060000 0.380000
0.338750 0.060000 0.380000
0.597500 0.060000 0.380000
0.856250 0.060000 0.380000
0.980000 0.060000 0.380000
0.080000 0.296250 0.380000
0.338750 0.296250 0.380000
0.597500 0.296250 0.380000
0.856250 0.296250 0.380000
0.980000 0.296250 0.380000
0.080000 0.532500 0.380000
0.338750 0.532500 0.380000
0.597500 0.532500 0.380000
0.860540 0.535360 0.381072
0.997610 0.544240 0.384403
0.080000 0.768750 0.380000
0.338750 0.768750 0.380000
0.623862 0.786325 0.386591
0.910464 0.804893 0.393554
1.000000 0.813773 0.396884
0.091074 0.967382 0.382768
0.377675 0.985950 0.389731
0.664277 1.000000 0.396694
0.950879 1.000000 0.403657
1.000000 1.000000 0.406987
0.080000 0.060000 0.560000
0.338750 0.060000 0.560000
0.597500 0.060000 0.560000
0.856250 0.060000 0.560000
0.980000 0.060000 0.560000
0.080000 0.296250 0.560000
0.338750 0.296250 0.560000
0.597500 0.296250 0.560000
0.856250 0.296250 0.560000
0.980000 0.296250 0.560000
0.080000 0.532500 0.560000
0.338750 0.532500 0.560000
0.597500 0.532500 0.560000
0.867927 0.540285 0.562919
1.000000 0.549165 0.566249
0.080000 0.768750 0.560000
0.344648 0.772682 0.561474
0.631250 0.791250 0.568437
0.917851 0.809818 0.575400
1.000000 0.818698 0.578730
0.098461 0.972307 0.564615
0.385063 0.990875 0.571578
0.671664 1.000000 0.578541
0.958266 1.000000 0.585504
1.000000 1.000000 0.588834
0.080000 0.060000 0.740000
0.338750 0.060000 0.740000
0.597500 0.060000 0.740000
0.856250 0.060000 0.740000
0.980000 0.060000 0.740000
0.080000 0.296250 0.740000
0.338750 0.296250 0.740000
0.597500 0.296250 0.740000
0.856250 0.296250 0.740000
0.980000 0.296250 0.740000
0.080000 0.532500 0.740000
0.338750 0.532500 0.740000
0.597500 0.532500 0.740000
0.875314 0.545209 0.744766
1.000000 0.554090 0.748096
0.080000 0.768750 0.740000
0.352035 0.777607 0.743321
0.638637 0.796175 0.750284
0.925239 0.814742 0.757247
1.000000 0.823623 0.760577
0.105848 0.977232 0.746462
0.392450 0.995800 0.753425
0.679052 1.000000 0.760388
0.965654 1.000000 0.767351
1.000000 1.000000 0.770681
