luts/neutral_clean.cube
TITLE "Neutral Clean"
LUT_3D_SIZE 5
DOMAIN_MIN 0.0 0.0 0.0
DOMAIN_MAX 1.0 1.0 1.0
0.000000 0.000000 0.000000
0.243133 0.000000 0.000000
0.552575 0.000000 0.000000
0.862017 0.000000 0.000000
1.000000 0.000000 0.000000
0.000000 0.233629 0.000000
0.223762 0.223762 0.000000
0.533204 0.211204 0.000000
0.842646 0.198646 0.000000
1.000000 0.188779 0.000000
0.000000 0.530975 0.000000
0.199108 0.521108 0.000000
0.508550 0.508550 0.000000
0.817992 0.495992 0.000000
1.000000 0.486125 0.000000
0.000000 0.828321 0.000000
0.174454 0.818454 0.000000
0.483896 0.805896 0.000000
0.793338 0.793338 0.000000
1.000000 0.783471 0.000000
0.000000 1.000000 0.000000
0.155083 1.000000 0.000000
0.464525 1.000000 0.000000
0.773967 1.000000 0.000000
1.000000 1.000000 0.000000
0.000000 0.000000 0.249238
0.239371 0.000000 0.239371
0.548813 0.000000 0.226813
0.858255 0.000000 0.214255
1.000000 0.000000 0.204388
0.000000 0.229867 0.229867
0.220000 0.220000 0.220000
0.529442 0.207442 0.207442
0.838884 0.194884 0.194884
1.000000 0.185017 0.185017
0.000000 0.527213 0.205213
0.195346 0.517346 0.195346
0.504788 0.504788 0.182788
0.814230 0.492230 0.170230
1.000000 0.482363 0.160363
0.000000 0.824559 0.180559
0.170692 0.814692 0.170692
0.480134 0.802134 0.158134
0.789576 0.789576 0.145576
1.000000 0.779709 0.135709
0.000000 1.000000 0.161188
0.151321 1.000000 0.151321
0.460763 1.000000 0.138763
0.770205 1.000000 0.126205
1.000000 1.000000 0.116338
0.000000 0.000000 0.566450
0.234583 0.000000 0.556583
0.544025 0.000000 0.544025
0.853467 0.000000 0.531467
1.000000 0.000000 0.521600
0.000000 0.225079 0.547079
0.215212 0.215212 0.537212
0.524654 0.202654 0.524654
0.834096 0.190096 0.512096
1.000000 0.180229 0.502229
0.000000 0.522425 0.522425
0.190558 0.512558 0.512558
0.500000 0.500000 0.500000
0.809442 0.487442 0.487442
1.000000 0.477575 0.477575
0.000000 0.819771 0.497771
0.165904 0.809904 0.487904
0.475346 0.797346 0.475346
0.784788 0.784788 0.462788
1.000000 0.774921 0.452921
0.000000 1.000000 0.478400
0.146533 1.000000 0.468533
0.455975 1.000000 0.455975
0.765417 1.000000 0.443417
1.000000 1.000000 0.433550
0.000000 0.000000 0.883662
0.229795 0.000000 0.873795
0.539237 0.000000 0.861237
0.848679 0.000000 0.848679
1.000000 0.000000 0.838812
0.000000 0.220291 0.864291
0.210424 0.210424 0.854424
0.519866 0.197866 0.841866
0.829308 0.185308 0.829308
1.000000 0.175441 0.819441
0.000000 0.517637 0.839637
0.185770 0.507770 0.829770
0.495212 0.495212 0.817212
0.804654 0.482654 0.804654
1.000000 0.472787 0.794787
0.000000 0.814983 0.814983
0.161116 0.805116 0.805116
0.470558 0.792558 0.792558
0.780000 0.780000 0.780000
1.000000 0.770133 0.770133
0.000000 1.000000 0.795612
0.141745 1.000000 0.785745
0.451187 1.000000 0.773187
0.760629 1.000000 0.760629
1.000000 1.000000 0.750762
0.000000 0.000000 1.000000
0.226033 0.000000 1.000000
0.535475 0.000000 1.000000
0.844917 0.000000 1.000000
1.000000 0.000000 1.000000
0.000000 0.216529 1.000000
0.206662 0.206662 1.000000
0.516104 0.194104 1.000000
0.825546 0.181546 1.000000
1.000000 0.171679 1.000000
0.000000 0.513875 1.000000
0.182008 0.504008 1.000000
0.491450 0.491450 1.000000
0.800892 0.478892 1.000000
1.000000 0.469025 1.000000
0.000000 0.811221 1.000000
0.157354 0.801354 1.000000
0.466796 0.788796 1.000000
0.776238 0.776238 1.000000
1.000000 0.766371 1.000000
0.000000 1.000000 1.000000
0.137983 1.000000 1.000000
0.447425 1.000000 1.000000
0.756867 1.000000 1.000000
1.000000 1.000000 1.000000
