luts/neutral_clean.cube
TITLE "Neutral Clean"
LUT_3D_SIZE 9
DOMAIN_MIN 0.0 0.0 0.0
DOMAIN_MAX 1.0 1.0 1.0
0.000000 0.000000 0.000000
0.088412 0.000000 0.000000
0.243133 0.000000 0.000000
0.397854 0.000000 0.000000
0.552575 0.000000 0.000000
0.707296 0.000000 0.000000
0.862017 0.000000 0.000000
1.000000 0.000000 0.000000
1.000000 0.000000 0.000000
0.000000 0.084956 0.000000
0.081368 0.081368 0.000000
0.236089 0.075089 0.000000
0.390810 0.068810 0.000000
0.545531 0.062531 0.000000
0.700252 0.056252 0.000000
0.854973 0.049973 0.000000
1.000000 0.043694 0.000000
1.000000 0.040106 0.000000
0.000000 0.233629 0.000000
0.069041 0.230041 0.000000
0.223762 0.223762 0.000000
0.378483 0.217483 0.000000
0.533204 0.211204 0.000000
0.687925 0.204925 0.000000
0.842646 0.198646 0.000000
0.997367 0.192367 0.000000
1.000000 0.188779 0.000000
0.000000 0.382302 0.000000
0.056714 0.378714 0.000000
0.211435 0.372435 0.000000
0.366156 0.366156 0.000000
0.520877 0.359877 0.000000
0.675598 0.353598 0.000000
0.830319 0.347319 0.000000
0.985040 0.341040 0.000000
1.000000 0.337452 0.000000
0.000000 0.530975 0.000000
0.044387 0.527387 0.000000
0.199108 0.521108 0.000000
0.353829 0.514829 0.000000
0.508550 0.508550 0.000000
0.663271 0.502271 0.000000
0.817992 0.495992 0.000000
0.972713 0.489713 0.000000
1.000000 0.486125 0.000000
0.000000 0.679648 0.000000
0.032060 0.676060 0.000000
0.186781 0.669781 0.000000
0.341502 0.663502 0.000000
0.496223 0.657223 0.000000
0.650944 0.650944 0.000000
0.805665 0.644665 0.000000
0.960386 0.638386 0.000000
1.000000 0.634798 0.000000
0.000000 0.828321 0.000000
0.019733 0.824733 0.000000
0.174454 0.818454 0.000000
0.329175 0.812175 0.000000
0.483896 0.805896 0.000000
0.638617 0.799617 0.000000
0.793338 0.793338 0.000000
0.948059 0.787059 0.000000
1.000000 0.783471 0.000000
0.000000 0.976994 0.000000
0.007406 0.973406 0.000000
0.162127 0.967127 0.000000
0.316848 0.960848 0.000000
0.471569 0.954569 0.000000
0.626290 0.948290 0.000000
0.781011 0.942011 0.000000
0.935732 0.935732 0.000000
1.000000 0.932144 0.000000
0.000000 1.000000 0.000000
0.000362 1.000000 0.000000
0.155083 1.000000 0.000000
0.309804 1.000000 0.000000
0.464525 1.000000 0.000000
0.619246 1.000000 0.000000
0.773967 1.000000 0.000000
0.928688 1.000000 0.000000
1.000000 1.000000 0.000000
0.000000 0.000000 0.090632
0.087044 0.000000 0.087044
0.241765 0.000000 0.080765
0.396486 0.000000 0.074486
0.551207 0.000000 0.068207
0.705928 0.000000 0.061928
0.860649 0.000000 0.055649
1.000000 0.000000 0.049370
1.000000 0.000000 0.045782
0.000000 0.083588 0.083588
0.080000 0.080000 0.080000
0.234721 0.073721 0.073721
0.389442 0.067442 0.067442
0.544163 0.061163 0.061163
0.698884 0.054884 0.054884
0.853605 0.048605 0.048605
1.000000 0.042326 0.042326
1.000000 0.038738 0.038738
0.000000 0.232261 0.071261
0.067673 0.228673 0.067673
0.222394 0.222394 0.061394
0.377115 0.216115 0.055115
0.531836 0.209836 0.048836
0.686557 0.203557 0.042557
0.841278 0.197278 0.036278
0.995999 0.190999 0.029999
1.000000 0.187411 0.026411
0.000000 0.380934 0.058934
0.055346 0.377346 0.055346
0.210067 0.371067 0.049067
0.364788 0.364788 0.042788
0.519509 0.358509 0.036509
0.674230 0.352230 0.030230
0.828951 0.345951 0.023951
0.983672 0.339672 0.017672
1.000000 0.336084 0.014084
0.000000 0.529607 0.046607
0.043019 0.526019 0.043019
0.197740 0.519740 0.036740
0.352461 0.513461 0.030461
0.507182 0.507182 0.024182
0.661903 0.500903 0.017903
0.816624 0.494624 0.011624
0.971345 0.488345 0.005345
1.000000 0.484757 0.001757
0.000000 0.678280 0.034280
0.030692 0.674692 0.030692
0.185413 0.668413 0.024413
0.340134 0.662134 0.018134
0.494855 0.655855 0.011855
0.649576 0.649576 0.005576
0.804297 0.643297 0.000000
0.959018 0.637018 0.000000
1.000000 0.633430 0.000000
0.000000 0.826953 0.021953
0.018365 0.823365 0.018365
0.173086 0.817086 0.012086
0.327807 0.810807 0.005807
0.482528 0.804528 0.000000
0.637249 0.798249 0.000000
0.791970 0.791970 0.000000
0.946691 0.785691 0.000000
1.000000 0.782103 0.000000
0.000000 0.975626 0.009626
0.006038 0.972038 0.006038
0.160759 0.965759 0.000000
0.315480 0.959480 0.000000
0.470201 0.953201 0.000000
0.624922 0.946922 0.000000
0.779643 0.940643 0.000000
0.934364 0.934364 0.000000
1.000000 0.930776 0.000000
0.000000 1.000000 0.002582
0.000000 1.000000 0.000000
0.153715 1.000000 0.000000
0.308436 1.000000 0.000000
0.463157 1.000000 0.000000
0.617878 1.000000 0.000000
0.772599 1.000000 0.000000
0.927320 1.000000 0.000000
1.000000 1.000000 0.000000
0.000000 0.000000 0.249238
0.084650 0.000000 0.245650
0.239371 0.000000 0.239371
0.394092 0.000000 0.233092
0.548813 0.000000 0.226813
0.703534 0.000000 0.220534
0.858255 0.000000 0.214255
1.000000 0.000000 0.207976
1.000000 0.000000 0.204388
0.000000 0.081194 0.242194
0.077606 0.077606 0.238606
0.232327 0.071327 0.232327
0.387048 0.065048 0.226048
0.541769 0.058769 0.219769
0.696490 0.052490 0.213490
0.851211 0.046211 0.207211
1.000000 0.039932 0.200932
1.000000 0.036344 0.197344
0.000000 0.229867 0.229867
0.065279 0.226279 0.226279
0.220000 0.220000 0.220000
0.374721 0.213721 0.213721
0.529442 0.207442 0.207442
0.684163 0.201163 0.201163
0.838884 0.194884 0.194884
0.993605 0.188605 0.188605
1.000000 0.185017 0.185017
0.000000 0.378540 0.217540
0.052952 0.374952 0.213952
0.207673 0.368673 0.207673
0.362394 0.362394 0.201394
0.517115 0.356115 0.195115
0.671836 0.349836 0.188836
0.826557 0.343557 0.182557
0.981278 0.337278 0.176278
1.000000 0.333690 0.172690
0.000000 0.527213 0.205213
0.040625 0.523625 0.201625
0.195346 0.517346 0.195346
0.350067 0.511067 0.189067
0.504788 0.504788 0.182788
0.659509 0.498509 0.176509
0.814230 0.492230 0.170230
0.968951 0.485951 0.163951
1.000000 0.482363 0.160363
0.000000 0.675886 0.192886
0.028298 0.672298 0.189298
0.183019 0.666019 0.183019
0.337740 0.659740 0.176740
0.492461 0.653461 0.170461
0.647182 0.647182 0.164182
0.801903 0.640903 0.157903
0.956624 0.634624 0.151624
1.000000 0.631036 0.148036
0.000000 0.824559 0.180559
0.015971 0.820971 0.176971
0.170692 0.814692 0.170692
0.325413 0.808413 0.164413
0.480134 0.802134 0.158134
0.634855 0.795855 0.151855
0.789576 0.789576 0.145576
0.944297 0.783297 0.139297
1.000000 0.779709 0.135709
0.000000 0.973232 0.168232
0.003644 0.969644 0.164644
0.158365 0.963365 0.158365
0.313086 0.957086 0.152086
0.467807 0.950807 0.145807
0.622528 0.944528 0.139528
0.777249 0.938249 0.133249
0.931970 0.931970 0.126970
1.000000 0.928382 0.123382
0.000000 1.000000 0.161188
0.000000 1.000000 0.157600
0.151321 1.000000 0.151321
0.306042 1.000000 0.145042
0.460763 1.000000 0.138763
0.615484 1.000000 0.132484
0.770205 1.000000 0.126205
0.924926 1.000000 0.119926
1.000000 1.000000 0.116338
0.000000 0.000000 0.407844
0.082256 0.000000 0.404256
0.236977 0.000000 0.397977
0.391698 0.000000 0.391698
0.546419 0.000000 0.385419
0.701140 0.000000 0.379140
0.855861 0.000000 0.372861
1.000000 0.000000 0.366582
1.000000 0.000000 0.362994
0.000000 0.078800 0.400800
0.075212 0.075212 0.397212
0.229933 0.068933 0.390933
0.384654 0.062654 0.384654
0.539375 0.056375 0.378375
0.694096 0.050096 0.372096
0.848817 0.043817 0.365817
1.000000 0.037538 0.359538
1.000000 0.033950 0.355950
0.000000 0.227473 0.388473
0.062885 0.223885 0.384885
0.217606 0.217606 0.378606
0.372327 0.211327 0.372327
0.527048 0.205048 0.366048
0.681769 0.198769 0.359769
0.836490 0.192490 0.353490
0.991211 0.186211 0.347211
1.000000 0.182623 0.343623
0.000000 0.376146 0.376146
0.050558 0.372558 0.372558
0.205279 0.366279 0.366279
0.360000 0.360000 0.360000
0.514721 0.353721 0.353721
0.669442 0.347442 0.347442
0.824163 0.341163 0.341163
0.978884 0.334884 0.334884
1.000000 0.331296 0.331296
0.000000 0.524819 0.363819
0.038231 0.521231 0.360231
0.192952 0.514952 0.353952
0.347673 0.508673 0.347673
0.502394 0.502394 0.341394
0.657115 0.496115 0.335115
0.811836 0.489836 0.328836
0.966557 0.483557 0.322557
1.000000 0.479969 0.318969
0.000000 0.673492 0.351492
0.025904 0.669904 0.347904
0.180625 0.663625 0.341625
0.335346 0.657346 0.335346
0.490067 0.651067 0.329067
0.644788 0.644788 0.322788
0.799509 0.638509 0.316509
0.954230 0.632230 0.310230
1.000000 0.628642 0.306642
0.000000 0.822165 0.339165
0.013577 0.818577 0.335577
0.168298 0.812298 0.329298
0.323019 0.806019 0.323019
0.477740 0.799740 0.316740
0.632461 0.793461 0.310461
0.787182 0.787182 0.304182
0.941903 0.780903 0.297903
1.000000 0.777315 0.294315
0.000000 0.970838 0.326838
0.001250 0.967250 0.323250
0.155971 0.960971 0.316971
0.310692 0.954692 0.310692
0.465413 0.948413 0.304413
0.620134 0.942134 0.298134
0.774855 0.935855 0.291855
0.929576 0.929576 0.285576
1.000000 0.925988 0.281988
0.000000 1.000000 0.319794
0.000000 1.000000 0.316206
0.148927 1.000000 0.309927
0.303648 1.000000 0.303648
0.458369 1.000000 0.297369
0.613090 1.000000 0.291090
0.767811 1.000000 0.284811
0.922532 1.000000 0.278532
1.000000 1.000000 0.274944
0.000000 0.000000 0.566450
0.079862 0.000000 0.562862
0.234583 0.000000 0.556583
0.389304 0.000000 0.550304
0.544025 0.000000 0.544025
0.698746 0.000000 0.537746
0.853467 0.000000 0.531467
1.000000 0.000000 0.525188
1.000000 0.000000 0.521600
0.000000 0.076406 0.559406
0.072818 0.072818 0.555818
0.227539 0.066539 0.549539
0.382260 0.060260 0.543260
0.536981 0.053981 0.536981
0.691702 0.047702 0.530702
0.846423 0.041423 0.524423
1.000000 0.035144 0.518144
1.000000 0.031556 0.514556
0.000000 0.225079 0.547079
0.060491 0.221491 0.543491
0.215212 0.215212 0.537212
0.369933 0.208933 0.530933
0.524654 0.202654 0.524654
0.679375 0.196375 0.518375
0.834096 0.190096 0.512096
0.988817 0.183817 0.505817
1.000000 0.180229 0.502229
0.000000 0.373752 0.534752
0.048164 0.370164 0.531164
0.202885 0.363885 0.524885
0.357606 0.357606 0.518606
0.512327 0.351327 0.512327
0.667048 0.345048 0.506048
0.821769 0.338769 0.499769
0.976490 0.332490 0.493490
1.000000 0.328902 0.489902
0.000000 0.522425 0.522425
0.035837 0.518837 0.518837
0.190558 0.512558 0.512558
0.345279 0.506279 0.506279
0.500000 0.500000 0.500000
0.654721 0.493721 0.493721
0.809442 0.487442 0.487442
0.964163 0.481163 0.481163
1.000000 0.477575 0.477575
0.000000 0.671098 0.510098
0.023510 0.667510 0.506510
0.178231 0.661231 0.500231
0.332952 0.654952 0.493952
0.487673 0.648673 0.487673
0.642394 0.642394 0.481394
0.797115 0.636115 0.475115
0.951836 0.629836 0.468836
1.000000 0.626248 0.465248
0.000000 0.819771 0.497771
0.011183 0.816183 0.494183
0.165904 0.809904 0.487904
0.320625 0.803625 0.481625
0.475346 0.797346 0.475346
0.630067 0.791067 0.469067
0.784788 0.784788 0.462788
0.939509 0.778509 0.456509
1.000000 0.774921 0.452921
0.000000 0.968444 0.485444
0.000000 0.964856 0.481856
0.153577 0.958577 0.475577
0.308298 0.952298 0.469298
0.463019 0.946019 0.463019
0.617740 0.939740 0.456740
0.772461 0.933461 0.450461
0.927182 0.927182 0.444182
1.000000 0.923594 0.440594
0.000000 1.000000 0.478400
0.000000 1.000000 0.474812
0.146533 1.000000 0.468533
0.301254 1.000000 0.462254
0.455975 1.000000 0.455975
0.610696 1.000000 0.449696
0.765417 1.000000 0.443417
0.920138 1.000000 0.437138
1.000000 1.000000 0.433550
0.000000 0.000000 0.725056
0.077468 0.000000 0.721468
0.232189 0.000000 0.715189
0.386910 0.000000 0.708910
0.541631 0.000000 0.702631
0.696352 0.000000 0.696352
0.851073 0.000000 0.690073
1.000000 0.000000 0.683794
1.000000 0.000000 0.680206
0.000000 0.074012 0.718012
0.070424 0.070424 0.714424
0.225145 0.064145 0.708145
0.379866 0.057866 0.701866
0.534587 0.051587 0.695587
0.689308 0.045308 0.689308
0.844029 0.039029 0.683029
0.998750 0.032750 0.676750
1.000000 0.029162 0.673162
0.000000 0.222685 0.705685
0.058097 0.219097 0.702097
0.212818 0.212818 0.695818
0.367539 0.206539 0.689539
0.522260 0.200260 0.683260
0.676981 0.193981 0.676981
0.831702 0.187702 0.670702
0.986423 0.181423 0.664423
1.000000 0.177835 0.660835
0.000000 0.371358 0.693358
0.045770 0.367770 0.689770
0.200491 0.361491 0.683491
0.355212 0.355212 0.677212
0.509933 0.348933 0.670933
0.664654 0.342654 0.664654
0.819375 0.336375 0.658375
0.974096 0.330096 0.652096
1.000000 0.326508 0.648508
0.000000 0.520031 0.681031
0.033443 0.516443 0.677443
0.188164 0.510164 0.671164
0.342885 0.503885 0.664885
0.497606 0.497606 0.658606
0.652327 0.491327 0.652327
0.807048 0.485048 0.646048
0.961769 0.478769 0.639769
1.000000 0.475181 0.636181
0.000000 0.668704 0.668704
0.021116 0.665116 0.665116
0.175837 0.658837 0.658837
0.330558 0.652558 0.652558
0.485279 0.646279 0.646279
0.640000 0.640000 0.640000
0.794721 0.633721 0.633721
0.949442 0.627442 0.627442
1.000000 0.623854 0.623854
0.000000 0.817377 0.656377
0.008789 0.813789 0.652789
0.163510 0.807510 0.646510
0.318231 0.801231 0.640231
0.472952 0.794952 0.633952
0.627673 0.788673 0.627673
0.782394 0.782394 0.621394
0.937115 0.776115 0.615115
1.000000 0.772527 0.611527
0.000000 0.966050 0.644050
0.000000 0.962462 0.640462
0.151183 0.956183 0.634183
0.305904 0.949904 0.627904
0.460625 0.943625 0.621625
0.615346 0.937346 0.615346
0.770067 0.931067 0.609067
0.924788 0.924788 0.602788
1.000000 0.921200 0.599200
0.000000 1.000000 0.637006
0.000000 1.000000 0.633418
0.144139 1.000000 0.627139
0.298860 1.000000 0.620860
0.453581 1.000000 0.614581
0.608302 1.000000 0.608302
0.763023 1.000000 0.602023
0.917744 1.000000 0.595744
1.000000 1.000000 0.592156
0.000000 0.000000 0.883662
0.075074 0.000000 0.880074
0.229795 0.000000 0.873795
0.384516 0.000000 0.867516
0.539237 0.000000 0.861237
0.693958 0.000000 0.854958
0.848679 0.000000 0.848679
1.000000 0.000000 0.842400
1.000000 0.000000 0.838812
0.000000 0.071618 0.876618
0.068030 0.068030 0.873030
0.222751 0.061751 0.866751
0.377472 0.055472 0.860472
0.532193 0.049193 0.854193
0.686914 0.042914 0.847914
0.841635 0.036635 0.841635
0.996356 0.030356 0.835356
1.000000 0.026768 0.831768
0.000000 0.220291 0.864291
0.055703 0.216703 0.860703
0.210424 0.210424 0.854424
0.365145 0.204145 0.848145
0.519866 0.197866 0.841866
0.674587 0.191587 0.835587
0.829308 0.185308 0.829308
0.984029 0.179029 0.823029
1.000000 0.175441 0.819441
0.000000 0.368964 0.851964
0.043376 0.365376 0.848376
0.198097 0.359097 0.842097
0.352818 0.352818 0.835818
0.507539 0.346539 0.829539
0.662260 0.340260 0.823260
0.816981 0.333981 0.816981
0.971702 0.327702 0.810702
1.000000 0.324114 0.807114
0.000000 0.517637 0.839637
0.031049 0.514049 0.836049
0.185770 0.507770 0.829770
0.340491 0.501491 0.823491
0.495212 0.495212 0.817212
0.649933 0.488933 0.810933
0.804654 0.482654 0.804654
0.959375 0.476375 0.798375
1.000000 0.472787 0.794787
0.000000 0.666310 0.827310
0.018722 0.662722 0.823722
0.173443 0.656443 0.817443
0.328164 0.650164 0.811164
0.482885 0.643885 0.804885
0.637606 0.637606 0.798606
0.792327 0.631327 0.792327
0.947048 0.625048 0.786048
1.000000 0.621460 0.782460
0.000000 0.814983 0.814983
0.006395 0.811395 0.811395
0.161116 0.805116 0.805116
0.315837 0.798837 0.798837
0.470558 0.792558 0.792558
0.625279 0.786279 0.786279
0.780000 0.780000 0.780000
0.934721 0.773721 0.773721
1.000000 0.770133 0.770133
0.000000 0.963656 0.802656
0.000000 0.960068 0.799068
0.148789 0.953789 0.792789
0.303510 0.947510 0.786510
0.458231 0.941231 0.780231
0.612952 0.934952 0.773952
0.767673 0.928673 0.767673
0.922394 0.922394 0.761394
1.000000 0.918806 0.757806
0.000000 1.000000 0.795612
0.000000 1.000000 0.792024
0.141745 1.000000 0.785745
0.296466 1.000000 0.779466
0.451187 1.000000 0.773187
0.605908 1.000000 0.766908
0.760629 1.000000 0.760629
0.915350 1.000000 0.754350
1.000000 1.000000 0.750762
0.000000 0.000000 1.000000
0.072680 0.000000 1.000000
0.227401 0.000000 1.000000
0.382122 0.000000 1.000000
0.536843 0.000000 1.000000
0.691564 0.000000 1.000000
0.846285 0.000000 1.000000
1.000000 0.000000 1.000000
1.000000 0.000000 0.997418
0.000000 0.069224 1.000000
0.065636 0.065636 1.000000
0.220357 0.059357 1.000000
0.375078 0.053078 1.000000
0.529799 0.046799 1.000000
0.684520 0.040520 1.000000
0.839241 0.034241 1.000000
0.993962 0.027962 0.993962
1.000000 0.024374 0.990374
0.000000 0.217897 1.000000
0.053309 0.214309 1.000000
0.208030 0.208030 1.000000
0.362751 0.201751 1.000000
0.517472 0.195472 1.000000
0.672193 0.189193 0.994193
0.826914 0.182914 0.987914
0.981635 0.176635 0.981635
1.000000 0.173047 0.978047
0.000000 0.366570 1.000000
0.040982 0.362982 1.000000
0.195703 0.356703 1.000000
0.350424 0.350424 0.994424
0.505145 0.344145 0.988145
0.659866 0.337866 0.981866
0.814587 0.331587 0.975587
0.969308 0.325308 0.969308
1.000000 0.321720 0.965720
0.000000 0.515243 0.998243
0.028655 0.511655 0.994655
0.183376 0.505376 0.988376
0.338097 0.499097 0.982097
0.492818 0.492818 0.975818
0.647539 0.486539 0.969539
0.802260 0.480260 0.963260
0.956981 0.473981 0.956981
1.000000 0.470393 0.953393
0.000000 0.663916 0.985916
0.016328 0.660328 0.982328
0.171049 0.654049 0.976049
0.325770 0.647770 0.969770
0.480491 0.641491 0.963491
0.635212 0.635212 0.957212
0.789933 0.628933 0.950933
0.944654 0.622654 0.944654
1.000000 0.619066 0.941066
0.000000 0.812589 0.973589
0.004001 0.809001 0.970001
0.158722 0.802722 0.963722
0.313443 0.796443 0.957443
0.468164 0.790164 0.951164
0.622885 0.783885 0.944885
0.777606 0.777606 0.938606
0.932327 0.771327 0.932327
1.000000 0.767739 0.928739
0.000000 0.961262 0.961262
0.000000 0.957674 0.957674
0.146395 0.951395 0.951395
0.301116 0.945116 0.945116
0.455837 0.938837 0.938837
0.610558 0.932558 0.932558
0.765279 0.926279 0.926279
0.920000 0.920000 0.920000
1.000000 0.916412 0.916412
0.000000 1.000000 0.954218
0.000000 1.000000 0.950630
0.139351 1.000000 0.944351
0.294072 1.000000 0.938072
0.448793 1.000000 0.931793
0.603514 1.000000 0.925514
0.758235 1.000000 0.919235
0.912956 1.000000 0.912956
1.000000 1.000000 0.909368
0.000000 0.000000 1.000000
0.071312 0.000000 1.000000
0.226033 0.000000 1.000000
0.380754 0.000000 1.000000
0.535475 0.000000 1.000000
0.690196 0.000000 1.000000
0.844917 0.000000 1.000000
0.999638 0.000000 1.000000
1.000000 0.000000 1.000000
0.000000 0.067856 1.000000
0.064268 0.064268 1.000000
0.218989 0.057989 1.000000
0.373710 0.051710 1.000000
0.528431 0.045431 1.000000
0.683152 0.039152 1.000000
0.837873 0.032873 1.000000
0.992594 0.026594 1.000000
1.000000 0.023006 1.000000
0.000000 0.216529 1.000000
0.051941 0.212941 1.000000
0.206662 0.206662 1.000000
0.361383 0.200383 1.000000
0.516104 0.194104 1.000000
0.670825 0.187825 1.000000
0.825546 0.181546 1.000000
0.980267 0.175267 1.000000
1.000000 0.171679 1.000000
0.000000 0.365202 1.000000
0.039614 0.361614 1.000000
0.194335 0.355335 1.000000
0.349056 0.349056 1.000000
0.503777 0.342777 1.000000
0.658498 0.336498 1.000000
0.813219 0.330219 1.000000
0.967940 0.323940 1.000000
1.000000 0.320352 1.000000
0.000000 0.513875 1.000000
0.027287 0.510287 1.000000
0.182008 0.504008 1.000000
0.336729 0.497729 1.000000
0.491450 0.491450 1.000000
0.646171 0.485171 1.000000
0.800892 0.478892 1.000000
0.955613 0.472613 1.000000
1.000000 0.469025 1.000000
0.000000 0.662548 1.000000
0.014960 0.658960 1.000000
0.169681 0.652681 1.000000
0.324402 0.646402 1.000000
0.479123 0.640123 1.000000
0.633844 0.633844 1.000000
0.788565 0.627565 1.000000
0.943286 0.621286 1.000000
1.000000 0.617698 1.000000
0.000000 0.811221 1.000000
0.002633 0.807633 1.000000
0.157354 0.801354 1.000000
0.312075 0.795075 1.000000
0.466796 0.788796 1.000000
0.621517 0.782517 1.000000
0.776238 0.776238 1.000000
0.930959 0.769959 1.000000
1.000000 0.766371 1.000000
0.000000 0.959894 1.000000
0.000000 0.956306 1.000000
0.145027 0.950027 1.000000
0.299748 0.943748 1.000000
0.454469 0.937469 1.000000
0.609190 0.931190 1.000000
0.763911 0.924911 1.000000
0.918632 0.918632 1.000000
1.000000 0.915044 1.000000
0.000000 1.000000 1.000000
0.000000 1.000000 1.000000
0.137983 1.000000 1.000000
0.292704 1.000000 1.000000
0.447425 1.000000 1.000000
0.602146 1.000000 1.000000
0.756867 1.000000 1.000000
0.911588 1.000000 1.000000
1.000000 1.000000 1.000000
