luts/neutral_clean.cube
TITLE "Neutral Clean"
LUT_3D_SIZE 33
DOMAIN_MIN 0.0 0.0 0.0
DOMAIN_MAX 1.0 1.0 1.0
0.000000 0.000000 0.000000
0.000000 0.000000 0.000000
0.011051 0.000000 0.000000
0.049732 0.000000 0.000000
0.088412 0.000000 0.000000
0.127092 0.000000 0.000000
0.165772 0.000000 0.000000
0.204453 0.000000 0.000000
0.243133 0.000000 0.000000
0.281813 0.000000 0.000000
0.320493 0.000000 0.000000
0.359174 0.000000 0.000000
0.397854 0.000000 0.000000
0.436534 0.000000 0.000000
0.475214 0.000000 0.000000
0.513895 0.000000 0.000000
0.552575 0.000000 0.000000
0.591255 0.000000 0.000000
0.629936 0.000000 0.000000
0.668616 0.000000 0.000000
0.707296 0.000000 0.000000
0.745976 0.000000 0.000000
0.784656 0.000000 0.000000
0.823337 0.000000 0.000000
0.862017 0.000000 0.000000
0.900697 0.000000 0.000000
0.939377 0.000000 0.000000
0.978058 0.000000 0.000000
1.000000 0.000000 0.000000
1.000000 0.000000 0.000000
1.000000 0.000000 0.000000
1.000000 0.000000 0.000000
1.000000 0.000000 0.000000
0.000000 0.000000 0.000000
0.000000 0.000000 0.000000
0.011051 0.000000 0.000000
0.049732 0.000000 0.000000
0.088412 0.000000 0.000000
0.127092 0.000000 0.000000
0.165772 0.000000 0.000000
0.204453 0.000000 0.000000
0.243133 0.000000 0.000000
0.281813 0.000000 0.000000
0.320493 0.000000 0.000000
0.359174 0.000000 0.000000
0.397854 0.000000 0.000000
0.436534 0.000000 0.000000
0.475214 0.000000 0.000000
0.513895 0.000000 0.000000
0.552575 0.000000 0.000000
0.591255 0.000000 0.000000
0.629936 0.000000 0.000000
0.668616 0.000000 0.000000
0.707296 0.000000 0.000000
0.745976 0.000000 0.000000
0.784656 0.000000 0.000000
0.823337 0.000000 0.000000
0.862017 0.000000 0.000000
0.900697 0.000000 0.000000
0.939377 0.000000 0.000000
0.978058 0.000000 0.000000
1.000000 0.000000 0.000000
1.000000 0.000000 0.000000
1.000000 0.000000 0.000000
1.000000 0.000000 0.000000
1.000000 0.000000 0.000000
0.000000 0.010619 0.000000
0.000000 0.010619 0.000000
0.010171 0.010171 0.000000
0.048851 0.008601 0.000000
0.087531 0.007031 0.000000
0.126212 0.005462 0.000000
0.164892 0.003892 0.000000
0.203572 0.002322 0.000000
0.242252 0.000752 0.000000
0.280933 0.000000 0.000000
0.319613 0.000000 0.000000
0.358293 0.000000 0.000000
0.396973 0.000000 0.000000
0.435654 0.000000 0.000000
0.474334 0.000000 0.000000
0.513014 0.000000 0.000000
0.551694 0.000000 0.000000
0.590375 0.000000 0.000000
0.629055 0.000000 0.000000
0.667735 0.000000 0.000000
0.706416 0.000000 0.000000
0.745096 0.000000 0.000000
0.783776 0.000000 0.000000
0.822456 0.000000 0.000000
0.861136 0.000000 0.000000
0.899817 0.000000 0.000000
0.938497 0.000000 0.000000
0.977177 0.000000 0.000000
1.000000 0.000000 0.000000
1.000000 0.000000 0.000000
1.000000 0.000000 0.000000
1.000000 0.000000 0.000000
1.000000 0.000000 0.000000
0.000000 0.047788 0.000000
0.000000 0.047788 0.000000
0.007089 0.047339 0.000000
0.045769 0.045769 0.000000
0.084450 0.044200 0.000000
0.123130 0.042630 0.000000
0.161810 0.041060 0.000000
0.200490 0.039490 0.000000
0.239171 0.037921 0.000000
0.277851 0.036351 0.000000
0.316531 0.034781 0.000000
0.355211 0.033211 0.000000
0.393892 0.031642 0.000000
0.432572 0.030072 0.000000
0.471252 0.028502 0.000000
0.509932 0.026932 0.000000
0.548613 0.025363 0.000000
0.587293 0.023793 0.000000
0.625973 0.022223 0.000000
0.664653 0.020653 0.000000
0.703334 0.019084 0.000000
0.742014 0.017514 0.000000
0.780694 0.015944 0.000000
0.819374 0.014374 0.000000
0.858055 0.012805 0.000000
0.896735 0.011235 0.000000
0.935415 0.009665 0.000000
0.974096 0.008095 0.000000
1.000000 0.006526 0.000000
1.000000 0.004956 0.000000
1.000000 0.003386 0.000000
1.000000 0.002938 0.000000
1.000000 0.002938 0.000000
0.000000 0.084956 0.000000
0.000000 0.084956 0.000000
0.004007 0.084507 0.000000
0.042688 0.082938 0.000000
0.081368 0.081368 0.000000
0.120048 0.079798 0.000000
0.158728 0.078228 0.000000
0.197409 0.076659 0.000000
0.236089 0.075089 0.000000
0.274769 0.073519 0.000000
0.313449 0.071949 0.000000
0.352130 0.070380 0.000000
0.390810 0.068810 0.000000
0.429490 0.067240 0.000000
0.468170 0.065670 0.000000
0.506851 0.064101 0.000000
0.545531 0.062531 0.000000
0.584211 0.060961 0.000000
0.622892 0.059391 0.000000
0.661572 0.057822 0.000000
0.700252 0.056252 0.000000
0.738932 0.054682 0.000000
0.777612 0.053112 0.000000
0.816293 0.051543 0.000000
0.854973 0.049973 0.000000
0.893653 0.048403 0.000000
0.932334 0.046833 0.000000
0.971014 0.045264 0.000000
1.000000 0.043694 0.000000
1.000000 0.042124 0.000000
1.000000 0.040554 0.000000
1.000000 0.040106 0.000000
1.000000 0.040106 0.000000
0.000000 0.122124 0.000000
0.000000 0.122124 0.000000
0.000926 0.121676 0.000000
0.039606 0.120106 0.000000
0.078286 0.118536 0.000000
0.116966 0.116966 0.000000
0.155647 0.115397 0.000000
0.194327 0.113827 0.000000
0.233007 0.112257 0.000000
0.271687 0.110687 0.000000
0.310368 0.109118 0.000000
0.349048 0.107548 0.000000
0.387728 0.105978 0.000000
0.426408 0.104409 0.000000
0.465089 0.102839 0.000000
0.503769 0.101269 0.000000
0.542449 0.099699 0.000000
0.581130 0.098130 0.000000
0.619810 0.096560 0.000000
0.658490 0.094990 0.000000
0.697170 0.093420 0.000000
0.735850 0.091851 0.000000
0.774531 0.090281 0.000000
0.813211 0.088711 0.000000
0.851891 0.087141 0.000000
0.890572 0.085571 0.000000
0.929252 0.084002 0.000000
0.967932 0.082432 0.000000
1.000000 0.080862 0.000000
1.000000 0.079292 0.000000
1.000000 0.077723 0.000000
1.000000 0.077274 0.000000
1.000000 0.077274 0.000000
0.000000 0.159292 0.000000
0.000000 0.159292 0.000000
0.000000 0.158844 0.000000
0.036524 0.157274 0.000000
0.075204 0.155704 0.000000
0.113885 0.154135 0.000000
0.152565 0.152565 0.000000
0.191245 0.150995 0.000000
0.229925 0.149425 0.000000
0.268606 0.147856 0.000000
0.307286 0.146286 0.000000
0.345966 0.144716 0.000000
0.384647 0.143146 0.000000
0.423327 0.141577 0.000000
0.462007 0.140007 0.000000
0.500687 0.138437 0.000000
0.539367 0.136867 0.000000
0.578048 0.135298 0.000000
0.616728 0.133728 0.000000
0.655408 0.132158 0.000000
0.694088 0.130588 0.000000
0.732769 0.129019 0.000000
0.771449 0.127449 0.000000
0.810129 0.125879 0.000000
0.848809 0.124309 0.000000
0.887490 0.122740 0.000000
0.926170 0.121170 0.000000
0.964850 0.119600 0.000000
1.000000 0.118030 0.000000
1.000000 0.116461 0.000000
1.000000 0.114891 0.000000
1.000000 0.114443 0.000000
1.000000 0.114443 0.000000
0.000000 0.196461 0.000000
0.000000 0.196461 0.000000
0.000000 0.196012 0.000000
0.033442 0.194442 0.000000
0.072123 0.192873 0.000000
0.110803 0.191303 0.000000
0.149483 0.189733 0.000000
0.188163 0.188163 0.000000
0.226844 0.186594 0.000000
0.265524 0.185024 0.000000
0.304204 0.183454 0.000000
0.342884 0.181884 0.000000
0.381565 0.180315 0.000000
0.420245 0.178745 0.000000
0.458925 0.177175 0.000000
0.497605 0.175605 0.000000
0.536286 0.174036 0.000000
0.574966 0.172466 0.000000
0.613646 0.170896 0.000000
0.652327 0.169326 0.000000
0.691007 0.167757 0.000000
0.729687 0.166187 0.000000
0.768367 0.164617 0.000000
0.807047 0.163047 0.000000
0.845728 0.161478 0.000000
0.884408 0.159908 0.000000
0.923088 0.158338 0.000000
0.961769 0.156768 0.000000
1.000000 0.155199 0.000000
1.000000 0.153629 0.000000
1.000000 0.152059 0.000000
1.000000 0.151611 0.000000
1.000000 0.151611 0.000000
0.000000 0.233629 0.000000
0.000000 0.233629 0.000000
0.000000 0.233180 0.000000
0.030361 0.231611 0.000000
0.069041 0.230041 0.000000
0.107721 0.228471 0.000000
0.146401 0.226901 0.000000
0.185082 0.225332 0.000000
0.223762 0.223762 0.000000
0.262442 0.222192 0.000000
0.301122 0.220622 0.000000
0.339803 0.219053 0.000000
0.378483 0.217483 0.000000
0.417163 0.215913 0.000000
0.455843 0.214343 0.000000
0.494524 0.212774 0.000000
0.533204 0.211204 0.000000
0.571884 0.209634 0.000000
0.610565 0.208064 0.000000
0.649245 0.206495 0.000000
0.687925 0.204925 0.000000
0.726605 0.203355 0.000000
0.765285 0.201785 0.000000
0.803966 0.200216 0.000000
0.842646 0.198646 0.000000
0.881326 0.197076 0.000000
0.920007 0.195506 0.000000
0.958687 0.193937 0.000000
0.997367 0.192367 0.000000
1.000000 0.190797 0.000000
1.000000 0.189227 0.000000
1.000000 0.188779 0.000000
1.000000 0.188779 0.000000
0.000000 0.270797 0.000000
0.000000 0.270797 0.000000
0.000000 0.270349 0.000000
0.027279 0.268779 0.000000
0.065959 0.267209 0.000000
0.104639 0.265640 0.000000
0.143320 0.264070 0.000000
0.182000 0.262500 0.000000
0.220680 0.260930 0.000000
0.259360 0.259360 0.000000
0.298041 0.257791 0.000000
0.336721 0.256221 0.000000
0.375401 0.254651 0.000000
0.414081 0.253082 0.000000
0.452762 0.251512 0.000000
0.491442 0.249942 0.000000
0.530122 0.248372 0.000000
0.568803 0.246803 0.000000
0.607483 0.245233 0.000000
0.646163 0.243663 0.000000
0.684843 0.242093 0.000000
0.723523 0.240524 0.000000
0.762204 0.238954 0.000000
0.800884 0.237384 0.000000
0.839564 0.235814 0.000000
0.878245 0.234245 0.000000
0.916925 0.232675 0.000000
0.955605 0.231105 0.000000
0.994285 0.229535 0.000000
1.000000 0.227966 0.000000
1.000000 0.226396 0.000000
1.000000 0.225947 0.000000
1.000000 0.225947 0.000000
0.000000 0.307966 0.000000
0.000000 0.307966 0.000000
0.000000 0.307517 0.000000
0.024197 0.305947 0.000000
0.062877 0.304377 0.000000
0.101558 0.302808 0.000000
0.140238 0.301238 0.000000
0.178918 0.299668 0.000000
0.217598 0.298098 0.000000
0.256279 0.296529 0.000000
0.294959 0.294959 0.000000
0.333639 0.293389 0.000000
0.372319 0.291820 0.000000
0.411000 0.290250 0.000000
0.449680 0.288680 0.000000
0.488360 0.287110 0.000000
0.527041 0.285540 0.000000
0.565721 0.283971 0.000000
0.604401 0.282401 0.000000
0.643081 0.280831 0.000000
0.681762 0.279261 0.000000
0.720442 0.277692 0.000000
0.759122 0.276122 0.000000
0.797802 0.274552 0.000000
0.836483 0.272983 0.000000
0.875163 0.271413 0.000000
0.913843 0.269843 0.000000
0.952523 0.268273 0.000000
0.991204 0.266703 0.000000
1.000000 0.265134 0.000000
1.000000 0.263564 0.000000
1.000000 0.263116 0.000000
1.000000 0.263116 0.000000
0.000000 0.345134 0.000000
0.000000 0.345134 0.000000
0.000000 0.344685 0.000000
0.021115 0.343115 0.000000
0.059796 0.341546 0.000000
0.098476 0.339976 0.000000
0.137156 0.338406 0.000000
0.175836 0.336836 0.000000
0.214517 0.335267 0.000000
0.253197 0.333697 0.000000
0.291877 0.332127 0.000000
0.330557 0.330557 0.000000
0.369238 0.328988 0.000000
0.407918 0.327418 0.000000
0.446598 0.325848 0.000000
0.485278 0.324278 0.000000
0.523959 0.322709 0.000000
0.562639 0.321139 0.000000
0.601319 0.319569 0.000000
0.639999 0.317999 0.000000
0.678680 0.316430 0.000000
0.717360 0.314860 0.000000
0.756040 0.313290 0.000000
0.794720 0.311720 0.000000
0.833401 0.310151 0.000000
0.872081 0.308581 0.000000
0.910761 0.307011 0.000000
0.949442 0.305441 0.000000
0.988122 0.303872 0.000000
1.000000 0.302302 0.000000
1.000000 0.300732 0.000000
1.000000 0.300284 0.000000
1.000000 0.300284 0.000000
0.000000 0.382302 0.000000
0.000000 0.382302 0.000000
0.000000 0.381853 0.000000
0.018034 0.380284 0.000000
0.056714 0.378714 0.000000
0.095394 0.377144 0.000000
0.134074 0.375574 0.000000
0.172755 0.374005 0.000000
0.211435 0.372435 0.000000
0.250115 0.370865 0.000000
0.288795 0.369295 0.000000
0.327476 0.367726 0.000000
0.366156 0.366156 0.000000
0.404836 0.364586 0.000000
0.443516 0.363016 0.000000
0.482197 0.361447 0.000000
0.520877 0.359877 0.000000
0.559557 0.358307 0.000000
0.598238 0.356737 0.000000
0.636918 0.355168 0.000000
0.675598 0.353598 0.000000
0.714278 0.352028 0.000000
0.752958 0.350459 0.000000
0.791639 0.348889 0.000000
0.830319 0.347319 0.000000
0.868999 0.345749 0.000000
0.907680 0.344179 0.000000
0.946360 0.342610 0.000000
0.985040 0.341040 0.000000
1.000000 0.339470 0.000000
1.000000 0.337900 0.000000
1.000000 0.337452 0.000000
1.000000 0.337452 0.000000
0.000000 0.419470 0.000000
0.000000 0.419470 0.000000
0.000000 0.419022 0.000000
0.014952 0.417452 0.000000
0.053632 0.415882 0.000000
0.092312 0.414312 0.000000
0.130993 0.412743 0.000000
0.169673 0.411173 0.000000
0.208353 0.409603 0.000000
0.247034 0.408033 0.000000
0.285714 0.406464 0.000000
0.324394 0.404894 0.000000
0.363074 0.403324 0.000000
0.401755 0.401755 0.000000
0.440435 0.400185 0.000000
0.479115 0.398615 0.000000
0.517795 0.397045 0.000000
0.556476 0.395476 0.000000
0.595156 0.393906 0.000000
0.633836 0.392336 0.000000
0.672516 0.390766 0.000000
0.711197 0.389197 0.000000
0.749877 0.387627 0.000000
0.788557 0.386057 0.000000
0.827237 0.384487 0.000000
0.865918 0.382918 0.000000
0.904598 0.381348 0.000000
0.943278 0.379778 0.000000
0.981958 0.378208 0.000000
1.000000 0.376639 0.000000
1.000000 0.375069 0.000000
1.000000 0.374620 0.000000
1.000000 0.374620 0.000000
0.000000 0.456638 0.000000
0.000000 0.456638 0.000000
0.000000 0.456190 0.000000
0.011870 0.454620 0.000000
0.050550 0.453051 0.000000
0.089231 0.451481 0.000000
0.127911 0.449911 0.000000
0.166591 0.448341 0.000000
0.205271 0.446771 0.000000
0.243952 0.445202 0.000000
0.282632 0.443632 0.000000
0.321312 0.442062 0.000000
0.359992 0.440493 0.000000
0.398673 0.438923 0.000000
0.437353 0.437353 0.000000
0.476033 0.435783 0.000000
0.514714 0.434213 0.000000
0.553394 0.432644 0.000000
0.592074 0.431074 0.000000
0.630754 0.429504 0.000000
0.669434 0.427934 0.000000
0.708115 0.426365 0.000000
0.746795 0.424795 0.000000
0.785475 0.423225 0.000000
0.824156 0.421656 0.000000
0.862836 0.420086 0.000000
0.901516 0.418516 0.000000
0.940196 0.416946 0.000000
0.978876 0.415376 0.000000
1.000000 0.413807 0.000000
1.000000 0.412237 0.000000
1.000000 0.411789 0.000000
1.000000 0.411789 0.000000
0.000000 0.493807 0.000000
0.000000 0.493807 0.000000
0.000000 0.493358 0.000000
0.008788 0.491788 0.000000
0.047469 0.490219 0.000000
0.086149 0.488649 0.000000
0.124829 0.487079 0.000000
0.163509 0.485509 0.000000
0.202190 0.483940 0.000000
0.240870 0.482370 0.000000
0.279550 0.480800 0.000000
0.318230 0.479230 0.000000
0.356911 0.477661 0.000000
0.395591 0.476091 0.000000
0.434271 0.474521 0.000000
0.472951 0.472951 0.000000
0.511632 0.471382 0.000000
0.550312 0.469812 0.000000
0.588992 0.468242 0.000000
0.627672 0.466672 0.000000
0.666353 0.465103 0.000000
0.705033 0.463533 0.000000
0.743713 0.461963 0.000000
0.782393 0.460393 0.000000
0.821074 0.458824 0.000000
0.859754 0.457254 0.000000
0.898434 0.455684 0.000000
0.937115 0.454114 0.000000
0.975795 0.452545 0.000000
1.000000 0.450975 0.000000
1.000000 0.449405 0.000000
1.000000 0.448957 0.000000
1.000000 0.448957 0.000000
0.000000 0.530975 0.000000
0.000000 0.530975 0.000000
0.000000 0.530527 0.000000
0.005707 0.528957 0.000000
0.044387 0.527387 0.000000
0.083067 0.525817 0.000000
0.121747 0.524247 0.000000
0.160428 0.522678 0.000000
0.199108 0.521108 0.000000
0.237788 0.519538 0.000000
0.276469 0.517969 0.000000
0.315149 0.516399 0.000000
0.353829 0.514829 0.000000
0.392509 0.513259 0.000000
0.431190 0.511690 0.000000
0.469870 0.510120 0.000000
0.508550 0.508550 0.000000
0.547230 0.506980 0.000000
0.585911 0.505410 0.000000
0.624591 0.503841 0.000000
0.663271 0.502271 0.000000
0.701951 0.500701 0.000000
0.740631 0.499132 0.000000
0.779312 0.497562 0.000000
0.817992 0.495992 0.000000
0.856672 0.494422 0.000000
0.895353 0.492853 0.000000
0.934033 0.491283 0.000000
0.972713 0.489713 0.000000
1.000000 0.488143 0.000000
1.000000 0.486573 0.000000
1.000000 0.486125 0.000000
1.000000 0.486125 0.000000
0.000000 0.568143 0.000000
0.000000 0.568143 0.000000
0.000000 0.567695 0.000000
0.002625 0.566125 0.000000
0.041305 0.564555 0.000000
0.079985 0.562986 0.000000
0.118666 0.561416 0.000000
0.157346 0.559846 0.000000
0.196026 0.558276 0.000000
0.234707 0.556706 0.000000
0.273387 0.555137 0.000000
0.312067 0.553567 0.000000
0.350747 0.551997 0.000000
0.389428 0.550428 0.000000
0.428108 0.548858 0.000000
0.466788 0.547288 0.000000
0.505468 0.545718 0.000000
0.544149 0.544149 0.000000
0.582829 0.542579 0.000000
0.621509 0.541009 0.000000
0.660189 0.539439 0.000000
0.698870 0.537870 0.000000
0.737550 0.536300 0.000000
0.776230 0.534730 0.000000
0.814910 0.533160 0.000000
0.853591 0.531591 0.000000
0.892271 0.530021 0.000000
0.930951 0.528451 0.000000
0.969631 0.526881 0.000000
1.000000 0.525312 0.000000
1.000000 0.523742 0.000000
1.000000 0.523293 0.000000
1.000000 0.523293 0.000000
0.000000 0.605312 0.000000
0.000000 0.605312 0.000000
0.000000 0.604863 0.000000
0.000000 0.603293 0.000000
0.038223 0.601724 0.000000
0.076904 0.600154 0.000000
0.115584 0.598584 0.000000
0.154264 0.597014 0.000000
0.192944 0.595445 0.000000
0.231625 0.593875 0.000000
0.270305 0.592305 0.000000
0.308985 0.590735 0.000000
0.347665 0.589166 0.000000
0.386346 0.587596 0.000000
0.425026 0.586026 0.000000
0.463706 0.584456 0.000000
0.502386 0.582887 0.000000
0.541067 0.581317 0.000000
0.579747 0.579747 0.000000
0.618427 0.578177 0.000000
0.657107 0.576608 0.000000
0.695788 0.575038 0.000000
0.734468 0.573468 0.000000
0.773148 0.571898 0.000000
0.811829 0.570329 0.000000
0.850509 0.568759 0.000000
0.889189 0.567189 0.000000
0.927869 0.565619 0.000000
0.966549 0.564050 0.000000
1.000000 0.562480 0.000000
1.000000 0.560910 0.000000
1.000000 0.560462 0.000000
1.000000 0.560462 0.000000
0.000000 0.642480 0.000000
0.000000 0.642480 0.000000
0.000000 0.642031 0.000000
0.000000 0.640462 0.000000
0.035142 0.638892 0.000000
0.073822 0.637322 0.000000
0.112502 0.635752 0.000000
0.151182 0.634182 0.000000
0.189863 0.632613 0.000000
0.228543 0.631043 0.000000
0.267223 0.629473 0.000000
0.305903 0.627903 0.000000
0.344584 0.626334 0.000000
0.383264 0.624764 0.000000
0.421944 0.623194 0.000000
0.460624 0.621625 0.000000
0.499305 0.620055 0.000000
0.537985 0.618485 0.000000
0.576665 0.616915 0.000000
0.615345 0.615345 0.000000
0.654026 0.613776 0.000000
0.692706 0.612206 0.000000
0.731386 0.610636 0.000000
0.770066 0.609066 0.000000
0.808747 0.607497 0.000000
0.847427 0.605927 0.000000
0.886107 0.604357 0.000000
0.924787 0.602788 0.000000
0.963468 0.601218 0.000000
1.000000 0.599648 0.000000
1.000000 0.598078 0.000000
1.000000 0.597630 0.000000
1.000000 0.597630 0.000000
0.000000 0.679648 0.000000
0.000000 0.679648 0.000000
0.000000 0.679199 0.000000
0.000000 0.677630 0.000000
0.032060 0.676060 0.000000
0.070740 0.674490 0.000000
0.109420 0.672921 0.000000
0.148101 0.671351 0.000000
0.186781 0.669781 0.000000
0.225461 0.668211 0.000000
0.264142 0.666641 0.000000
0.302822 0.665072 0.000000
0.341502 0.663502 0.000000
0.380182 0.661932 0.000000
0.418863 0.660362 0.000000
0.457543 0.658793 0.000000
0.496223 0.657223 0.000000
0.534903 0.655653 0.000000
0.573584 0.654084 0.000000
0.612264 0.652514 0.000000
0.650944 0.650944 0.000000
0.689624 0.649374 0.000000
0.728304 0.647805 0.000000
0.766985 0.646235 0.000000
0.805665 0.644665 0.000000
0.844345 0.643095 0.000000
0.883026 0.641525 0.000000
0.921706 0.639956 0.000000
0.960386 0.638386 0.000000
0.999066 0.636816 0.000000
1.000000 0.635247 0.000000
1.000000 0.634798 0.000000
1.000000 0.634798 0.000000
0.000000 0.716816 0.000000
0.000000 0.716816 0.000000
0.000000 0.716368 0.000000
0.000000 0.714798 0.000000
0.028978 0.713228 0.000000
0.067659 0.711658 0.000000
0.106339 0.710089 0.000000
0.145019 0.708519 0.000000
0.183699 0.706949 0.000000
0.222380 0.705380 0.000000
0.261060 0.703810 0.000000
0.299740 0.702240 0.000000
0.338420 0.700670 0.000000
0.377101 0.699101 0.000000
0.415781 0.697531 0.000000
0.454461 0.695961 0.000000
0.493141 0.694391 0.000000
0.531822 0.692821 0.000000
0.570502 0.691252 0.000000
0.609182 0.689682 0.000000
0.647862 0.688112 0.000000
0.686543 0.686543 0.000000
0.725223 0.684973 0.000000
0.763903 0.683403 0.000000
0.802583 0.681833 0.000000
0.841264 0.680264 0.000000
0.879944 0.678694 0.000000
0.918624 0.677124 0.000000
0.957304 0.675554 0.000000
0.995985 0.673985 0.000000
1.000000 0.672415 0.000000
1.000000 0.671966 0.000000
1.000000 0.671966 0.000000
0.000000 0.753984 0.000000
0.000000 0.753984 0.000000
0.000000 0.753536 0.000000
0.000000 0.751966 0.000000
0.025896 0.750396 0.000000
0.064577 0.748827 0.000000
0.103257 0.747257 0.000000
0.141937 0.745687 0.000000
0.180617 0.744117 0.000000
0.219298 0.742548 0.000000
0.257978 0.740978 0.000000
0.296658 0.739408 0.000000
0.335338 0.737838 0.000000
0.374019 0.736269 0.000000
0.412699 0.734699 0.000000
0.451379 0.733129 0.000000
0.490059 0.731559 0.000000
0.528740 0.729990 0.000000
0.567420 0.728420 0.000000
0.606100 0.726850 0.000000
0.644780 0.725280 0.000000
0.683461 0.723711 0.000000
0.722141 0.722141 0.000000
0.760821 0.720571 0.000000
0.799502 0.719001 0.000000
0.838182 0.717432 0.000000
0.876862 0.715862 0.000000
0.915542 0.714292 0.000000
0.954222 0.712722 0.000000
0.992903 0.711153 0.000000
1.000000 0.709583 0.000000
1.000000 0.709135 0.000000
1.000000 0.709135 0.000000
0.000000 0.791153 0.000000
0.000000 0.791153 0.000000
0.000000 0.790704 0.000000
0.000000 0.789134 0.000000
0.022815 0.787565 0.000000
0.061495 0.785995 0.000000
0.100175 0.784425 0.000000
0.138855 0.782855 0.000000
0.177536 0.781286 0.000000
0.216216 0.779716 0.000000
0.254896 0.778146 0.000000
0.293577 0.776577 0.000000
0.332257 0.775007 0.000000
0.370937 0.773437 0.000000
0.409617 0.771867 0.000000
0.448298 0.770297 0.000000
0.486978 0.768728 0.000000
0.525658 0.767158 0.000000
0.564338 0.765588 0.000000
0.603019 0.764018 0.000000
0.641699 0.762449 0.000000
0.680379 0.760879 0.000000
0.719059 0.759309 0.000000
0.757740 0.757740 0.000000
0.796420 0.756170 0.000000
0.835100 0.754600 0.000000
0.873780 0.753030 0.000000
0.912461 0.751460 0.000000
0.951141 0.749891 0.000000
0.989821 0.748321 0.000000
1.000000 0.746751 0.000000
1.000000 0.746303 0.000000
1.000000 0.746303 0.000000
0.000000 0.828321 0.000000
0.000000 0.828321 0.000000
0.000000 0.827873 0.000000
0.000000 0.826303 0.000000
0.019733 0.824733 0.000000
0.058413 0.823163 0.000000
0.097093 0.821594 0.000000
0.135774 0.820024 0.000000
0.174454 0.818454 0.000000
0.213134 0.816884 0.000000
0.251814 0.815314 0.000000
0.290495 0.813745 0.000000
0.329175 0.812175 0.000000
0.367855 0.810605 0.000000
0.406535 0.809036 0.000000
0.445216 0.807466 0.000000
0.483896 0.805896 0.000000
0.522576 0.804326 0.000000
0.561257 0.802756 0.000000
0.599937 0.801187 0.000000
0.638617 0.799617 0.000000
0.677297 0.798047 0.000000
0.715977 0.796477 0.000000
0.754658 0.794908 0.000000
0.793338 0.793338 0.000000
0.832018 0.791768 0.000000
0.870699 0.790199 0.000000
0.909379 0.788629 0.000000
0.948059 0.787059 0.000000
0.986739 0.785489 0.000000
1.000000 0.783919 0.000000
1.000000 0.783471 0.000000
1.000000 0.783471 0.000000
0.000000 0.865489 0.000000
0.000000 0.865489 0.000000
0.000000 0.865041 0.000000
0.000000 0.863471 0.000000
0.016651 0.861901 0.000000
0.055332 0.860332 0.000000
0.094012 0.858762 0.000000
0.132692 0.857192 0.000000
0.171372 0.855622 0.000000
0.210053 0.854053 0.000000
0.248733 0.852483 0.000000
0.287413 0.850913 0.000000
0.326093 0.849343 0.000000
0.364774 0.847774 0.000000
0.403454 0.846204 0.000000
0.442134 0.844634 0.000000
0.480814 0.843064 0.000000
0.519495 0.841495 0.000000
0.558175 0.839925 0.000000
0.596855 0.838355 0.000000
0.635535 0.836785 0.000000
0.674216 0.835216 0.000000
0.712896 0.833646 0.000000
0.751576 0.832076 0.000000
0.790256 0.830506 0.000000
0.828937 0.828937 0.000000
0.867617 0.827367 0.000000
0.906297 0.825797 0.000000
0.944977 0.824227 0.000000
0.983658 0.822658 0.000000
1.000000 0.821088 0.000000
1.000000 0.820639 0.000000
1.000000 0.820639 0.000000
0.000000 0.902658 0.000000
0.000000 0.902658 0.000000
0.000000 0.902209 0.000000
0.000000 0.900639 0.000000
0.013570 0.899070 0.000000
0.052250 0.897500 0.000000
0.090930 0.895930 0.000000
0.129610 0.894360 0.000000
0.168291 0.892791 0.000000
0.206971 0.891221 0.000000
0.245651 0.889651 0.000000
0.284331 0.888081 0.000000
0.323012 0.886512 0.000000
0.361692 0.884942 0.000000
0.400372 0.883372 0.000000
0.439052 0.881802 0.000000
0.477733 0.880233 0.000000
0.516413 0.878663 0.000000
0.555093 0.877093 0.000000
0.593773 0.875523 0.000000
0.632454 0.873954 0.000000
0.671134 0.872384 0.000000
0.709814 0.870814 0.000000
0.748494 0.869244 0.000000
0.787174 0.867675 0.000000
0.825855 0.866105 0.000000
0.864535 0.864535 0.000000
