luts/warm_vintage.cube
TITLE "Warm Vintage"
LUT_3D_SIZE 33
DOMAIN_MIN 0.0 0.0 0.0
DOMAIN_MAX 1.0 1.0 1.0
0.099406 0.077774 0.057244
0.125799 0.077774 0.057244
0.152191 0.077774 0.057244
0.178584 0.077774 0.057244
0.204976 0.077774 0.057244
0.231369 0.077774 0.057244
0.257761 0.077774 0.057244
0.284154 0.077774 0.057244
0.310546 0.077774 0.057244
0.336939 0.077774 0.057244
0.363331 0.077774 0.057244
0.389724 0.077774 0.057244
0.416116 0.077774 0.057244
0.442509 0.077774 0.057244
0.468901 0.077774 0.057244
0.495294 0.077774 0.057244
0.521686 0.077774 0.057244
0.548079 0.077774 0.057244
0.574471 0.077774 0.057244
0.600864 0.077774 0.057244
0.627256 0.077774 0.057244
0.653649 0.077774 0.057244
0.680703 0.077774 0.057685
0.708042 0.077774 0.058316
0.735382 0.077774 0.058948
0.762721 0.077774 0.059579
0.790061 0.077774 0.060210
0.817400 0.077774 0.060841
0.844740 0.077774 0.061473
0.872079 0.077774 0.062104
0.899419 0.077774 0.062735
0.926758 0.077774 0.063367
0.954097 0.077774 0.063998
0.099406 0.102701 0.057244
0.125799 0.102701 0.057244
0.152191 0.102701 0.057244
0.178584 0.102701 0.057244
0.204976 0.102701 0.057244
0.231369 0.102701 0.057244
0.257761 0.102701 0.057244
0.284154 0.102701 0.057244
0.310546 0.102701 0.057244
0.336939 0.102701 0.057244
0.363331 0.102701 0.057244
0.389724 0.102701 0.057244
0.416116 0.102701 0.057244
0.442509 0.102701 0.057244
0.468901 0.102701 0.057244
0.495294 0.102701 0.057244
0.521686 0.102701 0.057244
0.548079 0.102701 0.057244
0.574471 0.102701 0.057244
0.600864 0.102701 0.057244
0.627780 0.102701 0.057593
0.655119 0.102701 0.058224
0.682459 0.102701 0.058855
0.709798 0.102701 0.059487
0.737138 0.102701 0.060118
0.764477 0.102701 0.060749
0.791816 0.102701 0.061381
0.819156 0.102701 0.062012
0.846495 0.102701 0.062643
0.873835 0.102701 0.063275
0.901174 0.102701 0.063906
0.928514 0.102701 0.064537
0.955853 0.102701 0.065169
0.099406 0.127627 0.057244
0.125799 0.127627 0.057244
0.152191 0.127627 0.057244
0.178584 0.127627 0.057244
0.204976 0.127627 0.057244
0.231369 0.127627 0.057244
0.257761 0.127627 0.057244
0.284154 0.127627 0.057244
0.310546 0.127627 0.057244
0.336939 0.127627 0.057244
0.363331 0.127627 0.057244
0.389724 0.127627 0.057244
0.416116 0.127627 0.057244
0.442509 0.127627 0.057244
0.468901 0.127627 0.057244
0.495294 0.127627 0.057244
0.521686 0.127627 0.057244
0.548079 0.127627 0.057244
0.574857 0.127627 0.057501
0.602196 0.127627 0.058132
0.629535 0.127627 0.058763
0.656875 0.127627 0.059395
0.684214 0.127627 0.060026
0.711554 0.127627 0.060657
0.738893 0.127627 0.061289
0.766233 0.127627 0.061920
0.793572 0.127627 0.062551
0.820912 0.127627 0.063183
0.848251 0.127627 0.063814
0.875591 0.127627 0.064445
0.902930 0.127627 0.065076
0.930270 0.127627 0.065708
0.957609 0.127627 0.066339
0.099406 0.152553 0.057244
0.125799 0.152553 0.057244
0.152191 0.152553 0.057244
0.178584 0.152553 0.057244
0.204976 0.152553 0.057244
0.231369 0.152553 0.057244
0.257761 0.152553 0.057244
0.284154 0.152553 0.057244
0.310546 0.152553 0.057244
0.336939 0.152553 0.057244
0.363331 0.152553 0.057244
0.389724 0.152553 0.057244
0.416116 0.152553 0.057244
0.442509 0.152553 0.057244
0.468901 0.152553 0.057244
0.495294 0.152553 0.057244
0.521933 0.152553 0.057409
0.549273 0.152553 0.058040
0.576612 0.152553 0.058671
0.603952 0.152553 0.059303
0.631291 0.152553 0.059934
0.658631 0.152553 0.060565
0.685970 0.152553 0.061197
0.713310 0.152553 0.061828
0.740649 0.152553 0.062459
0.767989 0.152553 0.063090
0.795328 0.152553 0.063722
0.822668 0.152553 0.064353
0.850007 0.152553 0.064984
0.877346 0.152553 0.065616
0.904686 0.152553 0.066247
0.932025 0.152553 0.066878
0.959365 0.152553 0.067510
0.099406 0.177479 0.057244
0.125799 0.177479 0.057244
0.152191 0.177479 0.057244
0.178584 0.177479 0.057244
0.204976 0.177479 0.057244
0.231369 0.177479 0.057244
0.257761 0.177479 0.057244
0.284154 0.177479 0.057244
0.310546 0.177479 0.057244
0.336939 0.177479 0.057244
0.363331 0.177479 0.057244
0.389724 0.177479 0.057244
0.416116 0.177479 0.057244
0.442509 0.177479 0.057244
0.469010 0.177479 0.057317
0.496350 0.177479 0.057948
0.523689 0.177479 0.058579
0.551029 0.177479 0.059211
0.578368 0.177479 0.059842
0.605708 0.177479 0.060473
0.633047 0.177479 0.061104
0.660387 0.177479 0.061736
0.687726 0.177479 0.062367
0.715065 0.177479 0.062998
0.742405 0.177479 0.063630
0.769744 0.177479 0.064261
0.797084 0.177479 0.064892
0.824423 0.177479 0.065524
0.851763 0.177479 0.066155
0.879102 0.177479 0.066786
0.906442 0.177479 0.067418
0.933781 0.177479 0.068049
0.961121 0.177479 0.068680
0.099406 0.202406 0.057244
0.125799 0.202406 0.057244
0.152191 0.202406 0.057244
0.178584 0.202406 0.057244
0.204976 0.202406 0.057244
0.231369 0.202406 0.057244
0.257761 0.202406 0.057244
0.284154 0.202406 0.057244
0.310546 0.202406 0.057244
0.336939 0.202406 0.057244
0.363331 0.202406 0.057244
0.389724 0.202406 0.057244
0.416116 0.202406 0.057244
0.443427 0.202406 0.057856
0.470766 0.202406 0.058487
0.498106 0.202406 0.059118
0.525445 0.202406 0.059750
0.552785 0.202406 0.060381
0.580124 0.202406 0.061012
0.607463 0.202406 0.061644
0.634803 0.202406 0.062275
0.662142 0.202406 0.062906
0.689482 0.202406 0.063538
0.716821 0.202406 0.064169
0.744161 0.202406 0.064800
0.771500 0.202406 0.065432
0.798840 0.202406 0.066063
0.826179 0.202406 0.066694
0.853519 0.202406 0.067325
0.880858 0.202406 0.067957
0.908198 0.202406 0.068588
0.935537 0.202406 0.069219
0.962876 0.202406 0.069851
0.099406 0.227332 0.057244
0.125799 0.227332 0.057244
0.152191 0.227332 0.057244
0.178584 0.227332 0.057244
0.204976 0.227332 0.057244
0.231369 0.227332 0.057244
0.257761 0.227332 0.057244
0.284154 0.227332 0.057244
0.310546 0.227332 0.057244
0.336939 0.227332 0.057244
0.363331 0.227332 0.057244
0.390504 0.227332 0.057764
0.417843 0.227332 0.058395
0.445182 0.227332 0.059026
0.472522 0.227332 0.059658
0.499861 0.227332 0.060289
0.527201 0.227332 0.060920
0.554540 0.227332 0.061552
0.581880 0.227332 0.062183
0.609219 0.227332 0.062814
0.636559 0.227332 0.063446
0.663898 0.227332 0.064077
0.691238 0.227332 0.064708
0.718577 0.227332 0.065339
0.745917 0.227332 0.065971
0.773256 0.227332 0.066602
0.800595 0.227332 0.067233
0.827935 0.227332 0.067865
0.855274 0.227332 0.068496
0.882614 0.227332 0.069127
0.909953 0.227332 0.069759
0.937293 0.227332 0.070390
0.964632 0.227332 0.071021
0.099406 0.252258 0.057244
0.125799 0.252258 0.057244
0.152191 0.252258 0.057244
0.178584 0.252258 0.057244
0.204976 0.252258 0.057244
0.231369 0.252258 0.057244
0.257761 0.252258 0.057244
0.284154 0.252258 0.057244
0.310546 0.252258 0.057244
0.337580 0.252258 0.057672
0.364920 0.252258 0.058303
0.392259 0.252258 0.058934
0.419599 0.252258 0.059566
0.446938 0.252258 0.060197
0.474278 0.252258 0.060828
0.501617 0.252258 0.061460
0.528957 0.252258 0.062091
0.556296 0.252258 0.062722
0.583636 0.252258 0.063353
0.610975 0.252258 0.063985
0.638315 0.252258 0.064616
0.665654 0.252258 0.065247
0.692993 0.252258 0.065879
0.720333 0.252258 0.066510
0.747672 0.252258 0.067141
0.775012 0.252258 0.067773
0.802351 0.252258 0.068404
0.829691 0.252258 0.069035
0.857030 0.252258 0.069667
0.884370 0.252258 0.070298
0.911709 0.252258 0.070929
0.939049 0.252258 0.071560
0.966388 0.252258 0.072192
0.099406 0.277184 0.057244
0.125799 0.277184 0.057244
0.152191 0.277184 0.057244
0.178584 0.277184 0.057244
0.204976 0.277184 0.057244
0.231369 0.277184 0.057244
0.257761 0.277184 0.057244
0.284657 0.277184 0.057580
0.311997 0.277184 0.058211
0.339336 0.277184 0.058842
0.366676 0.277184 0.059474
0.394015 0.277184 0.060105
0.421355 0.277184 0.060736
0.448694 0.277184 0.061367
0.476034 0.277184 0.061999
0.503373 0.277184 0.062630
0.530712 0.277184 0.063261
0.558052 0.277184 0.063893
0.585391 0.277184 0.064524
0.612731 0.277184 0.065155
0.640070 0.277184 0.065787
0.667410 0.277184 0.066418
0.694749 0.277184 0.067049
0.722089 0.277184 0.067681
0.749428 0.277184 0.068312
0.776768 0.277184 0.068943
0.804107 0.277184 0.069574
0.831447 0.277184 0.070206
0.858786 0.277184 0.070837
0.886125 0.277184 0.071468
0.913465 0.277184 0.072100
0.940804 0.277184 0.072731
0.968144 0.277184 0.073362
0.099406 0.302111 0.057244
0.125799 0.302111 0.057244
0.152191 0.302111 0.057244
0.178584 0.302111 0.057244
0.204976 0.302111 0.057244
0.231734 0.302111 0.057488
0.259074 0.302111 0.058119
0.286413 0.302111 0.058750
0.313753 0.302111 0.059381
0.341092 0.302111 0.060013
0.368432 0.302111 0.060644
0.395771 0.302111 0.061275
0.423110 0.302111 0.061907
0.450450 0.302111 0.062538
0.477789 0.302111 0.063169
0.505129 0.302111 0.063801
0.532468 0.302111 0.064432
0.559808 0.302111 0.065063
0.587147 0.302111 0.065695
0.614487 0.302111 0.066326
0.641826 0.302111 0.066957
0.669166 0.302111 0.067588
0.696505 0.302111 0.068220
0.723845 0.302111 0.068851
0.751184 0.302111 0.069482
0.778523 0.302111 0.070114
0.805863 0.302111 0.070745
0.833202 0.302111 0.071376
0.860542 0.302111 0.072008
0.887881 0.302111 0.072639
0.915221 0.302111 0.073270
0.942560 0.302111 0.073902
0.969900 0.302111 0.074533
0.099406 0.327037 0.057244
0.125799 0.327037 0.057244
0.152191 0.327037 0.057244
0.178811 0.327037 0.057395
0.206151 0.327037 0.058027
0.233490 0.327037 0.058658
0.260829 0.327037 0.059289
0.288169 0.327037 0.059921
0.315508 0.327037 0.060552
0.342848 0.327037 0.061183
0.370187 0.327037 0.061815
0.397527 0.327037 0.062446
0.424866 0.327037 0.063077
0.452206 0.327037 0.063709
0.479545 0.327037 0.064340
0.506885 0.327037 0.064971
0.534224 0.327037 0.065602
0.561564 0.327037 0.066234
0.588903 0.327037 0.066865
0.616242 0.327037 0.067496
0.643582 0.327037 0.068128
0.670921 0.327037 0.068759
0.698261 0.327037 0.069390
0.725600 0.327037 0.070022
0.752940 0.327037 0.070653
0.780279 0.327037 0.071284
0.807619 0.327037 0.071916
0.834958 0.327037 0.072547
0.862298 0.327037 0.073178
0.889637 0.327037 0.073809
0.916977 0.327037 0.074441
0.944316 0.327037 0.075072
0.971655 0.327037 0.075703
0.099406 0.351963 0.057244
0.125888 0.351963 0.057303
0.153227 0.351963 0.057935
0.180567 0.351963 0.058566
0.207906 0.351963 0.059197
0.235246 0.351963 0.059829
0.262585 0.351963 0.060460
0.289925 0.351963 0.061091
0.317264 0.351963 0.061723
0.344604 0.351963 0.062354
0.371943 0.351963 0.062985
0.399283 0.351963 0.063616
0.426622 0.351963 0.064248
0.453962 0.351963 0.064879
0.481301 0.351963 0.065510
0.508640 0.351963 0.066142
0.535980 0.351963 0.066773
0.563319 0.351963 0.067404
0.590659 0.351963 0.068036
0.617998 0.351963 0.068667
0.645338 0.351963 0.069298
0.672677 0.351963 0.069930
0.700017 0.351963 0.070561
0.727356 0.351963 0.071192
0.754696 0.351963 0.071823
0.782035 0.351963 0.072455
0.809375 0.351963 0.073086
0.836714 0.351963 0.073717
0.864053 0.351963 0.074349
0.891393 0.351963 0.074980
0.918732 0.351963 0.075611
0.946072 0.351963 0.076243
0.973411 0.351963 0.076874
0.100304 0.376889 0.057843
0.127644 0.376889 0.058474
0.154983 0.376889 0.059105
0.182323 0.376889 0.059737
0.209662 0.376889 0.060368
0.237002 0.376889 0.060999
0.264341 0.376889 0.061630
0.291681 0.376889 0.062262
0.319020 0.376889 0.062893
0.346359 0.376889 0.063524
0.373699 0.376889 0.064156
0.401038 0.376889 0.064787
0.428378 0.376889 0.065418
0.455717 0.376889 0.066050
0.483057 0.376889 0.066681
0.510396 0.376889 0.067312
0.537736 0.376889 0.067944
0.565075 0.376889 0.068575
0.592415 0.376889 0.069206
0.619754 0.376889 0.069837
0.647094 0.376889 0.070469
0.674433 0.376889 0.071100
0.701772 0.376889 0.071731
0.729112 0.376889 0.072363
0.756451 0.376889 0.072994
0.783791 0.376889 0.073625
0.811130 0.376889 0.074257
0.838470 0.376889 0.074888
0.865809 0.376889 0.075519
0.893149 0.376889 0.076151
0.920488 0.376889 0.076782
0.947320 0.376889 0.077075
0.972766 0.376889 0.076444
0.102060 0.401816 0.059013
0.129400 0.401816 0.059644
0.156739 0.401816 0.060276
0.184078 0.401816 0.060907
0.211418 0.401816 0.061538
0.238757 0.401816 0.062170
0.266097 0.401816 0.062801
0.293436 0.401816 0.063432
0.320776 0.401816 0.064064
0.348115 0.401816 0.064695
0.375455 0.401816 0.065326
0.402794 0.401816 0.065958
0.430134 0.401816 0.066589
0.457473 0.401816 0.067220
0.484813 0.401816 0.067851
0.512152 0.401816 0.068483
0.539492 0.401816 0.069114
0.566831 0.401816 0.069745
0.594170 0.401816 0.070377
0.621510 0.401816 0.071008
0.648849 0.401816 0.071639
0.676189 0.401816 0.072271
0.703528 0.401816 0.072902
0.730868 0.401816 0.073533
0.758207 0.401816 0.074165
0.785547 0.401816 0.074796
0.812886 0.401816 0.075427
0.840226 0.401816 0.076058
0.867565 0.401816 0.076690
0.894673 0.401816 0.077167
0.920119 0.401816 0.076536
0.945564 0.401816 0.075904
0.971010 0.401816 0.075273
0.103816 0.426742 0.060184
0.131155 0.426742 0.060815
0.158495 0.426742 0.061446
0.185834 0.426742 0.062078
0.213174 0.426742 0.062709
0.240513 0.426742 0.063340
0.267853 0.426742 0.063972
0.295192 0.426742 0.064603
0.322532 0.426742 0.065234
0.349871 0.426742 0.065865
0.377211 0.426742 0.066497
0.404550 0.426742 0.067128
0.431889 0.426742 0.067759
0.459229 0.426742 0.068391
0.486568 0.426742 0.069022
0.513908 0.426742 0.069653
0.541247 0.426742 0.070285
0.568587 0.426742 0.070916
0.595926 0.426742 0.071547
0.623266 0.426742 0.072179
0.650605 0.426742 0.072810
0.677945 0.426742 0.073441
0.705284 0.426742 0.074072
0.732624 0.426742 0.074704
0.759963 0.426742 0.075335
0.787302 0.426742 0.075966
0.814642 0.426742 0.076598
0.841981 0.426742 0.077229
0.867472 0.426742 0.076628
0.892917 0.426742 0.075996
0.918363 0.426742 0.075365
0.943809 0.426742 0.074734
0.969254 0.426742 0.074102
0.105572 0.451668 0.061354
0.132911 0.451668 0.061986
0.160251 0.451668 0.062617
0.187590 0.451668 0.063248
0.214930 0.451668 0.063879
0.242269 0.451668 0.064511
0.269608 0.451668 0.065142
0.296948 0.451668 0.065773
0.324287 0.451668 0.066405
0.351627 0.451668 0.067036
0.378966 0.451668 0.067667
0.406306 0.451668 0.068299
0.433645 0.451668 0.068930
0.460985 0.451668 0.069561
0.488324 0.451668 0.070193
0.515664 0.451668 0.070824
0.543003 0.451668 0.071455
0.570343 0.451668 0.072086
0.597682 0.451668 0.072718
0.625021 0.451668 0.073349
0.652361 0.451668 0.073980
0.679700 0.451668 0.074612
0.707040 0.451668 0.075243
0.734379 0.451668 0.075874
0.761719 0.451668 0.076506
0.789058 0.451668 0.077137
0.814825 0.451668 0.076720
0.840271 0.451668 0.076088
0.865716 0.451668 0.075457
0.891162 0.451668 0.074826
0.916607 0.451668 0.074195
0.942053 0.451668 0.073563
0.967498 0.451668 0.072932
0.107328 0.476594 0.062525
0.134667 0.476594 0.063156
0.162006 0.476594 0.063787
0.189346 0.476594 0.064419
0.216685 0.476594 0.065050
0.244025 0.476594 0.065681
0.271364 0.476594 0.066313
0.298704 0.476594 0.066944
0.326043 0.476594 0.067575
0.353383 0.476594 0.068207
0.380722 0.476594 0.068838
0.408062 0.476594 0.069469
0.435401 0.476594 0.070100
0.462741 0.476594 0.070732
0.490080 0.476594 0.071363
0.517419 0.476594 0.071994
0.544759 0.476594 0.072626
0.572098 0.476594 0.073257
0.599438 0.476594 0.073888
0.626777 0.476594 0.074520
0.654117 0.476594 0.075151
0.681456 0.476594 0.075782
0.708796 0.476594 0.076414
0.736135 0.476594 0.077045
0.762178 0.476594 0.076812
0.787624 0.476594 0.076181
0.813069 0.476594 0.075549
0.838515 0.476594 0.074918
0.863960 0.476594 0.074287
0.889406 0.476594 0.073655
0.914851 0.476594 0.073024
0.940297 0.476594 0.072393
0.965742 0.476594 0.071761
0.109083 0.501521 0.063695
0.136423 0.501521 0.064327
0.163762 0.501521 0.064958
0.191102 0.501521 0.065589
0.218441 0.501521 0.066221
0.245781 0.501521 0.066852
0.273120 0.501521 0.067483
0.300460 0.501521 0.068114
0.327799 0.501521 0.068746
0.355138 0.501521 0.069377
0.382478 0.501521 0.070008
0.409817 0.501521 0.070640
0.437157 0.501521 0.071271
0.464496 0.501521 0.071902
0.491836 0.501521 0.072534
0.519175 0.501521 0.073165
0.546515 0.501521 0.073796
0.573854 0.501521 0.074428
0.601194 0.501521 0.075059
0.628533 0.501521 0.075690
0.655873 0.501521 0.076321
0.683212 0.501521 0.076953
0.709531 0.501521 0.076904
0.734977 0.501521 0.076273
0.760422 0.501521 0.075641
0.785868 0.501521 0.075010
0.811313 0.501521 0.074379
0.836759 0.501521 0.073747
0.862205 0.501521 0.073116
0.887650 0.501521 0.072485
0.913096 0.501521 0.071853
0.938541 0.501521 0.071222
0.963987 0.501521 0.070591
0.110839 0.526447 0.064866
0.138179 0.526447 0.065497
0.165518 0.526447 0.066128
0.192858 0.526447 0.066760
0.220197 0.526447 0.067391
0.247536 0.526447 0.068022
0.274876 0.526447 0.068654
0.302215 0.526447 0.069285
0.329555 0.526447 0.069916
0.356894 0.526447 0.070548
0.384234 0.526447 0.071179
0.411573 0.526447 0.071810
0.438913 0.526447 0.072442
0.466252 0.526447 0.073073
0.493592 0.526447 0.073704
0.520931 0.526447 0.074335
0.548271 0.526447 0.074967
0.575610 0.526447 0.075598
0.602949 0.526447 0.076229
0.630289 0.526447 0.076861
0.656884 0.526447 0.076996
0.682330 0.526447 0.076365
0.707775 0.526447 0.075733
0.733221 0.526447 0.075102
0.758667 0.526447 0.074471
0.784112 0.526447 0.073839
0.809558 0.526447 0.073208
0.835003 0.526447 0.072577
0.860449 0.526447 0.071946
0.885894 0.526447 0.071314
0.911340 0.526447 0.070683
0.936785 0.526447 0.070052
0.962231 0.526447 0.069420
0.112595 0.551373 0.066036
0.139934 0.551373 0.066668
0.167274 0.551373 0.067299
0.194613 0.551373 0.067930
0.221953 0.551373 0.068562
0.249292 0.551373 0.069193
0.276632 0.551373 0.069824
0.303971 0.551373 0.070456
0.331311 0.551373 0.071087
0.358650 0.551373 0.071718
0.385990 0.551373 0.072349
0.413329 0.551373 0.072981
0.440668 0.551373 0.073612
0.468008 0.551373 0.074243
0.495347 0.551373 0.074875
0.522687 0.551373 0.075506
0.550026 0.551373 0.076137
0.577366 0.551373 0.076769
0.604238 0.551373 0.077088
0.629683 0.551373 0.076457
0.655129 0.551373 0.075825
0.680574 0.551373 0.075194
0.706020 0.551373 0.074563
0.731465 0.551373 0.073932
0.756911 0.551373 0.073300
0.782356 0.551373 0.072669
0.807802 0.551373 0.072038
0.833247 0.551373 0.071406
0.858693 0.551373 0.070775
0.884138 0.551373 0.070144
0.909584 0.551373 0.069512
0.935030 0.551373 0.068881
0.960475 0.551373 0.068250
0.114351 0.576299 0.067207
0.141690 0.576299 0.067838
0.169030 0.576299 0.068470
0.196369 0.576299 0.069101
0.223709 0.576299 0.069732
0.251048 0.576299 0.070363
0.278388 0.576299 0.070995
0.305727 0.576299 0.071626
0.333066 0.576299 0.072257
0.360406 0.576299 0.072889
0.387745 0.576299 0.073520
0.415085 0.576299 0.074151
0.442424 0.576299 0.074783
0.469764 0.576299 0.075414
0.497103 0.576299 0.076045
0.524443 0.576299 0.076677
0.551591 0.576299 0.077180
0.577036 0.576299 0.076549
0.602482 0.576299 0.075918
0.627927 0.576299 0.075286
0.653373 0.576299 0.074655
0.678818 0.576299 0.074024
0.704264 0.576299 0.073392
0.729709 0.576299 0.072761
0.755155 0.576299 0.072130
0.780600 0.576299 0.071498
0.806046 0.576299 0.070867
0.831492 0.576299 0.070236
0.856937 0.576299 0.069604
0.882383 0.576299 0.068973
0.907828 0.576299 0.068342
0.933274 0.576299 0.067711
0.958719 0.576299 0.067079
0.116107 0.601226 0.068377
0.143446 0.601226 0.069009
0.170785 0.601226 0.069640
0.198125 0.601226 0.070271
0.225464 0.601226 0.070903
0.252804 0.601226 0.071534
0.280143 0.601226 0.072165
0.307483 0.601226 0.072797
0.334822 0.601226 0.073428
0.362162 0.601226 0.074059
0.389501 0.601226 0.074691
0.416841 0.601226 0.075322
0.444180 0.601226 0.075953
0.471520 0.601226 0.076584
0.498859 0.601226 0.077216
0.524389 0.601226 0.076641
0.549835 0.601226 0.076010
0.575280 0.601226 0.075378
0.600726 0.601226 0.074747
0.626171 0.601226 0.074116
0.651617 0.601226 0.073484
0.677063 0.601226 0.072853
0.702508 0.601226 0.072222
0.727954 0.601226 0.071590
0.753399 0.601226 0.070959
0.778845 0.601226 0.070328
0.804290 0.601226 0.069697
0.829736 0.601226 0.069065
0.855181 0.601226 0.068434
0.880627 0.601226 0.067803
0.906072 0.601226 0.067171
0.931518 0.601226 0.066540
0.956963 0.601226 0.065909
0.117862 0.626152 0.069548
0.145202 0.626152 0.070179
0.172541 0.626152 0.070811
0.199881 0.626152 0.071442
0.227220 0.626152 0.072073
0.254560 0.626152 0.072705
0.281899 0.626152 0.073336
0.309239 0.626152 0.073967
0.336578 0.626152 0.074598
0.363918 0.626152 0.075230
0.391257 0.626152 0.075861
0.418596 0.626152 0.076492
0.445936 0.626152 0.077124
0.471742 0.626152 0.076733
0.497188 0.626152 0.076102
0.522634 0.626152 0.075470
0.548079 0.626152 0.074839
0.573525 0.626152 0.074208
0.598970 0.626152 0.073576
0.624416 0.626152 0.072945
0.649861 0.626152 0.072314
0.675307 0.626152 0.071683
0.700752 0.626152 0.071051
0.726198 0.626152 0.070420
0.751643 0.626152 0.069789
0.777089 0.626152 0.069157
0.802534 0.626152 0.068526
0.827980 0.626152 0.067895
0.853425 0.626152 0.067263
0.878871 0.626152 0.066632
0.904317 0.626152 0.066001
0.929762 0.626152 0.065369
0.955208 0.626152 0.064738
0.119618 0.651078 0.070718
0.146958 0.651078 0.071350
0.174297 0.651078 0.071981
0.201637 0.651078 0.072612
0.228976 0.651078 0.073244
0.256315 0.651078 0.073875
0.283655 0.651078 0.074506
0.310994 0.651078 0.075138
0.338334 0.651078 0.075769
0.365673 0.651078 0.076400
0.393013 0.651078 0.077032
0.419096 0.651078 0.076825
0.444541 0.651078 0.076194
0.469987 0.651078 0.075562
0.495432 0.651078 0.074931
0.520878 0.651078 0.074300
0.546323 0.651078 0.073669
0.571769 0.651078 0.073037
0.597214 0.651078 0.072406
0.622660 0.651078 0.071775
0.648105 0.651078 0.071143
0.673551 0.651078 0.070512
0.698996 0.651078 0.069881
0.724442 0.651078 0.069249
0.749888 0.651078 0.068618
0.775333 0.651078 0.067987
0.800779 0.651078 0.067355
0.826224 0.651078 0.066724
0.851670 0.651078 0.066093
0.877115 0.651078 0.065462
0.902561 0.651078 0.064830
0.928006 0.651078 0.064199
0.953452 0.651078 0.063568
0.121374 0.676004 0.071889
0.148713 0.676004 0.072520
0.176053 0.676004 0.073152
0.203392 0.676004 0.073783
0.230732 0.676004 0.074414
0.258071 0.676004 0.075046
0.285411 0.676004 0.075677
0.312750 0.676004 0.076308
0.340090 0.676004 0.076940
0.366449 0.676004 0.076917
0.391894 0.676004 0.076286
0.417340 0.676004 0.075655
0.442785 0.676004 0.075023
0.468231 0.676004 0.074392
0.493676 0.676004 0.073761
0.519122 0.676004 0.073129
0.544567 0.676004 0.072498
0.570013 0.676004 0.071867
0.595459 0.676004 0.071235
0.620904 0.676004 0.070604
0.646350 0.676004 0.069973
0.671795 0.676004 0.069341
0.697241 0.676004 0.068710
0.722686 0.676004 0.068079
0.748132 0.676004 0.067448
0.773577 0.676004 0.066816
0.799023 0.676004 0.066185
0.824468 0.676004 0.065554
0.849914 0.676004 0.064922
0.875359 0.676004 0.064291
0.900805 0.676004 0.063660
0.926251 0.676004 0.063028
0.951696 0.676004 0.062397
0.123130 0.700931 0.073060
0.150469 0.700931 0.073691
0.177809 0.700931 0.074322
0.205148 0.700931 0.074953
0.232488 0.700931 0.075585
0.259827 0.700931 0.076216
0.287167 0.700931 0.076847
0.313802 0.700931 0.077009
0.339247 0.700931 0.076378
0.364693 0.700931 0.075747
0.390138 0.700931 0.075115
0.415584 0.700931 0.074484
0.441029 0.700931 0.073853
0.466475 0.700931 0.073221
0.491921 0.700931 0.072590
0.517366 0.700931 0.071959
0.542812 0.700931 0.071327
0.568257 0.700931 0.070696
0.593703 0.700931 0.070065
0.619148 0.700931 0.069434
0.644594 0.700931 0.068802
0.670039 0.700931 0.068171
0.695485 0.700931 0.067540
0.720930 0.700931 0.066908
0.746376 0.700931 0.066277
0.771821 0.700931 0.065646
0.797267 0.700931 0.065014
0.822713 0.700931 0.064383
0.848158 0.700931 0.063752
0.873604 0.700931 0.063120
0.899049 0.700931 0.062489
0.924495 0.700931 0.061858
0.949940 0.700931 0.061227
0.124886 0.725857 0.074230
0.152225 0.725857 0.074861
0.179564 0.725857 0.075493
0.206904 0.725857 0.076124
0.234243 0.725857 0.076755
0.261155 0.725857 0.077101
0.286600 0.725857 0.076470
0.312046 0.725857 0.075839
0.337492 0.725857 0.075207
0.362937 0.725857 0.074576
0.388383 0.725857 0.073945
0.413828 0.725857 0.073313
0.439274 0.725857 0.072682
0.464719 0.725857 0.072051
0.490165 0.725857 0.071420
0.515610 0.725857 0.070788
0.541056 0.725857 0.070157
0.566501 0.725857 0.069526
0.591947 0.725857 0.068894
0.617392 0.725857 0.068263
0.642838 0.725857 0.067632
0.668284 0.725857 0.067000
0.693729 0.725857 0.066369
0.719175 0.725857 0.065738
0.744620 0.725857 0.065106
0.770066 0.725857 0.064475
0.795511 0.725857 0.063844
