luts/warm_vintage.cube
TITLE "Warm Vintage"
LUT_3D_SIZE 9
DOMAIN_MIN 0.0 0.0 0.0
DOMAIN_MAX 1.0 1.0 1.0
0.099406 0.077774 0.057244
0.204976 0.077774 0.057244
0.310546 0.077774 0.057244
0.416116 0.077774 0.057244
0.521686 0.077774 0.057244
0.627256 0.077774 0.057244
0.735382 0.077774 0.058948
0.844740 0.077774 0.061473
0.954097 0.077774 0.063998
0.099406 0.177479 0.057244
0.204976 0.177479 0.057244
0.310546 0.177479 0.057244
0.416116 0.177479 0.057244
0.523689 0.177479 0.058579
0.633047 0.177479 0.061104
0.742405 0.177479 0.063630
0.851763 0.177479 0.066155
0.961121 0.177479 0.068680
0.099406 0.277184 0.057244
0.204976 0.277184 0.057244
0.311997 0.277184 0.058211
0.421355 0.277184 0.060736
0.530712 0.277184 0.063261
0.640070 0.277184 0.065787
0.749428 0.277184 0.068312
0.858786 0.277184 0.070837
0.968144 0.277184 0.073362
0.100304 0.376889 0.057843
0.209662 0.376889 0.060368
0.319020 0.376889 0.062893
0.428378 0.376889 0.065418
0.537736 0.376889 0.067944
0.647094 0.376889 0.070469
0.756451 0.376889 0.072994
0.865809 0.376889 0.075519
0.972766 0.376889 0.076444
0.107328 0.476594 0.062525
0.216685 0.476594 0.065050
0.326043 0.476594 0.067575
0.435401 0.476594 0.070100
0.544759 0.476594 0.072626
0.654117 0.476594 0.075151
0.762178 0.476594 0.076812
0.863960 0.476594 0.074287
0.965742 0.476594 0.071761
0.114351 0.576299 0.067207
0.223709 0.576299 0.069732
0.333066 0.576299 0.072257
0.442424 0.576299 0.074783
0.551591 0.576299 0.077180
0.653373 0.576299 0.074655
0.755155 0.576299 0.072130
0.856937 0.576299 0.069604
0.958719 0.576299 0.067079
0.121374 0.676004 0.071889
0.230732 0.676004 0.074414
0.340090 0.676004 0.076940
0.442785 0.676004 0.075023
0.544567 0.676004 0.072498
0.646350 0.676004 0.069973
0.748132 0.676004 0.067448
0.849914 0.676004 0.064922
0.951696 0.676004 0.062397
0.128397 0.775709 0.076571
0.232198 0.775709 0.075392
0.333980 0.775709 0.072866
0.435762 0.775709 0.070341
0.537544 0.775709 0.067816
0.639326 0.775709 0.065291
0.741109 0.775709 0.062765
0.842891 0.775709 0.060240
0.944673 0.775709 0.057715
0.123392 0.875414 0.073235
0.225175 0.875414 0.070709
0.326957 0.875414 0.068184
0.428739 0.875414 0.065659
0.530521 0.875414 0.063134
0.632303 0.875414 0.060609
0.734085 0.875414 0.058083
0.838396 0.875414 0.057244
0.943966 0.875414 0.057244
0.099406 0.077774 0.141394
0.204976 0.077774 0.141394
0.310546 0.077774 0.141394
0.416116 0.077774 0.141394
0.521686 0.077774 0.141394
0.627256 0.077774 0.141394
0.736533 0.077774 0.143865
0.845891 0.077774 0.146390
0.955249 0.077774 0.148915
0.099406 0.177479 0.141394
0.204976 0.177479 0.141394
0.310546 0.177479 0.141394
0.416116 0.177479 0.141394
0.524840 0.177479 0.143497
0.634198 0.177479 0.146022
0.743556 0.177479 0.148547
0.852914 0.177479 0.151072
0.962272 0.177479 0.153598
0.099406 0.277184 0.141394
0.204976 0.277184 0.141394
0.313148 0.277184 0.143128
0.422506 0.277184 0.145654
0.531864 0.277184 0.148179
0.641221 0.277184 0.150704
0.750579 0.277184 0.153229
0.859937 0.277184 0.155755
0.969295 0.277184 0.158280
0.101455 0.376889 0.142760
0.210813 0.376889 0.145285
0.320171 0.376889 0.147811
0.429529 0.376889 0.150336
0.538887 0.376889 0.152861
0.648245 0.376889 0.155386
0.757603 0.376889 0.157911
0.866960 0.376889 0.160437
0.971615 0.376889 0.159826
0.108479 0.476594 0.147442
0.217837 0.476594 0.149967
0.327194 0.476594 0.152493
0.436552 0.476594 0.155018
0.545910 0.476594 0.157543
0.655268 0.476594 0.160068
0.761027 0.476594 0.160194
0.862809 0.476594 0.157669
0.964591 0.476594 0.155144
0.115502 0.576299 0.152124
0.224860 0.576299 0.154650
0.334218 0.576299 0.157175
0.443575 0.576299 0.159700
0.550439 0.576299 0.160563
0.652222 0.576299 0.158037
0.754004 0.576299 0.155512
0.855786 0.576299 0.152987
0.957568 0.576299 0.150462
0.122525 0.676004 0.156806
0.231883 0.676004 0.159332
0.339852 0.676004 0.160931
0.441634 0.676004 0.158406
0.543416 0.676004 0.155881
0.645198 0.676004 0.153355
0.746981 0.676004 0.150830
0.848763 0.676004 0.148305
0.950545 0.676004 0.145780
0.129264 0.775709 0.161299
0.231047 0.775709 0.158774
0.332829 0.775709 0.156249
0.434611 0.775709 0.153724
0.536393 0.775709 0.151198
0.638175 0.775709 0.148673
0.739957 0.775709 0.146148
0.841739 0.775709 0.143623
0.943966 0.775709 0.141394
0.122241 0.875414 0.156617
0.224023 0.875414 0.154092
0.325806 0.875414 0.151567
0.427588 0.875414 0.149042
0.529370 0.875414 0.146516
0.631152 0.875414 0.143991
0.732934 0.875414 0.141466
0.838396 0.875414 0.141394
0.943966 0.875414 0.141394
0.099406 0.077774 0.225544
0.204976 0.077774 0.225544
0.310546 0.077774 0.225544
0.416116 0.077774 0.225544
0.521686 0.077774 0.225544
0.628326 0.077774 0.226257
0.737684 0.077774 0.228782
0.847042 0.077774 0.231308
0.956400 0.077774 0.233833
0.099406 0.177479 0.225544
0.204976 0.177479 0.225544
0.310546 0.177479 0.225544
0.416634 0.177479 0.225889
0.525992 0.177479 0.228414
0.635349 0.177479 0.230939
0.744707 0.177479 0.233465
0.854065 0.177479 0.235990
0.963423 0.177479 0.238515
0.099406 0.277184 0.225544
0.204976 0.277184 0.225544
0.314299 0.277184 0.228046
0.423657 0.277184 0.230571
0.533015 0.277184 0.233096
0.642373 0.277184 0.235622
0.751731 0.277184 0.238147
0.861088 0.277184 0.240672
0.970446 0.277184 0.243197
0.102607 0.376889 0.227677
0.211964 0.376889 0.230203
0.321322 0.376889 0.232728
0.430680 0.376889 0.235253
0.540038 0.376889 0.237778
0.649396 0.376889 0.240304
0.758754 0.376889 0.242829
0.868112 0.376889 0.245354
0.970463 0.376889 0.243209
0.109630 0.476594 0.232360
0.218988 0.476594 0.234885
0.328346 0.476594 0.237410
0.437703 0.476594 0.239935
0.547061 0.476594 0.242461
0.656419 0.476594 0.244986
0.759876 0.476594 0.243577
0.861658 0.476594 0.241052
0.963440 0.476594 0.238526
0.116653 0.576299 0.237042
0.226011 0.576299 0.239567
0.335369 0.576299 0.242092
0.444727 0.576299 0.244617
0.549288 0.576299 0.243945
0.651070 0.576299 0.241420
0.752853 0.576299 0.238895
0.854635 0.576299 0.236370
0.956417 0.576299 0.233844
0.123676 0.676004 0.241724
0.233034 0.676004 0.244249
0.338701 0.676004 0.244314
0.440483 0.676004 0.241788
0.542265 0.676004 0.239263
0.644047 0.676004 0.236738
0.745829 0.676004 0.234213
0.847612 0.676004 0.231687
0.949394 0.676004 0.229162
0.128113 0.775709 0.244682
0.229895 0.775709 0.242157
0.331678 0.775709 0.239631
0.433460 0.775709 0.237106
0.535242 0.775709 0.234581
0.637024 0.775709 0.232056
0.738806 0.775709 0.229531
0.840588 0.775709 0.227005
0.943966 0.775709 0.225544
0.121090 0.875414 0.240000
0.222872 0.875414 0.237475
0.324654 0.875414 0.234949
0.426437 0.875414 0.232424
0.528219 0.875414 0.229899
0.630001 0.875414 0.227374
0.732826 0.875414 0.225544
0.838396 0.875414 0.225544
0.943966 0.875414 0.225544
0.099406 0.077774 0.309694
0.204976 0.077774 0.309694
0.310546 0.077774 0.309694
0.416116 0.077774 0.309694
0.521686 0.077774 0.309694
0.629477 0.077774 0.311175
0.738835 0.077774 0.313700
0.848193 0.077774 0.316225
0.957551 0.077774 0.318750
0.099406 0.177479 0.309694
0.204976 0.177479 0.309694
0.310546 0.177479 0.309694
0.417785 0.177479 0.310806
0.527143 0.177479 0.313332
0.636501 0.177479 0.315857
0.745858 0.177479 0.318382
0.855216 0.177479 0.320907
0.964574 0.177479 0.323433
0.099406 0.277184 0.309694
0.206092 0.277184 0.310438
0.315450 0.277184 0.312963
0.424808 0.277184 0.315488
0.534166 0.277184 0.318014
0.643524 0.277184 0.320539
0.752882 0.277184 0.323064
0.862240 0.277184 0.325589
0.971597 0.277184 0.328115
0.103758 0.376889 0.312595
0.213116 0.376889 0.315120
0.322474 0.376889 0.317645
0.431831 0.376889 0.320171
0.541189 0.376889 0.322696
0.650547 0.376889 0.325221
0.759905 0.376889 0.327746
0.867530 0.376889 0.329116
0.969312 0.376889 0.326591
0.110781 0.476594 0.317277
0.220139 0.476594 0.319802
0.329497 0.476594 0.322328
0.438855 0.476594 0.324853
0.548212 0.476594 0.327378
0.656943 0.476594 0.329485
0.758725 0.476594 0.326960
0.860507 0.476594 0.324434
0.962289 0.476594 0.321909
0.117804 0.576299 0.321959
0.227162 0.576299 0.324484
0.336520 0.576299 0.327010
0.445878 0.576299 0.329535
0.548137 0.576299 0.327328
0.649919 0.576299 0.324803
0.751701 0.576299 0.322277
0.853484 0.576299 0.319752
0.955266 0.576299 0.317227
0.124827 0.676004 0.326641
0.234185 0.676004 0.329167
0.337550 0.676004 0.327696
0.439332 0.676004 0.325171
0.541114 0.676004 0.322646
0.642896 0.676004 0.320120
0.744678 0.676004 0.317595
0.846460 0.676004 0.315070
0.948243 0.676004 0.312545
0.126962 0.775709 0.328064
0.228744 0.775709 0.325539
0.330526 0.775709 0.323014
0.432309 0.775709 0.320489
0.534091 0.775709 0.317964
0.635873 0.775709 0.315438
0.737655 0.775709 0.312913
0.839437 0.775709 0.310388
0.943966 0.775709 0.309694
0.119939 0.875414 0.323382
0.221721 0.875414 0.320857
0.323503 0.875414 0.318332
0.425285 0.875414 0.315807
0.527067 0.875414 0.313281
0.628850 0.875414 0.310756
0.732826 0.875414 0.309694
0.838396 0.875414 0.309694
0.943966 0.875414 0.309694
0.099406 0.077774 0.393844
0.204976 0.077774 0.393844
0.310546 0.077774 0.393844
0.416116 0.077774 0.393844
0.521686 0.077774 0.393844
0.630629 0.077774 0.396092
0.739986 0.077774 0.398617
0.849344 0.077774 0.401143
0.958702 0.077774 0.403668
0.099406 0.177479 0.393844
0.204976 0.177479 0.393844
0.310546 0.177479 0.393844
0.418936 0.177479 0.395724
0.528294 0.177479 0.398249
0.637652 0.177479 0.400774
0.747010 0.177479 0.403299
0.856367 0.177479 0.405825
0.965725 0.177479 0.408350
0.099406 0.277184 0.393844
0.207244 0.277184 0.395355
0.316601 0.277184 0.397881
0.425959 0.277184 0.400406
0.535317 0.277184 0.402931
0.644675 0.277184 0.405456
0.754033 0.277184 0.407982
0.863391 0.277184 0.410507
0.972749 0.277184 0.413032
0.104909 0.376889 0.397512
0.214267 0.376889 0.400038
0.323625 0.376889 0.402563
0.432983 0.376889 0.405088
0.542340 0.376889 0.407613
0.651698 0.376889 0.410139
0.761056 0.376889 0.412664
0.866379 0.376889 0.412499
0.968161 0.376889 0.409974
0.111932 0.476594 0.402195
0.221290 0.476594 0.404720
0.330648 0.476594 0.407245
0.440006 0.476594 0.409770
0.549364 0.476594 0.412295
0.655791 0.476594 0.412867
0.757573 0.476594 0.410342
0.859356 0.476594 0.407817
0.961138 0.476594 0.405292
0.118955 0.576299 0.406877
0.228313 0.576299 0.409402
0.337671 0.576299 0.411927
0.445204 0.576299 0.413236
0.546986 0.576299 0.410710
0.648768 0.576299 0.408185
0.750550 0.576299 0.405660
0.852332 0.576299 0.403135
0.954115 0.576299 0.400609
0.125979 0.676004 0.411559
0.234616 0.676004 0.413604
0.336398 0.676004 0.411079
0.438181 0.676004 0.408553
0.539963 0.676004 0.406028
0.641745 0.676004 0.403503
0.743527 0.676004 0.400978
0.845309 0.676004 0.398453
0.947091 0.676004 0.395927
0.125811 0.775709 0.411447
0.227593 0.775709 0.408922
0.329375 0.775709 0.406397
0.431157 0.775709 0.403871
0.532940 0.775709 0.401346
0.634722 0.775709 0.398821
0.736504 0.775709 0.396296
0.838396 0.775709 0.393844
0.943966 0.775709 0.393844
0.118788 0.875414 0.406765
0.220570 0.875414 0.404240
0.322352 0.875414 0.401714
0.424134 0.875414 0.399189
0.525916 0.875414 0.396664
0.627698 0.875414 0.394139
0.732826 0.875414 0.393844
0.838396 0.875414 0.393844
0.943966 0.875414 0.393844
0.099406 0.077774 0.477994
0.204976 0.077774 0.477994
0.310546 0.077774 0.477994
0.416116 0.077774 0.477994
0.522422 0.077774 0.478484
0.631780 0.077774 0.481010
0.741138 0.077774 0.483535
0.850495 0.077774 0.486060
0.959853 0.077774 0.488585
0.099406 0.177479 0.477994
0.204976 0.177479 0.477994
0.310729 0.177479 0.478116
0.420087 0.177479 0.480641
0.529445 0.177479 0.483166
0.638803 0.177479 0.485692
0.748161 0.177479 0.488217
0.857519 0.177479 0.490742
0.966877 0.177479 0.493267
0.099406 0.277184 0.477994
0.208395 0.277184 0.480273
0.317753 0.277184 0.482798
0.427110 0.277184 0.485323
0.536468 0.277184 0.487849
0.645826 0.277184 0.490374
0.755184 0.277184 0.492899
0.864542 0.277184 0.495424
0.973900 0.277184 0.497950
0.106060 0.376889 0.482430
0.215418 0.376889 0.484955
0.324776 0.376889 0.487480
0.434134 0.376889 0.490006
0.543492 0.376889 0.492531
0.652849 0.376889 0.495056
0.762207 0.376889 0.497581
0.865228 0.376889 0.495882
0.967010 0.376889 0.493356
0.113083 0.476594 0.487112
0.222441 0.476594 0.489637
0.331799 0.476594 0.492162
0.441157 0.476594 0.494688
0.550515 0.476594 0.497213
0.654640 0.476594 0.496250
0.756422 0.476594 0.493725
0.858204 0.476594 0.491199
0.959987 0.476594 0.488674
0.120107 0.576299 0.491794
0.229464 0.576299 0.494319
0.338822 0.576299 0.496845
0.444053 0.576299 0.496618
0.545835 0.576299 0.494093
0.647617 0.576299 0.491568
0.749399 0.576299 0.489042
0.851181 0.576299 0.486517
0.952963 0.576299 0.483992
0.127130 0.676004 0.496476
0.233465 0.676004 0.496986
0.335247 0.676004 0.494461
0.437029 0.676004 0.491936
0.538812 0.676004 0.489411
0.640594 0.676004 0.486886
0.742376 0.676004 0.484360
0.844158 0.676004 0.481835
0.945940 0.676004 0.479310
0.124660 0.775709 0.494830
0.226442 0.775709 0.492304
0.328224 0.775709 0.489779
0.430006 0.775709 0.487254
0.531788 0.775709 0.484729
0.633571 0.775709 0.482203
0.735353 0.775709 0.479678
0.838396 0.775709 0.477994
0.943966 0.775709 0.477994
0.117637 0.875414 0.490147
0.219419 0.875414 0.487622
0.321201 0.875414 0.485097
0.422983 0.875414 0.482572
0.524765 0.875414 0.480046
0.627256 0.875414 0.477994
0.732826 0.875414 0.477994
0.838396 0.875414 0.477994
0.943966 0.875414 0.477994
0.099406 0.077774 0.562144
0.204976 0.077774 0.562144
0.310546 0.077774 0.562144
0.416116 0.077774 0.562144
0.523573 0.077774 0.563402
0.632931 0.077774 0.565927
0.742289 0.077774 0.568452
0.851647 0.077774 0.570977
0.961004 0.077774 0.573503
0.099406 0.177479 0.562144
0.204976 0.177479 0.562144
0.311881 0.177479 0.563033
0.421238 0.177479 0.565559
0.530596 0.177479 0.568084
0.639954 0.177479 0.570609
0.749312 0.177479 0.573134
0.858670 0.177479 0.575660
0.968028 0.177479 0.578185
0.100188 0.277184 0.562665
0.209546 0.277184 0.565190
0.318904 0.277184 0.567716
0.428262 0.277184 0.570241
0.537620 0.277184 0.572766
0.646977 0.277184 0.575291
0.756335 0.277184 0.577817
0.865693 0.277184 0.580342
0.972882 0.277184 0.581421
0.107211 0.376889 0.567347
0.216569 0.376889 0.569873
0.325927 0.376889 0.572398
0.435285 0.376889 0.574923
0.544643 0.376889 0.577448
0.654001 0.376889 0.579973
0.762294 0.376889 0.581789
0.864077 0.376889 0.579264
0.965859 0.376889 0.576739
0.114235 0.476594 0.572029
0.223592 0.476594 0.574555
0.332950 0.476594 0.577080
0.442308 0.476594 0.579605
0.551666 0.476594 0.582130
0.653489 0.476594 0.579632
0.755271 0.476594 0.577107
0.857053 0.476594 0.574582
0.958835 0.476594 0.572057
0.121258 0.576299 0.576712
0.230616 0.576299 0.579237
0.339973 0.576299 0.581762
0.442901 0.576299 0.580001
0.544684 0.576299 0.577475
0.646466 0.576299 0.574950
0.748248 0.576299 0.572425
0.850030 0.576299 0.569900
0.951812 0.576299 0.567375
0.128281 0.676004 0.581394
0.232314 0.676004 0.580369
0.334096 0.676004 0.577844
0.435878 0.676004 0.575319
0.537660 0.676004 0.572793
0.639443 0.676004 0.570268
0.741225 0.676004 0.567743
0.843007 0.676004 0.565218
0.944789 0.676004 0.562692
0.123509 0.775709 0.578212
0.225291 0.775709 0.575687
0.327073 0.775709 0.573162
0.428855 0.775709 0.570636
0.530637 0.775709 0.568111
0.632419 0.775709 0.565586
0.734201 0.775709 0.563061
0.838396 0.775709 0.562144
0.943966 0.775709 0.562144
0.116485 0.875414 0.573530
0.218268 0.875414 0.571005
0.320050 0.875414 0.568480
0.421832 0.875414 0.565954
0.523614 0.875414 0.563429
0.627256 0.875414 0.562144
0.732826 0.875414 0.562144
0.838396 0.875414 0.562144
0.943966 0.875414 0.562144
0.099406 0.077774 0.646294
0.204976 0.077774 0.646294
0.310546 0.077774 0.646294
0.416116 0.077774 0.646294
0.524724 0.077774 0.648319
0.634082 0.077774 0.650844
0.743440 0.077774 0.653370
0.852798 0.077774 0.655895
0.962156 0.077774 0.658420
0.099406 0.177479 0.646294
0.204976 0.177479 0.646294
0.313032 0.177479 0.647951
0.422390 0.177479 0.650476
0.531747 0.177479 0.653001
0.641105 0.177479 0.655527
0.750463 0.177479 0.658052
0.859821 0.177479 0.660577
0.969179 0.177479 0.663102
0.101339 0.277184 0.647583
0.210697 0.277184 0.650108
0.320055 0.277184 0.652633
0.429413 0.277184 0.655158
0.538771 0.277184 0.657684
0.648129 0.277184 0.660209
0.757486 0.277184 0.662734
0.866844 0.277184 0.665259
0.971731 0.277184 0.664804
0.108362 0.376889 0.652265
0.217720 0.376889 0.654790
0.327078 0.376889 0.657315
0.436436 0.376889 0.659840
0.545794 0.376889 0.662366
0.655152 0.376889 0.664891
0.761143 0.376889 0.665172
0.862925 0.376889 0.662647
0.964707 0.376889 0.660121
0.115386 0.476594 0.656947
0.224744 0.476594 0.659472
0.334101 0.476594 0.661997
0.443459 0.476594 0.664523
0.550556 0.476594 0.665540
0.652338 0.476594 0.663015
0.754120 0.476594 0.660490
0.855902 0.476594 0.657964
0.957684 0.476594 0.655439
0.122409 0.576299 0.661629
0.231767 0.576299 0.664154
0.339968 0.576299 0.665909
0.441750 0.576299 0.663383
0.543532 0.576299 0.660858
0.645315 0.576299 0.658333
0.747097 0.576299 0.655808
0.848879 0.576299 0.653282
0.950661 0.576299 0.650757
0.129381 0.676004 0.666277
0.231163 0.676004 0.663752
0.332945 0.676004 0.661226
0.434727 0.676004 0.658701
0.536509 0.676004 0.656176
0.638291 0.676004 0.653651
0.740074 0.676004 0.651125
0.841856 0.676004 0.648600
0.943966 0.676004 0.646294
0.122357 0.775709 0.661595
0.224140 0.775709 0.659069
0.325922 0.775709 0.656544
0.427704 0.775709 0.654019
0.529486 0.775709 0.651494
0.631268 0.775709 0.648969
0.733050 0.775709 0.646443
0.838396 0.775709 0.646294
0.943966 0.775709 0.646294
0.115334 0.875414 0.656913
0.217116 0.875414 0.654387
0.318899 0.875414 0.651862
0.420681 0.875414 0.649337
0.522463 0.875414 0.646812
0.627256 0.875414 0.646294
0.732826 0.875414 0.646294
0.838396 0.875414 0.646294
0.943966 0.875414 0.646294
0.099406 0.077774 0.730444
0.204976 0.077774 0.730444
0.310546 0.077774 0.730444
0.416518 0.077774 0.730711
0.525875 0.077774 0.733237
0.635233 0.077774 0.735762
0.744591 0.077774 0.738287
0.853949 0.077774 0.740812
0.963307 0.077774 0.743338
0.099406 0.177479 0.730444
0.204976 0.177479 0.730444
0.314183 0.177479 0.732868
0.423541 0.177479 0.735394
0.532899 0.177479 0.737919
0.642256 0.177479 0.740444
0.751614 0.177479 0.742969
0.860972 0.177479 0.745495
0.970330 0.177479 0.748020
0.102490 0.277184 0.732500
0.211848 0.277184 0.735025
0.321206 0.277184 0.737550
0.430564 0.277184 0.740076
0.539922 0.277184 0.742601
0.649280 0.277184 0.745126
0.758638 0.277184 0.747651
0.867995 0.277184 0.750177
0.970580 0.277184 0.748186
0.109514 0.376889 0.737182
0.218872 0.376889 0.739707
0.328229 0.376889 0.742233
0.437587 0.376889 0.744758
0.546945 0.376889 0.747283
0.656303 0.376889 0.749808
0.759992 0.376889 0.748554
0.861774 0.376889 0.746029
0.963556 0.376889 0.743504
0.116537 0.476594 0.741864
0.225895 0.476594 0.744390
0.335253 0.476594 0.746915
0.444610 0.476594 0.749440
0.549405 0.476594 0.748923
0.651187 0.476594 0.746398
0.752969 0.476594 0.743872
0.854751 0.476594 0.741347
0.956533 0.476594 0.738822
0.123560 0.576299 0.746546
0.232918 0.576299 0.749072
0.338817 0.576299 0.749291
0.440599 0.576299 0.746766
0.542381 0.576299 0.744241
0.644163 0.576299 0.741715
0.745946 0.576299 0.739190
0.847728 0.576299 0.736665
0.949510 0.576299 0.734140
0.128229 0.676004 0.749659
0.230012 0.676004 0.747134
0.331794 0.676004 0.744609
0.433576 0.676004 0.742084
0.535358 0.676004 0.739558
0.637140 0.676004 0.737033
0.738922 0.676004 0.734508
0.840705 0.676004 0.731983
0.943966 0.676004 0.730444
0.121206 0.775709 0.744977
0.222988 0.775709 0.742452
0.324771 0.775709 0.739927
0.426553 0.775709 0.737402
0.528335 0.775709 0.734876
0.630117 0.775709 0.732351
0.732826 0.775709 0.730444
0.838396 0.775709 0.730444
0.943966 0.775709 0.730444
0.114183 0.875414 0.740295
0.215965 0.875414 0.737770
0.317747 0.875414 0.735245
0.419529 0.875414 0.732719
0.521686 0.875414 0.730444
0.627256 0.875414 0.730444
0.732826 0.875414 0.730444
0.838396 0.875414 0.730444
0.943966 0.875414 0.730444
