luts/warm_vintage.cube
TITLE "Warm Vintage"
LUT_3D_SIZE 5
DOMAIN_MIN 0.0 0.0 0.0
DOMAIN_MAX 1.0 1.0 1.0
0.099406 0.077774 0.057244
0.310546 0.077774 0.057244
0.521686 0.077774 0.057244
0.735382 0.077774 0.058948
0.954097 0.077774 0.063998
0.099406 0.277184 0.057244
0.311997 0.277184 0.058211
0.530712 0.277184 0.063261
0.749428 0.277184 0.068312
0.968144 0.277184 0.073362
0.107328 0.476594 0.062525
0.326043 0.476594 0.067575
0.544759 0.476594 0.072626
0.762178 0.476594 0.076812
0.965742 0.476594 0.071761
0.121374 0.676004 0.071889
0.340090 0.676004 0.076940
0.544567 0.676004 0.072498
0.748132 0.676004 0.067448
0.951696 0.676004 0.062397
0.123392 0.875414 0.073235
0.326957 0.875414 0.068184
0.530521 0.875414 0.063134
0.734085 0.875414 0.058083
0.943966 0.875414 0.057244
0.099406 0.077774 0.225544
0.310546 0.077774 0.225544
0.521686 0.077774 0.225544
0.737684 0.077774 0.228782
0.956400 0.077774 0.233833
0.099406 0.277184 0.225544
0.314299 0.277184 0.228046
0.533015 0.277184 0.233096
0.751731 0.277184 0.238147
0.970446 0.277184 0.243197
0.109630 0.476594 0.232360
0.328346 0.476594 0.237410
0.547061 0.476594 0.242461
0.759876 0.476594 0.243577
0.963440 0.476594 0.238526
0.123676 0.676004 0.241724
0.338701 0.676004 0.244314
0.542265 0.676004 0.239263
0.745829 0.676004 0.234213
0.949394 0.676004 0.229162
0.121090 0.875414 0.240000
0.324654 0.875414 0.234949
0.528219 0.875414 0.229899
0.732826 0.875414 0.225544
0.943966 0.875414 0.225544
0.099406 0.077774 0.393844
0.310546 0.077774 0.393844
0.521686 0.077774 0.393844
0.739986 0.077774 0.398617
0.958702 0.077774 0.403668
0.099406 0.277184 0.393844
0.316601 0.277184 0.397881
0.535317 0.277184 0.402931
0.754033 0.277184 0.407982
0.972749 0.277184 0.413032
0.111932 0.476594 0.402195
0.330648 0.476594 0.407245
0.549364 0.476594 0.412295
0.757573 0.476594 0.410342
0.961138 0.476594 0.405292
0.125979 0.676004 0.411559
0.336398 0.676004 0.411079
0.539963 0.676004 0.406028
0.743527 0.676004 0.400978
0.947091 0.676004 0.395927
0.118788 0.875414 0.406765
0.322352 0.875414 0.401714
0.525916 0.875414 0.396664
0.732826 0.875414 0.393844
0.943966 0.875414 0.393844
0.099406 0.077774 0.562144
0.310546 0.077774 0.562144
0.523573 0.077774 0.563402
0.742289 0.077774 0.568452
0.961004 0.077774 0.573503
0.100188 0.277184 0.562665
0.318904 0.277184 0.567716
0.537620 0.277184 0.572766
0.756335 0.277184 0.577817
0.972882 0.277184 0.581421
0.114235 0.476594 0.572029
0.332950 0.476594 0.577080
0.551666 0.476594 0.582130
0.755271 0.476594 0.577107
0.958835 0.476594 0.572057
0.128281 0.676004 0.581394
0.334096 0.676004 0.577844
0.537660 0.676004 0.572793
0.741225 0.676004 0.567743
0.944789 0.676004 0.562692
0.116485 0.875414 0.573530
0.320050 0.875414 0.568480
0.523614 0.875414 0.563429
0.732826 0.875414 0.562144
0.943966 0.875414 0.562144
0.099406 0.077774 0.730444
0.310546 0.077774 0.730444
0.525875 0.077774 0.733237
0.744591 0.077774 0.738287
0.963307 0.077774 0.743338
0.102490 0.277184 0.732500
0.321206 0.277184 0.737550
0.539922 0.277184 0.742601
0.758638 0.277184 0.747651
0.970580 0.277184 0.748186
0.116537 0.476594 0.741864
0.335253 0.476594 0.746915
0.549405 0.476594 0.748923
0.752969 0.476594 0.743872
0.956533 0.476594 0.738822
0.128229 0.676004 0.749659
0.331794 0.676004 0.744609
0.535358 0.676004 0.739558
0.738922 0.676004 0.734508
0.943966 0.676004 0.730444
0.114183 0.875414 0.740295
0.317747 0.875414 0.735245
0.521686 0.875414 0.730444
0.732826 0.875414 0.730444
0.943966 0.875414 0.730444
